( Made using CamBam - http://www.cambam.co.uk )
( linstrument_small 9/30/2014 12:21:03 PM )
( T0 : 0.0 )
G21 G90 G64 G40
G0 Z3.0
( T0 : 0.0 )
T0 M6
( rezanje_rupi )
G17
M3 S1000
G0 X12.2 Y47.2
G0 Z1.0
G1 F300.0 Z-1.0
G1 F800.0 Y76.8
G1 X26.8
G1 Y47.2
G1 X12.2
G1 F300.0 Z-2.0
G1 F800.0 Y76.8
G1 X26.8
G1 Y47.2
G1 X12.2
G1 F300.0 Z-3.0
G1 F800.0 Y76.8
G1 X26.8
G1 Y47.2
G1 X12.2
G0 Z3.0
G0 Y41.8
G0 Z1.0
G1 F300.0 Z-1.0
G1 F800.0 X26.8
G1 Y12.2
G1 X12.2
G1 Y41.8
G1 F300.0 Z-2.0
G1 F800.0 X26.8
G1 Y12.2
G1 X12.2
G1 Y41.8
G1 F300.0 Z-3.0
G1 F800.0 X26.8
G1 Y12.2
G1 X12.2
G1 Y41.8
G0 Z3.0
G0 X32.2
G0 Z1.0
G1 F300.0 Z-1.0
G1 F800.0 X46.8
G1 Y12.2
G1 X32.2
G1 Y41.8
G1 F300.0 Z-2.0
G1 F800.0 X46.8
G1 Y12.2
G1 X32.2
G1 Y41.8
G1 F300.0 Z-3.0
G1 F800.0 X46.8
G1 Y12.2
G1 X32.2
G1 Y41.8
G0 Z3.0
G0 Y47.2
G0 Z1.0
G1 F300.0 Z-1.0
G1 F800.0 Y76.8
G1 X46.8
G1 Y47.2
G1 X32.2
G1 F300.0 Z-2.0
G1 F800.0 Y76.8
G1 X46.8
G1 Y47.2
G1 X32.2
G1 F300.0 Z-3.0
G1 F800.0 Y76.8
G1 X46.8
G1 Y47.2
G1 X32.2
G0 Z3.0
M5
M30
