( Made using CamBam - http://www.cambam.co.uk )
( linstrument_small 9/30/2014 12:24:48 PM )
( T0 : 0.0 )
G21 G90 G64 G40
G0 Z3.0
( T0 : 0.0 )
T0 M6
( gumb_van )
G17
M3 S1000
G0 X11.5 Y46.5
G0 Z1.0
G1 F300.0 Z-1.0
G1 F800.0 Y77.5
G1 X27.5
G1 Y46.5
G1 X11.5
G1 F300.0 Z-2.0
G1 F800.0 Y77.5
G1 X27.5
G1 Y46.5
G1 X11.5
G1 F300.0 Z-3.0
G1 F800.0 Y77.5
G1 X27.5
G1 Y46.5
G1 X11.5
G0 Z3.0
G0 Y42.5
G0 Z1.0
G1 F300.0 Z-1.0
G1 F800.0 X27.5
G1 Y11.5
G1 X11.5
G1 Y42.5
G1 F300.0 Z-2.0
G1 F800.0 X27.5
G1 Y11.5
G1 X11.5
G1 Y42.5
G1 F300.0 Z-3.0
G1 F800.0 X27.5
G1 Y11.5
G1 X11.5
G1 Y42.5
G0 Z3.0
G0 X31.5
G0 Z1.0
G1 F300.0 Z-1.0
G1 F800.0 X47.5
G1 Y11.5
G1 X31.5
G1 Y42.5
G1 F300.0 Z-2.0
G1 F800.0 X47.5
G1 Y11.5
G1 X31.5
G1 Y42.5
G1 F300.0 Z-3.0
G1 F800.0 X47.5
G1 Y11.5
G1 X31.5
G1 Y42.5
G0 Z3.0
G0 Y46.5
G0 Z1.0
G1 F300.0 Z-1.0
G1 F800.0 Y77.5
G1 X47.5
G1 Y46.5
G1 X31.5
G1 F300.0 Z-2.0
G1 F800.0 Y77.5
G1 X47.5
G1 Y46.5
G1 X31.5
G1 F300.0 Z-3.0
G1 F800.0 Y77.5
G1 X47.5
G1 Y46.5
G1 X31.5
G0 Z3.0
M5
M30
