( Made using CamBam - http://www.cambam.co.uk )
( linstrument 11/1/2014 1:44:33 PM )
( T0 : 3.5 )
G21 G90 G64 G40
G0 Z3.0
( T0 : 3.5 )
T0 M6
( gumb_cisti )
G17
M3 S1000
G0 X235.35 Y163.65
G0 Z1.0
G1 F300.0 Z-3.0
G1 F800.0 X223.65
G1 Y190.35
G1 X235.35
G1 Y163.65
G0 Z3.0
G0 Y155.35
G0 Z1.0
G1 F300.0 Z-3.0
G1 F800.0 Y128.65
G1 X223.65
G1 Y155.35
G1 X235.35
G0 Z3.0
G0 X243.65
G0 Z1.0
G1 F300.0 Z-3.0
G1 F800.0 X255.35
G1 Y128.65
G1 X243.65
G1 Y155.35
G0 Z3.0
G0 Y163.65
G0 Z1.0
G1 F300.0 Z-3.0
G1 F800.0 Y190.35
G1 X255.35
G1 Y163.65
G1 X243.65
G0 Z3.0
G0 X215.35
G0 Z1.0
G1 F300.0 Z-3.0
G1 F800.0 X203.65
G1 Y190.35
G1 X215.35
G1 Y163.65
G0 Z3.0
G0 Y155.35
G0 Z1.0
G1 F300.0 Z-3.0
G1 F800.0 Y128.65
G1 X203.65
G1 Y155.35
G1 X215.35
G0 Z3.0
G0 X195.35
G0 Z1.0
G1 F300.0 Z-3.0
G1 F800.0 Y128.65
G1 X183.65
G1 Y155.35
G1 X195.35
G0 Z3.0
G0 Y163.65
G0 Z1.0
G1 F300.0 Z-3.0
G1 F800.0 X183.65
G1 Y190.35
G1 X195.35
G1 Y163.65
G0 Z3.0
G0 X175.35
G0 Z1.0
G1 F300.0 Z-3.0
G1 F800.0 X163.65
G1 Y190.35
G1 X175.35
G1 Y163.65
G0 Z3.0
G0 Y155.35
G0 Z1.0
G1 F300.0 Z-3.0
G1 F800.0 Y128.65
G1 X163.65
G1 Y155.35
G1 X175.35
G0 Z3.0
G0 X155.35
G0 Z1.0
G1 F300.0 Z-3.0
G1 F800.0 Y128.65
G1 X143.65
G1 Y155.35
G1 X155.35
G0 Z3.0
G0 Y163.65
G0 Z1.0
G1 F300.0 Z-3.0
G1 F800.0 X143.65
G1 Y190.35
G1 X155.35
G1 Y163.65
G0 Z3.0
G0 X135.35
G0 Z1.0
G1 F300.0 Z-3.0
G1 F800.0 X123.65
G1 Y190.35
G1 X135.35
G1 Y163.65
G0 Z3.0
G0 Y155.35
G0 Z1.0
G1 F300.0 Z-3.0
G1 F800.0 Y128.65
G1 X123.65
G1 Y155.35
G1 X135.35
G0 Z3.0
G0 X115.35
G0 Z1.0
G1 F300.0 Z-3.0
G1 F800.0 Y128.65
G1 X103.65
G1 Y155.35
G1 X115.35
G0 Z3.0
G0 Y163.65
G0 Z1.0
G1 F300.0 Z-3.0
G1 F800.0 X103.65
G1 Y190.35
G1 X115.35
G1 Y163.65
G0 Z3.0
G0 X95.35
G0 Z1.0
G1 F300.0 Z-3.0
G1 F800.0 X83.65
G1 Y190.35
G1 X95.35
G1 Y163.65
G0 Z3.0
G0 Y155.35
G0 Z1.0
G1 F300.0 Z-3.0
G1 F800.0 Y128.65
G1 X83.65
G1 Y155.35
G1 X95.35
G0 Z3.0
G0 X75.35
G0 Z1.0
G1 F300.0 Z-3.0
G1 F800.0 Y128.65
G1 X63.65
G1 Y155.35
G1 X75.35
G0 Z3.0
G0 Y163.65
G0 Z1.0
G1 F300.0 Z-3.0
G1 F800.0 X63.65
G1 Y190.35
G1 X75.35
G1 Y163.65
G0 Z3.0
G0 X55.35
G0 Z1.0
G1 F300.0 Z-3.0
G1 F800.0 X43.65
G1 Y190.35
G1 X55.35
G1 Y163.65
G0 Z3.0
G0 Y155.35
G0 Z1.0
G1 F300.0 Z-3.0
G1 F800.0 Y128.65
G1 X43.65
G1 Y155.35
G1 X55.35
G0 Z3.0
G0 X35.35
G0 Z1.0
G1 F300.0 Z-3.0
G1 F800.0 Y128.65
G1 X23.65
G1 Y155.35
G1 X35.35
G0 Z3.0
G0 Y163.65
G0 Z1.0
G1 F300.0 Z-3.0
G1 F800.0 X23.65
G1 Y190.35
G1 X35.35
G1 Y163.65
G0 Z3.0
G0 Y198.65
G0 Z1.0
G1 F300.0 Z-3.0
G1 F800.0 X23.65
G1 Y225.35
G1 X35.35
G1 Y198.65
G0 Z3.0
G0 X43.65
G0 Z1.0
G1 F300.0 Z-3.0
G1 F800.0 Y225.35
G1 X55.35
G1 Y198.65
G1 X43.65
G0 Z3.0
G0 X63.65
G0 Z1.0
G1 F300.0 Z-3.0
G1 F800.0 Y225.35
G1 X75.35
G1 Y198.65
G1 X63.65
G0 Z3.0
G0 X83.65
G0 Z1.0
G1 F300.0 Z-3.0
G1 F800.0 Y225.35
G1 X95.35
G1 Y198.65
G1 X83.65
G0 Z3.0
G0 X103.65
G0 Z1.0
G1 F300.0 Z-3.0
G1 F800.0 Y225.35
G1 X115.35
G1 Y198.65
G1 X103.65
G0 Z3.0
G0 X123.65
G0 Z1.0
G1 F300.0 Z-3.0
G1 F800.0 Y225.35
G1 X135.35
G1 Y198.65
G1 X123.65
G0 Z3.0
G0 X143.65
G0 Z1.0
G1 F300.0 Z-3.0
G1 F800.0 Y225.35
G1 X155.35
G1 Y198.65
G1 X143.65
G0 Z3.0
G0 X163.65
G0 Z1.0
G1 F300.0 Z-3.0
G1 F800.0 Y225.35
G1 X175.35
G1 Y198.65
G1 X163.65
G0 Z3.0
G0 X183.65
G0 Z1.0
G1 F300.0 Z-3.0
G1 F800.0 Y225.35
G1 X195.35
G1 Y198.65
G1 X183.65
G0 Z3.0
G0 X203.65
G0 Z1.0
G1 F300.0 Z-3.0
G1 F800.0 Y225.35
G1 X215.35
G1 Y198.65
G1 X203.65
G0 Z3.0
G0 X223.65
G0 Z1.0
G1 F300.0 Z-3.0
G1 F800.0 Y225.35
G1 X235.35
G1 Y198.65
G1 X223.65
G0 Z3.0
G0 X243.65
G0 Z1.0
G1 F300.0 Z-3.0
G1 F800.0 Y225.35
G1 X255.35
G1 Y198.65
G1 X243.65
G0 Z3.0
G0 Y233.65
G0 Z1.0
G1 F300.0 Z-3.0
G1 F800.0 Y260.35
G1 X255.35
G1 Y233.65
G1 X243.65
G0 Z3.0
G0 X235.35
G0 Z1.0
G1 F300.0 Z-3.0
G1 F800.0 X223.65
G1 Y260.35
G1 X235.35
G1 Y233.65
G0 Z3.0
G0 X215.35
G0 Z1.0
G1 F300.0 Z-3.0
G1 F800.0 X203.65
G1 Y260.35
G1 X215.35
G1 Y233.65
G0 Z3.0
G0 X195.35
G0 Z1.0
G1 F300.0 Z-3.0
G1 F800.0 X183.65
G1 Y260.35
G1 X195.35
G1 Y233.65
G0 Z3.0
G0 X175.35
G0 Z1.0
G1 F300.0 Z-3.0
G1 F800.0 X163.65
G1 Y260.35
G1 X175.35
G1 Y233.65
G0 Z3.0
G0 X155.35
G0 Z1.0
G1 F300.0 Z-3.0
G1 F800.0 X143.65
G1 Y260.35
G1 X155.35
G1 Y233.65
G0 Z3.0
G0 X135.35
G0 Z1.0
G1 F300.0 Z-3.0
G1 F800.0 X123.65
G1 Y260.35
G1 X135.35
G1 Y233.65
G0 Z3.0
G0 X115.35
G0 Z1.0
G1 F300.0 Z-3.0
G1 F800.0 X103.65
G1 Y260.35
G1 X115.35
G1 Y233.65
G0 Z3.0
G0 X95.35
G0 Z1.0
G1 F300.0 Z-3.0
G1 F800.0 X83.65
G1 Y260.35
G1 X95.35
G1 Y233.65
G0 Z3.0
G0 X75.35
G0 Z1.0
G1 F300.0 Z-3.0
G1 F800.0 X63.65
G1 Y260.35
G1 X75.35
G1 Y233.65
G0 Z3.0
G0 X55.35
G0 Z1.0
G1 F300.0 Z-3.0
G1 F800.0 X43.65
G1 Y260.35
G1 X55.35
G1 Y233.65
G0 Z3.0
G0 X35.35
G0 Z1.0
G1 F300.0 Z-3.0
G1 F800.0 X23.65
G1 Y260.35
G1 X35.35
G1 Y233.65
G0 Z3.0
G0 Y268.65
G0 Z1.0
G1 F300.0 Z-3.0
G1 F800.0 X23.65
G1 Y295.35
G1 X35.35
G1 Y268.65
G0 Z3.0
G0 X43.65
G0 Z1.0
G1 F300.0 Z-3.0
G1 F800.0 Y295.35
G1 X55.35
G1 Y268.65
G1 X43.65
G0 Z3.0
G0 X63.65
G0 Z1.0
G1 F300.0 Z-3.0
G1 F800.0 Y295.35
G1 X75.35
G1 Y268.65
G1 X63.65
G0 Z3.0
G0 X83.65
G0 Z1.0
G1 F300.0 Z-3.0
G1 F800.0 Y295.35
G1 X95.35
G1 Y268.65
G1 X83.65
G0 Z3.0
G0 X103.65
G0 Z1.0
G1 F300.0 Z-3.0
G1 F800.0 Y295.35
G1 X115.35
G1 Y268.65
G1 X103.65
G0 Z3.0
G0 X123.65
G0 Z1.0
G1 F300.0 Z-3.0
G1 F800.0 Y295.35
G1 X135.35
G1 Y268.65
G1 X123.65
G0 Z3.0
G0 X143.65
G0 Z1.0
G1 F300.0 Z-3.0
G1 F800.0 Y295.35
G1 X155.35
G1 Y268.65
G1 X143.65
G0 Z3.0
G0 X163.65
G0 Z1.0
G1 F300.0 Z-3.0
G1 F800.0 Y295.35
G1 X175.35
G1 Y268.65
G1 X163.65
G0 Z3.0
G0 X183.65
G0 Z1.0
G1 F300.0 Z-3.0
G1 F800.0 Y295.35
G1 X195.35
G1 Y268.65
G1 X183.65
G0 Z3.0
G0 X203.65
G0 Z1.0
G1 F300.0 Z-3.0
G1 F800.0 Y295.35
G1 X215.35
G1 Y268.65
G1 X203.65
G0 Z3.0
G0 X223.65
G0 Z1.0
G1 F300.0 Z-3.0
G1 F800.0 Y295.35
G1 X235.35
G1 Y268.65
G1 X223.65
G0 Z3.0
G0 X243.65
G0 Z1.0
G1 F300.0 Z-3.0
G1 F800.0 Y295.35
G1 X255.35
G1 Y268.65
G1 X243.65
G0 Z3.0
G0 Y120.35
G0 Z1.0
G1 F300.0 Z-3.0
G1 F800.0 X255.35
G1 Y93.65
G1 X243.65
G1 Y120.35
G0 Z3.0
G0 X235.35
G0 Z1.0
G1 F300.0 Z-3.0
G1 F800.0 Y93.65
G1 X223.65
G1 Y120.35
G1 X235.35
G0 Z3.0
G0 X215.35
G0 Z1.0
G1 F300.0 Z-3.0
G1 F800.0 Y93.65
G1 X203.65
G1 Y120.35
G1 X215.35
G0 Z3.0
G0 X195.35
G0 Z1.0
G1 F300.0 Z-3.0
G1 F800.0 Y93.65
G1 X183.65
G1 Y120.35
G1 X195.35
G0 Z3.0
G0 X175.35
G0 Z1.0
G1 F300.0 Z-3.0
G1 F800.0 Y93.65
G1 X163.65
G1 Y120.35
G1 X175.35
G0 Z3.0
G0 X155.35
G0 Z1.0
G1 F300.0 Z-3.0
G1 F800.0 Y93.65
G1 X143.65
G1 Y120.35
G1 X155.35
G0 Z3.0
G0 X135.35
G0 Z1.0
G1 F300.0 Z-3.0
G1 F800.0 Y93.65
G1 X123.65
G1 Y120.35
G1 X135.35
G0 Z3.0
G0 X115.35
G0 Z1.0
G1 F300.0 Z-3.0
G1 F800.0 Y93.65
G1 X103.65
G1 Y120.35
G1 X115.35
G0 Z3.0
G0 X95.35
G0 Z1.0
G1 F300.0 Z-3.0
G1 F800.0 Y93.65
G1 X83.65
G1 Y120.35
G1 X95.35
G0 Z3.0
G0 X75.35
G0 Z1.0
G1 F300.0 Z-3.0
G1 F800.0 Y93.65
G1 X63.65
G1 Y120.35
G1 X75.35
G0 Z3.0
G0 X55.35
G0 Z1.0
G1 F300.0 Z-3.0
G1 F800.0 Y93.65
G1 X43.65
G1 Y120.35
G1 X55.35
G0 Z3.0
G0 X35.35
G0 Z1.0
G1 F300.0 Z-3.0
G1 F800.0 Y93.65
G1 X23.65
G1 Y120.35
G1 X35.35
G0 Z3.0
G0 Y85.35
G0 Z1.0
G1 F300.0 Z-3.0
G1 F800.0 Y58.65
G1 X23.65
G1 Y85.35
G1 X35.35
G0 Z3.0
G0 X43.65
G0 Z1.0
G1 F300.0 Z-3.0
G1 F800.0 X55.35
G1 Y58.65
G1 X43.65
G1 Y85.35
G0 Z3.0
G0 X63.65
G0 Z1.0
G1 F300.0 Z-3.0
G1 F800.0 X75.35
G1 Y58.65
G1 X63.65
G1 Y85.35
G0 Z3.0
G0 X83.65
G0 Z1.0
G1 F300.0 Z-3.0
G1 F800.0 X95.35
G1 Y58.65
G1 X83.65
G1 Y85.35
G0 Z3.0
G0 X103.65
G0 Z1.0
G1 F300.0 Z-3.0
G1 F800.0 X115.35
G1 Y58.65
G1 X103.65
G1 Y85.35
G0 Z3.0
G0 X123.65
G0 Z1.0
G1 F300.0 Z-3.0
G1 F800.0 X135.35
G1 Y58.65
G1 X123.65
G1 Y85.35
G0 Z3.0
G0 X143.65
G0 Z1.0
G1 F300.0 Z-3.0
G1 F800.0 X155.35
G1 Y58.65
G1 X143.65
G1 Y85.35
G0 Z3.0
G0 X163.65
G0 Z1.0
G1 F300.0 Z-3.0
G1 F800.0 X175.35
G1 Y58.65
G1 X163.65
G1 Y85.35
G0 Z3.0
G0 X183.65
G0 Z1.0
G1 F300.0 Z-3.0
G1 F800.0 X195.35
G1 Y58.65
G1 X183.65
G1 Y85.35
G0 Z3.0
G0 X203.65
G0 Z1.0
G1 F300.0 Z-3.0
G1 F800.0 X215.35
G1 Y58.65
G1 X203.65
G1 Y85.35
G0 Z3.0
G0 X223.65
G0 Z1.0
G1 F300.0 Z-3.0
G1 F800.0 X235.35
G1 Y58.65
G1 X223.65
G1 Y85.35
G0 Z3.0
G0 X243.65
G0 Z1.0
G1 F300.0 Z-3.0
G1 F800.0 X255.35
G1 Y58.65
G1 X243.65
G1 Y85.35
G0 Z3.0
G0 Y50.35
G0 Z1.0
G1 F300.0 Z-3.0
G1 F800.0 X255.35
G1 Y23.65
G1 X243.65
G1 Y50.35
G0 Z3.0
G0 X235.35
G0 Z1.0
G1 F300.0 Z-3.0
G1 F800.0 Y23.65
G1 X223.65
G1 Y50.35
G1 X235.35
G0 Z3.0
G0 X215.35
G0 Z1.0
G1 F300.0 Z-3.0
G1 F800.0 Y23.65
G1 X203.65
G1 Y50.35
G1 X215.35
G0 Z3.0
G0 X195.35
G0 Z1.0
G1 F300.0 Z-3.0
G1 F800.0 Y23.65
G1 X183.65
G1 Y50.35
G1 X195.35
G0 Z3.0
G0 X175.35
G0 Z1.0
G1 F300.0 Z-3.0
G1 F800.0 Y23.65
G1 X163.65
G1 Y50.35
G1 X175.35
G0 Z3.0
G0 X155.35
G0 Z1.0
G1 F300.0 Z-3.0
G1 F800.0 Y23.65
G1 X143.65
G1 Y50.35
G1 X155.35
G0 Z3.0
G0 X135.35
G0 Z1.0
G1 F300.0 Z-3.0
G1 F800.0 Y23.65
G1 X123.65
G1 Y50.35
G1 X135.35
G0 Z3.0
G0 X115.35
G0 Z1.0
G1 F300.0 Z-3.0
G1 F800.0 Y23.65
G1 X103.65
G1 Y50.35
G1 X115.35
G0 Z3.0
G0 X95.35
G0 Z1.0
G1 F300.0 Z-3.0
G1 F800.0 Y23.65
G1 X83.65
G1 Y50.35
G1 X95.35
G0 Z3.0
G0 X75.35
G0 Z1.0
G1 F300.0 Z-3.0
G1 F800.0 Y23.65
G1 X63.65
G1 Y50.35
G1 X75.35
G0 Z3.0
G0 X55.35
G0 Z1.0
G1 F300.0 Z-3.0
G1 F800.0 Y23.65
G1 X43.65
G1 Y50.35
G1 X55.35
G0 Z3.0
G0 X35.35
G0 Z1.0
G1 F300.0 Z-3.0
G1 F800.0 Y23.65
G1 X23.65
G1 Y50.35
G1 X35.35
G0 Z3.0
M5
M30
