( Made using CamBam - http://www.cambam.co.uk )
( linstrument 11/1/2014 1:44:28 PM )
( T0 : 3.5 )
G21 G90 G64 G40
G0 Z3.0
( T0 : 3.5 )
T0 M6
( gumb_okvir )
G17
M3 S1000
G0 X236.35 Y162.65
G0 Z1.0
G1 F300.0 Z-1.0
G1 F800.0 X222.65
G1 Y191.35
G1 X236.35
G1 Y162.65
G1 F300.0 Z-1.5
G1 F800.0 X222.65
G1 Y191.35
G1 X236.35
G1 Y162.65
G0 Z3.0
G0 X242.65
G0 Z1.0
G1 F300.0 Z-1.0
G1 F800.0 Y191.35
G1 X256.35
G1 Y162.65
G1 X242.65
G1 F300.0 Z-1.5
G1 F800.0 Y191.35
G1 X256.35
G1 Y162.65
G1 X242.65
G0 Z3.0
G0 Y156.35
G0 Z1.0
G1 F300.0 Z-1.0
G1 F800.0 X256.35
G1 Y127.65
G1 X242.65
G1 Y156.35
G1 F300.0 Z-1.5
G1 F800.0 X256.35
G1 Y127.65
G1 X242.65
G1 Y156.35
G0 Z3.0
G0 X236.35
G0 Z1.0
G1 F300.0 Z-1.0
G1 F800.0 Y127.65
G1 X222.65
G1 Y156.35
G1 X236.35
G1 F300.0 Z-1.5
G1 F800.0 Y127.65
G1 X222.65
G1 Y156.35
G1 X236.35
G0 Z3.0
G0 X216.35
G0 Z1.0
G1 F300.0 Z-1.0
G1 F800.0 Y127.65
G1 X202.65
G1 Y156.35
G1 X216.35
G1 F300.0 Z-1.5
G1 F800.0 Y127.65
G1 X202.65
G1 Y156.35
G1 X216.35
G0 Z3.0
G0 Y162.65
G0 Z1.0
G1 F300.0 Z-1.0
G1 F800.0 X202.65
G1 Y191.35
G1 X216.35
G1 Y162.65
G1 F300.0 Z-1.5
G1 F800.0 X202.65
G1 Y191.35
G1 X216.35
G1 Y162.65
G0 Z3.0
G0 X196.35
G0 Z1.0
G1 F300.0 Z-1.0
G1 F800.0 X182.65
G1 Y191.35
G1 X196.35
G1 Y162.65
G1 F300.0 Z-1.5
G1 F800.0 X182.65
G1 Y191.35
G1 X196.35
G1 Y162.65
G0 Z3.0
G0 Y156.35
G0 Z1.0
G1 F300.0 Z-1.0
G1 F800.0 Y127.65
G1 X182.65
G1 Y156.35
G1 X196.35
G1 F300.0 Z-1.5
G1 F800.0 Y127.65
G1 X182.65
G1 Y156.35
G1 X196.35
G0 Z3.0
G0 X176.35
G0 Z1.0
G1 F300.0 Z-1.0
G1 F800.0 Y127.65
G1 X162.65
G1 Y156.35
G1 X176.35
G1 F300.0 Z-1.5
G1 F800.0 Y127.65
G1 X162.65
G1 Y156.35
G1 X176.35
G0 Z3.0
G0 Y162.65
G0 Z1.0
G1 F300.0 Z-1.0
G1 F800.0 X162.65
G1 Y191.35
G1 X176.35
G1 Y162.65
G1 F300.0 Z-1.5
G1 F800.0 X162.65
G1 Y191.35
G1 X176.35
G1 Y162.65
G0 Z3.0
G0 X156.35
G0 Z1.0
G1 F300.0 Z-1.0
G1 F800.0 X142.65
G1 Y191.35
G1 X156.35
G1 Y162.65
G1 F300.0 Z-1.5
G1 F800.0 X142.65
G1 Y191.35
G1 X156.35
G1 Y162.65
G0 Z3.0
G0 Y156.35
G0 Z1.0
G1 F300.0 Z-1.0
G1 F800.0 Y127.65
G1 X142.65
G1 Y156.35
G1 X156.35
G1 F300.0 Z-1.5
G1 F800.0 Y127.65
G1 X142.65
G1 Y156.35
G1 X156.35
G0 Z3.0
G0 X136.35
G0 Z1.0
G1 F300.0 Z-1.0
G1 F800.0 Y127.65
G1 X122.65
G1 Y156.35
G1 X136.35
G1 F300.0 Z-1.5
G1 F800.0 Y127.65
G1 X122.65
G1 Y156.35
G1 X136.35
G0 Z3.0
G0 Y162.65
G0 Z1.0
G1 F300.0 Z-1.0
G1 F800.0 X122.65
G1 Y191.35
G1 X136.35
G1 Y162.65
G1 F300.0 Z-1.5
G1 F800.0 X122.65
G1 Y191.35
G1 X136.35
G1 Y162.65
G0 Z3.0
G0 X116.35
G0 Z1.0
G1 F300.0 Z-1.0
G1 F800.0 X102.65
G1 Y191.35
G1 X116.35
G1 Y162.65
G1 F300.0 Z-1.5
G1 F800.0 X102.65
G1 Y191.35
G1 X116.35
G1 Y162.65
G0 Z3.0
G0 Y156.35
G0 Z1.0
G1 F300.0 Z-1.0
G1 F800.0 Y127.65
G1 X102.65
G1 Y156.35
G1 X116.35
G1 F300.0 Z-1.5
G1 F800.0 Y127.65
G1 X102.65
G1 Y156.35
G1 X116.35
G0 Z3.0
G0 X96.35
G0 Z1.0
G1 F300.0 Z-1.0
G1 F800.0 Y127.65
G1 X82.65
G1 Y156.35
G1 X96.35
G1 F300.0 Z-1.5
G1 F800.0 Y127.65
G1 X82.65
G1 Y156.35
G1 X96.35
G0 Z3.0
G0 Y162.65
G0 Z1.0
G1 F300.0 Z-1.0
G1 F800.0 X82.65
G1 Y191.35
G1 X96.35
G1 Y162.65
G1 F300.0 Z-1.5
G1 F800.0 X82.65
G1 Y191.35
G1 X96.35
G1 Y162.65
G0 Z3.0
G0 X76.35
G0 Z1.0
G1 F300.0 Z-1.0
G1 F800.0 X62.65
G1 Y191.35
G1 X76.35
G1 Y162.65
G1 F300.0 Z-1.5
G1 F800.0 X62.65
G1 Y191.35
G1 X76.35
G1 Y162.65
G0 Z3.0
G0 Y156.35
G0 Z1.0
G1 F300.0 Z-1.0
G1 F800.0 Y127.65
G1 X62.65
G1 Y156.35
G1 X76.35
G1 F300.0 Z-1.5
G1 F800.0 Y127.65
G1 X62.65
G1 Y156.35
G1 X76.35
G0 Z3.0
G0 X56.35
G0 Z1.0
G1 F300.0 Z-1.0
G1 F800.0 Y127.65
G1 X42.65
G1 Y156.35
G1 X56.35
G1 F300.0 Z-1.5
G1 F800.0 Y127.65
G1 X42.65
G1 Y156.35
G1 X56.35
G0 Z3.0
G0 Y162.65
G0 Z1.0
G1 F300.0 Z-1.0
G1 F800.0 X42.65
G1 Y191.35
G1 X56.35
G1 Y162.65
G1 F300.0 Z-1.5
G1 F800.0 X42.65
G1 Y191.35
G1 X56.35
G1 Y162.65
G0 Z3.0
G0 X36.35
G0 Z1.0
G1 F300.0 Z-1.0
G1 F800.0 X22.65
G1 Y191.35
G1 X36.35
G1 Y162.65
G1 F300.0 Z-1.5
G1 F800.0 X22.65
G1 Y191.35
G1 X36.35
G1 Y162.65
G0 Z3.0
G0 Y156.35
G0 Z1.0
G1 F300.0 Z-1.0
G1 F800.0 Y127.65
G1 X22.65
G1 Y156.35
G1 X36.35
G1 F300.0 Z-1.5
G1 F800.0 Y127.65
G1 X22.65
G1 Y156.35
G1 X36.35
G0 Z3.0
G0 Y121.35
G0 Z1.0
G1 F300.0 Z-1.0
G1 F800.0 Y92.65
G1 X22.65
G1 Y121.35
G1 X36.35
G1 F300.0 Z-1.5
G1 F800.0 Y92.65
G1 X22.65
G1 Y121.35
G1 X36.35
G0 Z3.0
G0 X42.65
G0 Z1.0
G1 F300.0 Z-1.0
G1 F800.0 X56.35
G1 Y92.65
G1 X42.65
G1 Y121.35
G1 F300.0 Z-1.5
G1 F800.0 X56.35
G1 Y92.65
G1 X42.65
G1 Y121.35
G0 Z3.0
G0 X62.65
G0 Z1.0
G1 F300.0 Z-1.0
G1 F800.0 X76.35
G1 Y92.65
G1 X62.65
G1 Y121.35
G1 F300.0 Z-1.5
G1 F800.0 X76.35
G1 Y92.65
G1 X62.65
G1 Y121.35
G0 Z3.0
G0 X82.65
G0 Z1.0
G1 F300.0 Z-1.0
G1 F800.0 X96.35
G1 Y92.65
G1 X82.65
G1 Y121.35
G1 F300.0 Z-1.5
G1 F800.0 X96.35
G1 Y92.65
G1 X82.65
G1 Y121.35
G0 Z3.0
G0 X102.65
G0 Z1.0
G1 F300.0 Z-1.0
G1 F800.0 X116.35
G1 Y92.65
G1 X102.65
G1 Y121.35
G1 F300.0 Z-1.5
G1 F800.0 X116.35
G1 Y92.65
G1 X102.65
G1 Y121.35
G0 Z3.0
G0 X122.65
G0 Z1.0
G1 F300.0 Z-1.0
G1 F800.0 X136.35
G1 Y92.65
G1 X122.65
G1 Y121.35
G1 F300.0 Z-1.5
G1 F800.0 X136.35
G1 Y92.65
G1 X122.65
G1 Y121.35
G0 Z3.0
G0 X142.65
G0 Z1.0
G1 F300.0 Z-1.0
G1 F800.0 X156.35
G1 Y92.65
G1 X142.65
G1 Y121.35
G1 F300.0 Z-1.5
G1 F800.0 X156.35
G1 Y92.65
G1 X142.65
G1 Y121.35
G0 Z3.0
G0 X162.65
G0 Z1.0
G1 F300.0 Z-1.0
G1 F800.0 X176.35
G1 Y92.65
G1 X162.65
G1 Y121.35
G1 F300.0 Z-1.5
G1 F800.0 X176.35
G1 Y92.65
G1 X162.65
G1 Y121.35
G0 Z3.0
G0 X182.65
G0 Z1.0
G1 F300.0 Z-1.0
G1 F800.0 X196.35
G1 Y92.65
G1 X182.65
G1 Y121.35
G1 F300.0 Z-1.5
G1 F800.0 X196.35
G1 Y92.65
G1 X182.65
G1 Y121.35
G0 Z3.0
G0 X202.65
G0 Z1.0
G1 F300.0 Z-1.0
G1 F800.0 X216.35
G1 Y92.65
G1 X202.65
G1 Y121.35
G1 F300.0 Z-1.5
G1 F800.0 X216.35
G1 Y92.65
G1 X202.65
G1 Y121.35
G0 Z3.0
G0 X222.65
G0 Z1.0
G1 F300.0 Z-1.0
G1 F800.0 X236.35
G1 Y92.65
G1 X222.65
G1 Y121.35
G1 F300.0 Z-1.5
G1 F800.0 X236.35
G1 Y92.65
G1 X222.65
G1 Y121.35
G0 Z3.0
G0 X242.65
G0 Z1.0
G1 F300.0 Z-1.0
G1 F800.0 X256.35
G1 Y92.65
G1 X242.65
G1 Y121.35
G1 F300.0 Z-1.5
G1 F800.0 X256.35
G1 Y92.65
G1 X242.65
G1 Y121.35
G0 Z3.0
G0 Y86.35
G0 Z1.0
G1 F300.0 Z-1.0
G1 F800.0 X256.35
G1 Y57.65
G1 X242.65
G1 Y86.35
G1 F300.0 Z-1.5
G1 F800.0 X256.35
G1 Y57.65
G1 X242.65
G1 Y86.35
G0 Z3.0
G0 X236.35
G0 Z1.0
G1 F300.0 Z-1.0
G1 F800.0 Y57.65
G1 X222.65
G1 Y86.35
G1 X236.35
G1 F300.0 Z-1.5
G1 F800.0 Y57.65
G1 X222.65
G1 Y86.35
G1 X236.35
G0 Z3.0
G0 X216.35
G0 Z1.0
G1 F300.0 Z-1.0
G1 F800.0 Y57.65
G1 X202.65
G1 Y86.35
G1 X216.35
G1 F300.0 Z-1.5
G1 F800.0 Y57.65
G1 X202.65
G1 Y86.35
G1 X216.35
G0 Z3.0
G0 X196.35
G0 Z1.0
G1 F300.0 Z-1.0
G1 F800.0 Y57.65
G1 X182.65
G1 Y86.35
G1 X196.35
G1 F300.0 Z-1.5
G1 F800.0 Y57.65
G1 X182.65
G1 Y86.35
G1 X196.35
G0 Z3.0
G0 X176.35
G0 Z1.0
G1 F300.0 Z-1.0
G1 F800.0 Y57.65
G1 X162.65
G1 Y86.35
G1 X176.35
G1 F300.0 Z-1.5
G1 F800.0 Y57.65
G1 X162.65
G1 Y86.35
G1 X176.35
G0 Z3.0
G0 X156.35
G0 Z1.0
G1 F300.0 Z-1.0
G1 F800.0 Y57.65
G1 X142.65
G1 Y86.35
G1 X156.35
G1 F300.0 Z-1.5
G1 F800.0 Y57.65
G1 X142.65
G1 Y86.35
G1 X156.35
G0 Z3.0
G0 X136.35
G0 Z1.0
G1 F300.0 Z-1.0
G1 F800.0 Y57.65
G1 X122.65
G1 Y86.35
G1 X136.35
G1 F300.0 Z-1.5
G1 F800.0 Y57.65
G1 X122.65
G1 Y86.35
G1 X136.35
G0 Z3.0
G0 X116.35
G0 Z1.0
G1 F300.0 Z-1.0
G1 F800.0 Y57.65
G1 X102.65
G1 Y86.35
G1 X116.35
G1 F300.0 Z-1.5
G1 F800.0 Y57.65
G1 X102.65
G1 Y86.35
G1 X116.35
G0 Z3.0
G0 X96.35
G0 Z1.0
G1 F300.0 Z-1.0
G1 F800.0 Y57.65
G1 X82.65
G1 Y86.35
G1 X96.35
G1 F300.0 Z-1.5
G1 F800.0 Y57.65
G1 X82.65
G1 Y86.35
G1 X96.35
G0 Z3.0
G0 X76.35
G0 Z1.0
G1 F300.0 Z-1.0
G1 F800.0 Y57.65
G1 X62.65
G1 Y86.35
G1 X76.35
G1 F300.0 Z-1.5
G1 F800.0 Y57.65
G1 X62.65
G1 Y86.35
G1 X76.35
G0 Z3.0
G0 X56.35
G0 Z1.0
G1 F300.0 Z-1.0
G1 F800.0 Y57.65
G1 X42.65
G1 Y86.35
G1 X56.35
G1 F300.0 Z-1.5
G1 F800.0 Y57.65
G1 X42.65
G1 Y86.35
G1 X56.35
G0 Z3.0
G0 X36.35
G0 Z1.0
G1 F300.0 Z-1.0
G1 F800.0 Y57.65
G1 X22.65
G1 Y86.35
G1 X36.35
G1 F300.0 Z-1.5
G1 F800.0 Y57.65
G1 X22.65
G1 Y86.35
G1 X36.35
G0 Z3.0
G0 Y51.35
G0 Z1.0
G1 F300.0 Z-1.0
G1 F800.0 Y22.65
G1 X22.65
G1 Y51.35
G1 X36.35
G1 F300.0 Z-1.5
G1 F800.0 Y22.65
G1 X22.65
G1 Y51.35
G1 X36.35
G0 Z3.0
G0 X42.65
G0 Z1.0
G1 F300.0 Z-1.0
G1 F800.0 X56.35
G1 Y22.65
G1 X42.65
G1 Y51.35
G1 F300.0 Z-1.5
G1 F800.0 X56.35
G1 Y22.65
G1 X42.65
G1 Y51.35
G0 Z3.0
G0 X62.65
G0 Z1.0
G1 F300.0 Z-1.0
G1 F800.0 X76.35
G1 Y22.65
G1 X62.65
G1 Y51.35
G1 F300.0 Z-1.5
G1 F800.0 X76.35
G1 Y22.65
G1 X62.65
G1 Y51.35
G0 Z3.0
G0 X82.65
G0 Z1.0
G1 F300.0 Z-1.0
G1 F800.0 X96.35
G1 Y22.65
G1 X82.65
G1 Y51.35
G1 F300.0 Z-1.5
G1 F800.0 X96.35
G1 Y22.65
G1 X82.65
G1 Y51.35
G0 Z3.0
G0 X102.65
G0 Z1.0
G1 F300.0 Z-1.0
G1 F800.0 X116.35
G1 Y22.65
G1 X102.65
G1 Y51.35
G1 F300.0 Z-1.5
G1 F800.0 X116.35
G1 Y22.65
G1 X102.65
G1 Y51.35
G0 Z3.0
G0 X122.65
G0 Z1.0
G1 F300.0 Z-1.0
G1 F800.0 X136.35
G1 Y22.65
G1 X122.65
G1 Y51.35
G1 F300.0 Z-1.5
G1 F800.0 X136.35
G1 Y22.65
G1 X122.65
G1 Y51.35
G0 Z3.0
G0 X142.65
G0 Z1.0
G1 F300.0 Z-1.0
G1 F800.0 X156.35
G1 Y22.65
G1 X142.65
G1 Y51.35
G1 F300.0 Z-1.5
G1 F800.0 X156.35
G1 Y22.65
G1 X142.65
G1 Y51.35
G0 Z3.0
G0 X162.65
G0 Z1.0
G1 F300.0 Z-1.0
G1 F800.0 X176.35
G1 Y22.65
G1 X162.65
G1 Y51.35
G1 F300.0 Z-1.5
G1 F800.0 X176.35
G1 Y22.65
G1 X162.65
G1 Y51.35
G0 Z3.0
G0 X182.65
G0 Z1.0
G1 F300.0 Z-1.0
G1 F800.0 X196.35
G1 Y22.65
G1 X182.65
G1 Y51.35
G1 F300.0 Z-1.5
G1 F800.0 X196.35
G1 Y22.65
G1 X182.65
G1 Y51.35
G0 Z3.0
G0 X202.65
G0 Z1.0
G1 F300.0 Z-1.0
G1 F800.0 X216.35
G1 Y22.65
G1 X202.65
G1 Y51.35
G1 F300.0 Z-1.5
G1 F800.0 X216.35
G1 Y22.65
G1 X202.65
G1 Y51.35
G0 Z3.0
G0 X222.65
G0 Z1.0
G1 F300.0 Z-1.0
G1 F800.0 X236.35
G1 Y22.65
G1 X222.65
G1 Y51.35
G1 F300.0 Z-1.5
G1 F800.0 X236.35
G1 Y22.65
G1 X222.65
G1 Y51.35
G0 Z3.0
G0 X242.65
G0 Z1.0
G1 F300.0 Z-1.0
G1 F800.0 X256.35
G1 Y22.65
G1 X242.65
G1 Y51.35
G1 F300.0 Z-1.5
G1 F800.0 X256.35
G1 Y22.65
G1 X242.65
G1 Y51.35
G0 Z3.0
G0 Y197.65
G0 Z1.0
G1 F300.0 Z-1.0
G1 F800.0 Y226.35
G1 X256.35
G1 Y197.65
G1 X242.65
G1 F300.0 Z-1.5
G1 F800.0 Y226.35
G1 X256.35
G1 Y197.65
G1 X242.65
G0 Z3.0
G0 X236.35
G0 Z1.0
G1 F300.0 Z-1.0
G1 F800.0 X222.65
G1 Y226.35
G1 X236.35
G1 Y197.65
G1 F300.0 Z-1.5
G1 F800.0 X222.65
G1 Y226.35
G1 X236.35
G1 Y197.65
G0 Z3.0
G0 X216.35
G0 Z1.0
G1 F300.0 Z-1.0
G1 F800.0 X202.65
G1 Y226.35
G1 X216.35
G1 Y197.65
G1 F300.0 Z-1.5
G1 F800.0 X202.65
G1 Y226.35
G1 X216.35
G1 Y197.65
G0 Z3.0
G0 X196.35
G0 Z1.0
G1 F300.0 Z-1.0
G1 F800.0 X182.65
G1 Y226.35
G1 X196.35
G1 Y197.65
G1 F300.0 Z-1.5
G1 F800.0 X182.65
G1 Y226.35
G1 X196.35
G1 Y197.65
G0 Z3.0
G0 X176.35
G0 Z1.0
G1 F300.0 Z-1.0
G1 F800.0 X162.65
G1 Y226.35
G1 X176.35
G1 Y197.65
G1 F300.0 Z-1.5
G1 F800.0 X162.65
G1 Y226.35
G1 X176.35
G1 Y197.65
G0 Z3.0
G0 X156.35
G0 Z1.0
G1 F300.0 Z-1.0
G1 F800.0 X142.65
G1 Y226.35
G1 X156.35
G1 Y197.65
G1 F300.0 Z-1.5
G1 F800.0 X142.65
G1 Y226.35
G1 X156.35
G1 Y197.65
G0 Z3.0
G0 X136.35
G0 Z1.0
G1 F300.0 Z-1.0
G1 F800.0 X122.65
G1 Y226.35
G1 X136.35
G1 Y197.65
G1 F300.0 Z-1.5
G1 F800.0 X122.65
G1 Y226.35
G1 X136.35
G1 Y197.65
G0 Z3.0
G0 X116.35
G0 Z1.0
G1 F300.0 Z-1.0
G1 F800.0 X102.65
G1 Y226.35
G1 X116.35
G1 Y197.65
G1 F300.0 Z-1.5
G1 F800.0 X102.65
G1 Y226.35
G1 X116.35
G1 Y197.65
G0 Z3.0
G0 X96.35
G0 Z1.0
G1 F300.0 Z-1.0
G1 F800.0 X82.65
G1 Y226.35
G1 X96.35
G1 Y197.65
G1 F300.0 Z-1.5
G1 F800.0 X82.65
G1 Y226.35
G1 X96.35
G1 Y197.65
G0 Z3.0
G0 X76.35
G0 Z1.0
G1 F300.0 Z-1.0
G1 F800.0 X62.65
G1 Y226.35
G1 X76.35
G1 Y197.65
G1 F300.0 Z-1.5
G1 F800.0 X62.65
G1 Y226.35
G1 X76.35
G1 Y197.65
G0 Z3.0
G0 X56.35
G0 Z1.0
G1 F300.0 Z-1.0
G1 F800.0 X42.65
G1 Y226.35
G1 X56.35
G1 Y197.65
G1 F300.0 Z-1.5
G1 F800.0 X42.65
G1 Y226.35
G1 X56.35
G1 Y197.65
G0 Z3.0
G0 X36.35
G0 Z1.0
G1 F300.0 Z-1.0
G1 F800.0 X22.65
G1 Y226.35
G1 X36.35
G1 Y197.65
G1 F300.0 Z-1.5
G1 F800.0 X22.65
G1 Y226.35
G1 X36.35
G1 Y197.65
G0 Z3.0
G0 Y232.65
G0 Z1.0
G1 F300.0 Z-1.0
G1 F800.0 X22.65
G1 Y261.35
G1 X36.35
G1 Y232.65
G1 F300.0 Z-1.5
G1 F800.0 X22.65
G1 Y261.35
G1 X36.35
G1 Y232.65
G0 Z3.0
G0 X42.65
G0 Z1.0
G1 F300.0 Z-1.0
G1 F800.0 Y261.35
G1 X56.35
G1 Y232.65
G1 X42.65
G1 F300.0 Z-1.5
G1 F800.0 Y261.35
G1 X56.35
G1 Y232.65
G1 X42.65
G0 Z3.0
G0 X62.65
G0 Z1.0
G1 F300.0 Z-1.0
G1 F800.0 Y261.35
G1 X76.35
G1 Y232.65
G1 X62.65
G1 F300.0 Z-1.5
G1 F800.0 Y261.35
G1 X76.35
G1 Y232.65
G1 X62.65
G0 Z3.0
G0 X82.65
G0 Z1.0
G1 F300.0 Z-1.0
G1 F800.0 Y261.35
G1 X96.35
G1 Y232.65
G1 X82.65
G1 F300.0 Z-1.5
G1 F800.0 Y261.35
G1 X96.35
G1 Y232.65
G1 X82.65
G0 Z3.0
G0 X102.65
G0 Z1.0
G1 F300.0 Z-1.0
G1 F800.0 Y261.35
G1 X116.35
G1 Y232.65
G1 X102.65
G1 F300.0 Z-1.5
G1 F800.0 Y261.35
G1 X116.35
G1 Y232.65
G1 X102.65
G0 Z3.0
G0 X122.65
G0 Z1.0
G1 F300.0 Z-1.0
G1 F800.0 Y261.35
G1 X136.35
G1 Y232.65
G1 X122.65
G1 F300.0 Z-1.5
G1 F800.0 Y261.35
G1 X136.35
G1 Y232.65
G1 X122.65
G0 Z3.0
G0 X142.65
G0 Z1.0
G1 F300.0 Z-1.0
G1 F800.0 Y261.35
G1 X156.35
G1 Y232.65
G1 X142.65
G1 F300.0 Z-1.5
G1 F800.0 Y261.35
G1 X156.35
G1 Y232.65
G1 X142.65
G0 Z3.0
G0 X162.65
G0 Z1.0
G1 F300.0 Z-1.0
G1 F800.0 Y261.35
G1 X176.35
G1 Y232.65
G1 X162.65
G1 F300.0 Z-1.5
G1 F800.0 Y261.35
G1 X176.35
G1 Y232.65
G1 X162.65
G0 Z3.0
G0 X182.65
G0 Z1.0
G1 F300.0 Z-1.0
G1 F800.0 Y261.35
G1 X196.35
G1 Y232.65
G1 X182.65
G1 F300.0 Z-1.5
G1 F800.0 Y261.35
G1 X196.35
G1 Y232.65
G1 X182.65
G0 Z3.0
G0 X202.65
G0 Z1.0
G1 F300.0 Z-1.0
G1 F800.0 Y261.35
G1 X216.35
G1 Y232.65
G1 X202.65
G1 F300.0 Z-1.5
G1 F800.0 Y261.35
G1 X216.35
G1 Y232.65
G1 X202.65
G0 Z3.0
G0 X222.65
G0 Z1.0
G1 F300.0 Z-1.0
G1 F800.0 Y261.35
G1 X236.35
G1 Y232.65
G1 X222.65
G1 F300.0 Z-1.5
G1 F800.0 Y261.35
G1 X236.35
G1 Y232.65
G1 X222.65
G0 Z3.0
G0 X242.65
G0 Z1.0
G1 F300.0 Z-1.0
G1 F800.0 Y261.35
G1 X256.35
G1 Y232.65
G1 X242.65
G1 F300.0 Z-1.5
G1 F800.0 Y261.35
G1 X256.35
G1 Y232.65
G1 X242.65
G0 Z3.0
G0 Y267.65
G0 Z1.0
G1 F300.0 Z-1.0
G1 F800.0 Y296.35
G1 X256.35
G1 Y267.65
G1 X242.65
G1 F300.0 Z-1.5
G1 F800.0 Y296.35
G1 X256.35
G1 Y267.65
G1 X242.65
G0 Z3.0
G0 X236.35
G0 Z1.0
G1 F300.0 Z-1.0
G1 F800.0 X222.65
G1 Y296.35
G1 X236.35
G1 Y267.65
G1 F300.0 Z-1.5
G1 F800.0 X222.65
G1 Y296.35
G1 X236.35
G1 Y267.65
G0 Z3.0
G0 X216.35
G0 Z1.0
G1 F300.0 Z-1.0
G1 F800.0 X202.65
G1 Y296.35
G1 X216.35
G1 Y267.65
G1 F300.0 Z-1.5
G1 F800.0 X202.65
G1 Y296.35
G1 X216.35
G1 Y267.65
G0 Z3.0
G0 X196.35
G0 Z1.0
G1 F300.0 Z-1.0
G1 F800.0 X182.65
G1 Y296.35
G1 X196.35
G1 Y267.65
G1 F300.0 Z-1.5
G1 F800.0 X182.65
G1 Y296.35
G1 X196.35
G1 Y267.65
G0 Z3.0
G0 X176.35
G0 Z1.0
G1 F300.0 Z-1.0
G1 F800.0 X162.65
G1 Y296.35
G1 X176.35
G1 Y267.65
G1 F300.0 Z-1.5
G1 F800.0 X162.65
G1 Y296.35
G1 X176.35
G1 Y267.65
G0 Z3.0
G0 X156.35
G0 Z1.0
G1 F300.0 Z-1.0
G1 F800.0 X142.65
G1 Y296.35
G1 X156.35
G1 Y267.65
G1 F300.0 Z-1.5
G1 F800.0 X142.65
G1 Y296.35
G1 X156.35
G1 Y267.65
G0 Z3.0
G0 X136.35
G0 Z1.0
G1 F300.0 Z-1.0
G1 F800.0 X122.65
G1 Y296.35
G1 X136.35
G1 Y267.65
G1 F300.0 Z-1.5
G1 F800.0 X122.65
G1 Y296.35
G1 X136.35
G1 Y267.65
G0 Z3.0
G0 X116.35
G0 Z1.0
G1 F300.0 Z-1.0
G1 F800.0 X102.65
G1 Y296.35
G1 X116.35
G1 Y267.65
G1 F300.0 Z-1.5
G1 F800.0 X102.65
G1 Y296.35
G1 X116.35
G1 Y267.65
G0 Z3.0
G0 X96.35
G0 Z1.0
G1 F300.0 Z-1.0
G1 F800.0 X82.65
G1 Y296.35
G1 X96.35
G1 Y267.65
G1 F300.0 Z-1.5
G1 F800.0 X82.65
G1 Y296.35
G1 X96.35
G1 Y267.65
G0 Z3.0
G0 X76.35
G0 Z1.0
G1 F300.0 Z-1.0
G1 F800.0 X62.65
G1 Y296.35
G1 X76.35
G1 Y267.65
G1 F300.0 Z-1.5
G1 F800.0 X62.65
G1 Y296.35
G1 X76.35
G1 Y267.65
G0 Z3.0
G0 X56.35
G0 Z1.0
G1 F300.0 Z-1.0
G1 F800.0 X42.65
G1 Y296.35
G1 X56.35
G1 Y267.65
G1 F300.0 Z-1.5
G1 F800.0 X42.65
G1 Y296.35
G1 X56.35
G1 Y267.65
G0 Z3.0
G0 X36.35
G0 Z1.0
G1 F300.0 Z-1.0
G1 F800.0 X22.65
G1 Y296.35
G1 X36.35
G1 Y267.65
G1 F300.0 Z-1.5
G1 F800.0 X22.65
G1 Y296.35
G1 X36.35
G1 Y267.65
G0 Z3.0
M5
M30
