( Made using CamBam - http://www.cambam.co.uk )
( linstrument_small_8 10/3/2014 2:58:22 PM )
( T3 : 2.0 )
G21 G90 G64 G40
G0 Z3.0
( T3 : 2.0 )
T3 M6
( drill )
G17
M3 S1000
G0 X20.0 Y201.0
G0 Z3.0
G0 X21.5 Y201.0
G0 Z1.0
G1 F300.0 Z0.0
G2 F800.0 X19.25 Y199.701 Z-0.3667 I-1.5 J0.0
G2 Y202.299 Z-0.7333 I0.75 J1.299
G2 X21.5 Y201.0 Z-1.1 I0.75 J-1.299
G2 X19.25 Y199.701 Z-1.4667 I-1.5 J0.0
G2 Y202.299 Z-1.8333 I0.75 J1.299
G2 X21.5 Y201.0 Z-2.2 I0.75 J-1.299
G2 X19.25 Y199.701 Z-2.5667 I-1.5 J0.0
G2 Y202.299 Z-2.9333 I0.75 J1.299
G2 X21.5 Y201.0 Z-3.3 I0.75 J-1.299
G2 X19.25 Y199.701 Z-3.6667 I-1.5 J0.0
G2 Y202.299 Z-4.0333 I0.75 J1.299
G2 X21.5 Y201.0 Z-4.4 I0.75 J-1.299
G2 X19.25 Y199.701 Z-4.7667 I-1.5 J0.0
G2 X19.0177 Y202.1336 Z-5.1 I0.75 J1.299
G2 X21.4729 Y201.2839 I0.9823 J-1.1336
G2 X19.5094 Y199.5825 I-1.4729 J-0.2839
G2 X19.0177 Y202.1336 I0.4906 J1.4175
G0 Z3.0
G0 X21.5 Y23.0
G0 Z1.0
G1 F300.0 Z0.0
G2 F800.0 X19.25 Y21.701 Z-0.3667 I-1.5 J0.0
G2 Y24.299 Z-0.7333 I0.75 J1.299
G2 X21.5 Y23.0 Z-1.1 I0.75 J-1.299
G2 X19.25 Y21.701 Z-1.4667 I-1.5 J0.0
G2 Y24.299 Z-1.8333 I0.75 J1.299
G2 X21.5 Y23.0 Z-2.2 I0.75 J-1.299
G2 X19.25 Y21.701 Z-2.5667 I-1.5 J0.0
G2 Y24.299 Z-2.9333 I0.75 J1.299
G2 X21.5 Y23.0 Z-3.3 I0.75 J-1.299
G2 X19.25 Y21.701 Z-3.6667 I-1.5 J0.0
G2 Y24.299 Z-4.0333 I0.75 J1.299
G2 X21.5 Y23.0 Z-4.4 I0.75 J-1.299
G2 X19.25 Y21.701 Z-4.7667 I-1.5 J0.0
G2 X19.0177 Y24.1336 Z-5.1 I0.75 J1.299
G2 X21.4729 Y23.2839 I0.9823 J-1.1336
G2 X19.5094 Y21.5825 I-1.4729 J-0.2839
G2 X19.0177 Y24.1336 I0.4906 J1.4175
G0 Z3.0
G0 X270.5 Y23.0
G0 Z1.0
G1 F300.0 Z0.0
G2 F800.0 X268.25 Y21.701 Z-0.3667 I-1.5 J0.0
G2 Y24.299 Z-0.7333 I0.75 J1.299
G2 X270.5 Y23.0 Z-1.1 I0.75 J-1.299
G2 X268.25 Y21.701 Z-1.4667 I-1.5 J0.0
G2 Y24.299 Z-1.8333 I0.75 J1.299
G2 X270.5 Y23.0 Z-2.2 I0.75 J-1.299
G2 X268.25 Y21.701 Z-2.5667 I-1.5 J0.0
G2 Y24.299 Z-2.9333 I0.75 J1.299
G2 X270.5 Y23.0 Z-3.3 I0.75 J-1.299
G2 X268.25 Y21.701 Z-3.6667 I-1.5 J0.0
G2 Y24.299 Z-4.0333 I0.75 J1.299
G2 X270.5 Y23.0 Z-4.4 I0.75 J-1.299
G2 X268.25 Y21.701 Z-4.7667 I-1.5 J0.0
G2 X268.0177 Y24.1336 Z-5.1 I0.75 J1.299
G2 X270.4729 Y23.2839 I0.9823 J-1.1336
G2 X268.5094 Y21.5825 I-1.4729 J-0.2839
G2 X268.0177 Y24.1336 I0.4906 J1.4175
G0 Z3.0
G0 X270.5 Y201.0
G0 Z1.0
G1 F300.0 Z0.0
G2 F800.0 X268.25 Y199.701 Z-0.3667 I-1.5 J0.0
G2 Y202.299 Z-0.7333 I0.75 J1.299
G2 X270.5 Y201.0 Z-1.1 I0.75 J-1.299
G2 X268.25 Y199.701 Z-1.4667 I-1.5 J0.0
G2 Y202.299 Z-1.8333 I0.75 J1.299
G2 X270.5 Y201.0 Z-2.2 I0.75 J-1.299
G2 X268.25 Y199.701 Z-2.5667 I-1.5 J0.0
G2 Y202.299 Z-2.9333 I0.75 J1.299
G2 X270.5 Y201.0 Z-3.3 I0.75 J-1.299
G2 X268.25 Y199.701 Z-3.6667 I-1.5 J0.0
G2 Y202.299 Z-4.0333 I0.75 J1.299
G2 X270.5 Y201.0 Z-4.4 I0.75 J-1.299
G2 X268.25 Y199.701 Z-4.7667 I-1.5 J0.0
G2 X268.0177 Y202.1336 Z-5.1 I0.75 J1.299
G2 X270.4729 Y201.2839 I0.9823 J-1.1336
G2 X268.5094 Y199.5825 I-1.4729 J-0.2839
G2 X268.0177 Y202.1336 I0.4906 J1.4175
G0 Z3.0
M5
M30
