( Made using CamBam - http://www.cambam.co.uk )
( linstrument_small_8 10/3/2014 2:58:08 PM )
( T1 : 2.0 )
G21 G90 G64 G40
G0 Z3.0
( T1 : 2.0 )
T1 M6
( pock )
G17
M3 S1000
G0 X30.9 Y23.9
G0 Z1.0
G1 F300.0 Z-1.0
G1 F800.0 Y56.1
G1 X30.6364 Y56.3636
G1 X30.9 Y56.1
G1 X48.1
G1 X48.3636 Y56.3636
G1 X48.1 Y56.1
G1 Y23.9
G1 X48.3636 Y23.6364
G1 X48.1 Y23.9
G1 X30.9
G1 X30.6364 Y23.6364
G1 X30.9 Y23.9
G0 Z3.0
G0 X51.6364 Y23.6364
G0 Z1.0
G1 F300.0 Z-1.0
G1 F800.0 X51.9 Y23.9
G1 Y56.1
G1 X51.6364 Y56.3636
G1 X51.9 Y56.1
G1 X69.1
G1 X69.3636 Y56.3636
G1 X69.1 Y56.1
G1 Y23.9
G1 X69.3636 Y23.6364
G1 X69.1 Y23.9
G1 X51.9
G1 X51.6364 Y23.6364
G0 Z3.0
G0 X72.6364
G0 Z1.0
G1 F300.0 Z-1.0
G1 F800.0 X72.9 Y23.9
G1 Y56.1
G1 X72.6364 Y56.3636
G1 X72.9 Y56.1
G1 X90.1
G1 X90.3636 Y56.3636
G1 X90.1 Y56.1
G1 Y23.9
G1 X90.3636 Y23.6364
G1 X90.1 Y23.9
G1 X72.9
G1 X72.6364 Y23.6364
G0 Z3.0
G0 X93.6364
G0 Z1.0
G1 F300.0 Z-1.0
G1 F800.0 X93.9 Y23.9
G1 Y56.1
G1 X93.6364 Y56.3636
G1 X93.9 Y56.1
G1 X111.1
G1 X111.3636 Y56.3636
G1 X111.1 Y56.1
G1 Y23.9
G1 X111.3636 Y23.6364
G1 X111.1 Y23.9
G1 X93.9
G1 X93.6364 Y23.6364
G0 Z3.0
G0 X114.6364
G0 Z1.0
G1 F300.0 Z-1.0
G1 F800.0 X114.9 Y23.9
G1 Y56.1
G1 X114.6364 Y56.3636
G1 X114.9 Y56.1
G1 X132.1
G1 X132.3636 Y56.3636
G1 X132.1 Y56.1
G1 Y23.9
G1 X132.3636 Y23.6364
G1 X132.1 Y23.9
G1 X114.9
G1 X114.6364 Y23.6364
G0 Z3.0
G0 X135.6364
G0 Z1.0
G1 F300.0 Z-1.0
G1 F800.0 X135.9 Y23.9
G1 Y56.1
G1 X135.6364 Y56.3636
G1 X135.9 Y56.1
G1 X153.1
G1 X153.3636 Y56.3636
G1 X153.1 Y56.1
G1 Y23.9
G1 X153.3636 Y23.6364
G1 X153.1 Y23.9
G1 X135.9
G1 X135.6364 Y23.6364
G0 Z3.0
G0 X156.6364
G0 Z1.0
G1 F300.0 Z-1.0
G1 F800.0 X156.9 Y23.9
G1 Y56.1
G1 X156.6364 Y56.3636
G1 X156.9 Y56.1
G1 X174.1
G1 X174.3636 Y56.3636
G1 X174.1 Y56.1
G1 Y23.9
G1 X174.3636 Y23.6364
G1 X174.1 Y23.9
G1 X156.9
G1 X156.6364 Y23.6364
G0 Z3.0
G0 X177.6364
G0 Z1.0
G1 F300.0 Z-1.0
G1 F800.0 X177.9 Y23.9
G1 Y56.1
G1 X177.6364 Y56.3636
G1 X177.9 Y56.1
G1 X195.1
G1 X195.3636 Y56.3636
G1 X195.1 Y56.1
G1 Y23.9
G1 X195.3636 Y23.6364
G1 X195.1 Y23.9
G1 X177.9
G1 X177.6364 Y23.6364
G0 Z3.0
G0 X198.6364
G0 Z1.0
G1 F300.0 Z-1.0
G1 F800.0 X198.9 Y23.9
G1 Y56.1
G1 X198.6364 Y56.3636
G1 X198.9 Y56.1
G1 X216.1
G1 X216.3636 Y56.3636
G1 X216.1 Y56.1
G1 Y23.9
G1 X216.3636 Y23.6364
G1 X216.1 Y23.9
G1 X198.9
G1 X198.6364 Y23.6364
G0 Z3.0
G0 X219.6364
G0 Z1.0
G1 F300.0 Z-1.0
G1 F800.0 X219.9 Y23.9
G1 Y56.1
G1 X219.6364 Y56.3636
G1 X219.9 Y56.1
G1 X237.1
G1 X237.3636 Y56.3636
G1 X237.1 Y56.1
G1 Y23.9
G1 X237.3636 Y23.6364
G1 X237.1 Y23.9
G1 X219.9
G1 X219.6364 Y23.6364
G0 Z3.0
G0 X240.6364
G0 Z1.0
G1 F300.0 Z-1.0
G1 F800.0 X240.9 Y23.9
G1 Y56.1
G1 X240.6364 Y56.3636
G1 X240.9 Y56.1
G1 X258.1
G1 X258.3636 Y56.3636
G1 X258.1 Y56.1
G1 Y23.9
G1 X258.3636 Y23.6364
G1 X258.1 Y23.9
G1 X240.9
G1 X240.6364 Y23.6364
G0 Z3.0
G0 Y59.6364
G0 Z1.0
G1 F300.0 Z-1.0
G1 F800.0 X240.9 Y59.9
G1 Y92.1
G1 X240.6364 Y92.3636
G1 X240.9 Y92.1
G1 X258.1
G1 X258.3636 Y92.3636
G1 X258.1 Y92.1
G1 Y59.9
G1 X258.3636 Y59.6364
G1 X258.1 Y59.9
G1 X240.9
G1 X240.6364 Y59.6364
G0 Z3.0
G0 X237.3636
G0 Z1.0
G1 F300.0 Z-1.0
G1 F800.0 X237.1 Y59.9
G1 X219.9
G1 X219.6364 Y59.6364
G1 X219.9 Y59.9
G1 Y92.1
G1 X219.6364 Y92.3636
G1 X219.9 Y92.1
G1 X237.1
G1 X237.3636 Y92.3636
G1 X237.1 Y92.1
G1 Y59.9
G1 X237.3636 Y59.6364
G0 Z3.0
G0 X216.3636
G0 Z1.0
G1 F300.0 Z-1.0
G1 F800.0 X216.1 Y59.9
G1 X198.9
G1 X198.6364 Y59.6364
G1 X198.9 Y59.9
G1 Y92.1
G1 X198.6364 Y92.3636
G1 X198.9 Y92.1
G1 X216.1
G1 X216.3636 Y92.3636
G1 X216.1 Y92.1
G1 Y59.9
G1 X216.3636 Y59.6364
G0 Z3.0
G0 X195.3636
G0 Z1.0
G1 F300.0 Z-1.0
G1 F800.0 X195.1 Y59.9
G1 X177.9
G1 X177.6364 Y59.6364
G1 X177.9 Y59.9
G1 Y92.1
G1 X177.6364 Y92.3636
G1 X177.9 Y92.1
G1 X195.1
G1 X195.3636 Y92.3636
G1 X195.1 Y92.1
G1 Y59.9
G1 X195.3636 Y59.6364
G0 Z3.0
G0 X174.3636
G0 Z1.0
G1 F300.0 Z-1.0
G1 F800.0 X174.1 Y59.9
G1 X156.9
G1 X156.6364 Y59.6364
G1 X156.9 Y59.9
G1 Y92.1
G1 X156.6364 Y92.3636
G1 X156.9 Y92.1
G1 X174.1
G1 X174.3636 Y92.3636
G1 X174.1 Y92.1
G1 Y59.9
G1 X174.3636 Y59.6364
G0 Z3.0
G0 X153.3636
G0 Z1.0
G1 F300.0 Z-1.0
G1 F800.0 X153.1 Y59.9
G1 X135.9
G1 X135.6364 Y59.6364
G1 X135.9 Y59.9
G1 Y92.1
G1 X135.6364 Y92.3636
G1 X135.9 Y92.1
G1 X153.1
G1 X153.3636 Y92.3636
G1 X153.1 Y92.1
G1 Y59.9
G1 X153.3636 Y59.6364
G0 Z3.0
G0 X132.3636
G0 Z1.0
G1 F300.0 Z-1.0
G1 F800.0 X132.1 Y59.9
G1 X114.9
G1 X114.6364 Y59.6364
G1 X114.9 Y59.9
G1 Y92.1
G1 X114.6364 Y92.3636
G1 X114.9 Y92.1
G1 X132.1
G1 X132.3636 Y92.3636
G1 X132.1 Y92.1
G1 Y59.9
G1 X132.3636 Y59.6364
G0 Z3.0
G0 X111.3636
G0 Z1.0
G1 F300.0 Z-1.0
G1 F800.0 X111.1 Y59.9
G1 X93.9
G1 X93.6364 Y59.6364
G1 X93.9 Y59.9
G1 Y92.1
G1 X93.6364 Y92.3636
G1 X93.9 Y92.1
G1 X111.1
G1 X111.3636 Y92.3636
G1 X111.1 Y92.1
G1 Y59.9
G1 X111.3636 Y59.6364
G0 Z3.0
G0 X90.3636
G0 Z1.0
G1 F300.0 Z-1.0
G1 F800.0 X90.1 Y59.9
G1 X72.9
G1 X72.6364 Y59.6364
G1 X72.9 Y59.9
G1 Y92.1
G1 X72.6364 Y92.3636
G1 X72.9 Y92.1
G1 X90.1
G1 X90.3636 Y92.3636
G1 X90.1 Y92.1
G1 Y59.9
G1 X90.3636 Y59.6364
G0 Z3.0
G0 X69.3636
G0 Z1.0
G1 F300.0 Z-1.0
G1 F800.0 X69.1 Y59.9
G1 X51.9
G1 X51.6364 Y59.6364
G1 X51.9 Y59.9
G1 Y92.1
G1 X51.6364 Y92.3636
G1 X51.9 Y92.1
G1 X69.1
G1 X69.3636 Y92.3636
G1 X69.1 Y92.1
G1 Y59.9
G1 X69.3636 Y59.6364
G0 Z3.0
G0 X48.3636
G0 Z1.0
G1 F300.0 Z-1.0
G1 F800.0 X48.1 Y59.9
G1 X30.9
G1 X30.6364 Y59.6364
G1 X30.9 Y59.9
G1 Y92.1
G1 X30.6364 Y92.3636
G1 X30.9 Y92.1
G1 X48.1
G1 X48.3636 Y92.3636
G1 X48.1 Y92.1
G1 Y59.9
G1 X48.3636 Y59.6364
G0 Z3.0
G0 Y95.6364
G0 Z1.0
G1 F300.0 Z-1.0
G1 F800.0 X48.1 Y95.9
G1 X30.9
G1 X30.6364 Y95.6364
G1 X30.9 Y95.9
G1 Y128.1
G1 X30.6364 Y128.3636
G1 X30.9 Y128.1
G1 X48.1
G1 X48.3636 Y128.3636
G1 X48.1 Y128.1
G1 Y95.9
G1 X48.3636 Y95.6364
G0 Z3.0
G0 X51.6364
G0 Z1.0
G1 F300.0 Z-1.0
G1 F800.0 X51.9 Y95.9
G1 Y128.1
G1 X51.6364 Y128.3636
G1 X51.9 Y128.1
G1 X69.1
G1 X69.3636 Y128.3636
G1 X69.1 Y128.1
G1 Y95.9
G1 X69.3636 Y95.6364
G1 X69.1 Y95.9
G1 X51.9
G1 X51.6364 Y95.6364
G0 Z3.0
G0 X72.6364
G0 Z1.0
G1 F300.0 Z-1.0
G1 F800.0 X72.9 Y95.9
G1 Y128.1
G1 X72.6364 Y128.3636
G1 X72.9 Y128.1
G1 X90.1
G1 X90.3636 Y128.3636
G1 X90.1 Y128.1
G1 Y95.9
G1 X90.3636 Y95.6364
G1 X90.1 Y95.9
G1 X72.9
G1 X72.6364 Y95.6364
G0 Z3.0
G0 X93.6364
G0 Z1.0
G1 F300.0 Z-1.0
G1 F800.0 X93.9 Y95.9
G1 Y128.1
G1 X93.6364 Y128.3636
G1 X93.9 Y128.1
G1 X111.1
G1 X111.3636 Y128.3636
G1 X111.1 Y128.1
G1 Y95.9
G1 X111.3636 Y95.6364
G1 X111.1 Y95.9
G1 X93.9
G1 X93.6364 Y95.6364
G0 Z3.0
G0 X114.6364
G0 Z1.0
G1 F300.0 Z-1.0
G1 F800.0 X114.9 Y95.9
G1 Y128.1
G1 X114.6364 Y128.3636
G1 X114.9 Y128.1
G1 X132.1
G1 X132.3636 Y128.3636
G1 X132.1 Y128.1
G1 Y95.9
G1 X132.3636 Y95.6364
G1 X132.1 Y95.9
G1 X114.9
G1 X114.6364 Y95.6364
G0 Z3.0
G0 X135.6364
G0 Z1.0
G1 F300.0 Z-1.0
G1 F800.0 X135.9 Y95.9
G1 Y128.1
G1 X135.6364 Y128.3636
G1 X135.9 Y128.1
G1 X153.1
G1 X153.3636 Y128.3636
G1 X153.1 Y128.1
G1 Y95.9
G1 X153.3636 Y95.6364
G1 X153.1 Y95.9
G1 X135.9
G1 X135.6364 Y95.6364
G0 Z3.0
G0 X156.6364
G0 Z1.0
G1 F300.0 Z-1.0
G1 F800.0 X156.9 Y95.9
G1 Y128.1
G1 X156.6364 Y128.3636
G1 X156.9 Y128.1
G1 X174.1
G1 X174.3636 Y128.3636
G1 X174.1 Y128.1
G1 Y95.9
G1 X174.3636 Y95.6364
G1 X174.1 Y95.9
G1 X156.9
G1 X156.6364 Y95.6364
G0 Z3.0
G0 X177.6364
G0 Z1.0
G1 F300.0 Z-1.0
G1 F800.0 X177.9 Y95.9
G1 Y128.1
G1 X177.6364 Y128.3636
G1 X177.9 Y128.1
G1 X195.1
G1 X195.3636 Y128.3636
G1 X195.1 Y128.1
G1 Y95.9
G1 X195.3636 Y95.6364
G1 X195.1 Y95.9
G1 X177.9
G1 X177.6364 Y95.6364
G0 Z3.0
G0 X198.6364
G0 Z1.0
G1 F300.0 Z-1.0
G1 F800.0 X198.9 Y95.9
G1 Y128.1
G1 X198.6364 Y128.3636
G1 X198.9 Y128.1
G1 X216.1
G1 X216.3636 Y128.3636
G1 X216.1 Y128.1
G1 Y95.9
G1 X216.3636 Y95.6364
G1 X216.1 Y95.9
G1 X198.9
G1 X198.6364 Y95.6364
G0 Z3.0
G0 X219.6364
G0 Z1.0
G1 F300.0 Z-1.0
G1 F800.0 X219.9 Y95.9
G1 Y128.1
G1 X219.6364 Y128.3636
G1 X219.9 Y128.1
G1 X237.1
G1 X237.3636 Y128.3636
G1 X237.1 Y128.1
G1 Y95.9
G1 X237.3636 Y95.6364
G1 X237.1 Y95.9
G1 X219.9
G1 X219.6364 Y95.6364
G0 Z3.0
G0 X240.6364
G0 Z1.0
G1 F300.0 Z-1.0
G1 F800.0 X240.9 Y95.9
G1 Y128.1
G1 X240.6364 Y128.3636
G1 X240.9 Y128.1
G1 X258.1
G1 X258.3636 Y128.3636
G1 X258.1 Y128.1
G1 Y95.9
G1 X258.3636 Y95.6364
G1 X258.1 Y95.9
G1 X240.9
G1 X240.6364 Y95.6364
G0 Z3.0
G0 Y131.6364
G0 Z1.0
G1 F300.0 Z-1.0
G1 F800.0 X240.9 Y131.9
G1 Y164.1
G1 X240.6364 Y164.3636
G1 X240.9 Y164.1
G1 X258.1
G1 X258.3636 Y164.3636
G1 X258.1 Y164.1
G1 Y131.9
G1 X258.3636 Y131.6364
G1 X258.1 Y131.9
G1 X240.9
G1 X240.6364 Y131.6364
G0 Z3.0
G0 X237.3636
G0 Z1.0
G1 F300.0 Z-1.0
G1 F800.0 X237.1 Y131.9
G1 X219.9
G1 X219.6364 Y131.6364
G1 X219.9 Y131.9
G1 Y164.1
G1 X219.6364 Y164.3636
G1 X219.9 Y164.1
G1 X237.1
G1 X237.3636 Y164.3636
G1 X237.1 Y164.1
G1 Y131.9
G1 X237.3636 Y131.6364
G0 Z3.0
G0 X216.3636
G0 Z1.0
G1 F300.0 Z-1.0
G1 F800.0 X216.1 Y131.9
G1 X198.9
G1 X198.6364 Y131.6364
G1 X198.9 Y131.9
G1 Y164.1
G1 X198.6364 Y164.3636
G1 X198.9 Y164.1
G1 X216.1
G1 X216.3636 Y164.3636
G1 X216.1 Y164.1
G1 Y131.9
G1 X216.3636 Y131.6364
G0 Z3.0
G0 X195.3636
G0 Z1.0
G1 F300.0 Z-1.0
G1 F800.0 X195.1 Y131.9
G1 X177.9
G1 X177.6364 Y131.6364
G1 X177.9 Y131.9
G1 Y164.1
G1 X177.6364 Y164.3636
G1 X177.9 Y164.1
G1 X195.1
G1 X195.3636 Y164.3636
G1 X195.1 Y164.1
G1 Y131.9
G1 X195.3636 Y131.6364
G0 Z3.0
G0 X174.3636
G0 Z1.0
G1 F300.0 Z-1.0
G1 F800.0 X174.1 Y131.9
G1 X156.9
G1 X156.6364 Y131.6364
G1 X156.9 Y131.9
G1 Y164.1
G1 X156.6364 Y164.3636
G1 X156.9 Y164.1
G1 X174.1
G1 X174.3636 Y164.3636
G1 X174.1 Y164.1
G1 Y131.9
G1 X174.3636 Y131.6364
G0 Z3.0
G0 X153.3636
G0 Z1.0
G1 F300.0 Z-1.0
G1 F800.0 X153.1 Y131.9
G1 X135.9
G1 X135.6364 Y131.6364
G1 X135.9 Y131.9
G1 Y164.1
G1 X135.6364 Y164.3636
G1 X135.9 Y164.1
G1 X153.1
G1 X153.3636 Y164.3636
G1 X153.1 Y164.1
G1 Y131.9
G1 X153.3636 Y131.6364
G0 Z3.0
G0 X132.3636
G0 Z1.0
G1 F300.0 Z-1.0
G1 F800.0 X132.1 Y131.9
G1 X114.9
G1 X114.6364 Y131.6364
G1 X114.9 Y131.9
G1 Y164.1
G1 X114.6364 Y164.3636
G1 X114.9 Y164.1
G1 X132.1
G1 X132.3636 Y164.3636
G1 X132.1 Y164.1
G1 Y131.9
G1 X132.3636 Y131.6364
G0 Z3.0
G0 X111.3636
G0 Z1.0
G1 F300.0 Z-1.0
G1 F800.0 X111.1 Y131.9
G1 X93.9
G1 X93.6364 Y131.6364
G1 X93.9 Y131.9
G1 Y164.1
G1 X93.6364 Y164.3636
G1 X93.9 Y164.1
G1 X111.1
G1 X111.3636 Y164.3636
G1 X111.1 Y164.1
G1 Y131.9
G1 X111.3636 Y131.6364
G0 Z3.0
G0 X90.3636
G0 Z1.0
G1 F300.0 Z-1.0
G1 F800.0 X90.1 Y131.9
G1 X72.9
G1 X72.6364 Y131.6364
G1 X72.9 Y131.9
G1 Y164.1
G1 X72.6364 Y164.3636
G1 X72.9 Y164.1
G1 X90.1
G1 X90.3636 Y164.3636
G1 X90.1 Y164.1
G1 Y131.9
G1 X90.3636 Y131.6364
G0 Z3.0
G0 X69.3636
G0 Z1.0
G1 F300.0 Z-1.0
G1 F800.0 X69.1 Y131.9
G1 X51.9
G1 X51.6364 Y131.6364
G1 X51.9 Y131.9
G1 Y164.1
G1 X51.6364 Y164.3636
G1 X51.9 Y164.1
G1 X69.1
G1 X69.3636 Y164.3636
G1 X69.1 Y164.1
G1 Y131.9
G1 X69.3636 Y131.6364
G0 Z3.0
G0 X48.3636
G0 Z1.0
G1 F300.0 Z-1.0
G1 F800.0 X48.1 Y131.9
G1 X30.9
G1 X30.6364 Y131.6364
G1 X30.9 Y131.9
G1 Y164.1
G1 X30.6364 Y164.3636
G1 X30.9 Y164.1
G1 X48.1
G1 X48.3636 Y164.3636
G1 X48.1 Y164.1
G1 Y131.9
G1 X48.3636 Y131.6364
G0 Z3.0
G0 Y167.6364
G0 Z1.0
G1 F300.0 Z-1.0
G1 F800.0 X48.1 Y167.9
G1 X30.9
G1 X30.6364 Y167.6364
G1 X30.9 Y167.9
G1 Y200.1
G1 X30.6364 Y200.3636
G1 X30.9 Y200.1
G1 X48.1
G1 X48.3636 Y200.3636
G1 X48.1 Y200.1
G1 Y167.9
G1 X48.3636 Y167.6364
G0 Z3.0
G0 X51.6364
G0 Z1.0
G1 F300.0 Z-1.0
G1 F800.0 X51.9 Y167.9
G1 Y200.1
G1 X51.6364 Y200.3636
G1 X51.9 Y200.1
G1 X69.1
G1 X69.3636 Y200.3636
G1 X69.1 Y200.1
G1 Y167.9
G1 X69.3636 Y167.6364
G1 X69.1 Y167.9
G1 X51.9
G1 X51.6364 Y167.6364
G0 Z3.0
G0 X72.6364
G0 Z1.0
G1 F300.0 Z-1.0
G1 F800.0 X72.9 Y167.9
G1 Y200.1
G1 X72.6364 Y200.3636
G1 X72.9 Y200.1
G1 X90.1
G1 X90.3636 Y200.3636
G1 X90.1 Y200.1
G1 Y167.9
G1 X90.3636 Y167.6364
G1 X90.1 Y167.9
G1 X72.9
G1 X72.6364 Y167.6364
G0 Z3.0
G0 X93.6364
G0 Z1.0
G1 F300.0 Z-1.0
G1 F800.0 X93.9 Y167.9
G1 Y200.1
G1 X93.6364 Y200.3636
G1 X93.9 Y200.1
G1 X111.1
G1 X111.3636 Y200.3636
G1 X111.1 Y200.1
G1 Y167.9
G1 X111.3636 Y167.6364
G1 X111.1 Y167.9
G1 X93.9
G1 X93.6364 Y167.6364
G0 Z3.0
G0 X114.6364
G0 Z1.0
G1 F300.0 Z-1.0
G1 F800.0 X114.9 Y167.9
G1 Y200.1
G1 X114.6364 Y200.3636
G1 X114.9 Y200.1
G1 X132.1
G1 X132.3636 Y200.3636
G1 X132.1 Y200.1
G1 Y167.9
G1 X132.3636 Y167.6364
G1 X132.1 Y167.9
G1 X114.9
G1 X114.6364 Y167.6364
G0 Z3.0
G0 X135.6364
G0 Z1.0
G1 F300.0 Z-1.0
G1 F800.0 X135.9 Y167.9
G1 Y200.1
G1 X135.6364 Y200.3636
G1 X135.9 Y200.1
G1 X153.1
G1 X153.3636 Y200.3636
G1 X153.1 Y200.1
G1 Y167.9
G1 X153.3636 Y167.6364
G1 X153.1 Y167.9
G1 X135.9
G1 X135.6364 Y167.6364
G0 Z3.0
G0 X156.6364
G0 Z1.0
G1 F300.0 Z-1.0
G1 F800.0 X156.9 Y167.9
G1 Y200.1
G1 X156.6364 Y200.3636
G1 X156.9 Y200.1
G1 X174.1
G1 X174.3636 Y200.3636
G1 X174.1 Y200.1
G1 Y167.9
G1 X174.3636 Y167.6364
G1 X174.1 Y167.9
G1 X156.9
G1 X156.6364 Y167.6364
G0 Z3.0
G0 X177.6364
G0 Z1.0
G1 F300.0 Z-1.0
G1 F800.0 X177.9 Y167.9
G1 Y200.1
G1 X177.6364 Y200.3636
G1 X177.9 Y200.1
G1 X195.1
G1 X195.3636 Y200.3636
G1 X195.1 Y200.1
G1 Y167.9
G1 X195.3636 Y167.6364
G1 X195.1 Y167.9
G1 X177.9
G1 X177.6364 Y167.6364
G0 Z3.0
G0 X198.6364
G0 Z1.0
G1 F300.0 Z-1.0
G1 F800.0 X198.9 Y167.9
G1 Y200.1
G1 X198.6364 Y200.3636
G1 X198.9 Y200.1
G1 X216.1
G1 X216.3636 Y200.3636
G1 X216.1 Y200.1
G1 Y167.9
G1 X216.3636 Y167.6364
G1 X216.1 Y167.9
G1 X198.9
G1 X198.6364 Y167.6364
G0 Z3.0
G0 X219.6364
G0 Z1.0
G1 F300.0 Z-1.0
G1 F800.0 X219.9 Y167.9
G1 Y200.1
G1 X219.6364 Y200.3636
G1 X219.9 Y200.1
G1 X237.1
G1 X237.3636 Y200.3636
G1 X237.1 Y200.1
G1 Y167.9
G1 X237.3636 Y167.6364
G1 X237.1 Y167.9
G1 X219.9
G1 X219.6364 Y167.6364
G0 Z3.0
G0 X240.6364
G0 Z1.0
G1 F300.0 Z-1.0
G1 F800.0 X240.9 Y167.9
G1 Y200.1
G1 X240.6364 Y200.3636
G1 X240.9 Y200.1
G1 X258.1
G1 X258.3636 Y200.3636
G1 X258.1 Y200.1
G1 Y167.9
G1 X258.3636 Y167.6364
G1 X258.1 Y167.9
G1 X240.9
G1 X240.6364 Y167.6364
G1 F300.0 Z-2.0
G1 F800.0 X240.9 Y167.9
G1 Y200.1
G1 X240.6364 Y200.3636
G1 X240.9 Y200.1
G1 X258.1
G1 X258.3636 Y200.3636
G1 X258.1 Y200.1
G1 Y167.9
G1 X258.3636 Y167.6364
G1 X258.1 Y167.9
G1 X240.9
G1 X240.6364 Y167.6364
G0 Z3.0
G0 X237.3636
G0 Z0.0
G1 F300.0 Z-2.0
G1 F800.0 X237.1 Y167.9
G1 X219.9
G1 X219.6364 Y167.6364
G1 X219.9 Y167.9
G1 Y200.1
G1 X219.6364 Y200.3636
G1 X219.9 Y200.1
G1 X237.1
G1 X237.3636 Y200.3636
G1 X237.1 Y200.1
G1 Y167.9
G1 X237.3636 Y167.6364
G0 Z3.0
G0 Y164.3636
G0 Z0.0
G1 F300.0 Z-2.0
G1 F800.0 X237.1 Y164.1
G1 Y131.9
G1 X237.3636 Y131.6364
G1 X237.1 Y131.9
G1 X219.9
G1 X219.6364 Y131.6364
G1 X219.9 Y131.9
G1 Y164.1
G1 X219.6364 Y164.3636
G1 X219.9 Y164.1
G1 X237.1
G1 X237.3636 Y164.3636
G0 Z3.0
G0 X240.6364
G0 Z0.0
G1 F300.0 Z-2.0
G1 F800.0 X240.9 Y164.1
G1 X258.1
G1 X258.3636 Y164.3636
G1 X258.1 Y164.1
G1 Y131.9
G1 X258.3636 Y131.6364
G1 X258.1 Y131.9
G1 X240.9
G1 X240.6364 Y131.6364
G1 X240.9 Y131.9
G1 Y164.1
G1 X240.6364 Y164.3636
G0 Z3.0
G0 X216.3636
G0 Z0.0
G1 F300.0 Z-2.0
G1 F800.0 X216.1 Y164.1
G1 Y131.9
G1 X216.3636 Y131.6364
G1 X216.1 Y131.9
G1 X198.9
G1 X198.6364 Y131.6364
G1 X198.9 Y131.9
G1 Y164.1
G1 X198.6364 Y164.3636
G1 X198.9 Y164.1
G1 X216.1
G1 X216.3636 Y164.3636
G0 Z3.0
G0 Y167.6364
G0 Z0.0
G1 F300.0 Z-2.0
G1 F800.0 X216.1 Y167.9
G1 X198.9
G1 X198.6364 Y167.6364
G1 X198.9 Y167.9
G1 Y200.1
G1 X198.6364 Y200.3636
G1 X198.9 Y200.1
G1 X216.1
G1 X216.3636 Y200.3636
G1 X216.1 Y200.1
G1 Y167.9
G1 X216.3636 Y167.6364
G0 Z3.0
G0 X195.3636
G0 Z0.0
G1 F300.0 Z-2.0
G1 F800.0 X195.1 Y167.9
G1 X177.9
G1 X177.6364 Y167.6364
G1 X177.9 Y167.9
G1 Y200.1
G1 X177.6364 Y200.3636
G1 X177.9 Y200.1
G1 X195.1
G1 X195.3636 Y200.3636
G1 X195.1 Y200.1
G1 Y167.9
G1 X195.3636 Y167.6364
G0 Z3.0
G0 Y164.3636
G0 Z0.0
G1 F300.0 Z-2.0
G1 F800.0 X195.1 Y164.1
G1 Y131.9
G1 X195.3636 Y131.6364
G1 X195.1 Y131.9
G1 X177.9
G1 X177.6364 Y131.6364
G1 X177.9 Y131.9
G1 Y164.1
G1 X177.6364 Y164.3636
G1 X177.9 Y164.1
G1 X195.1
G1 X195.3636 Y164.3636
G0 Z3.0
G0 X174.3636
G0 Z0.0
G1 F300.0 Z-2.0
G1 F800.0 X174.1 Y164.1
G1 Y131.9
G1 X174.3636 Y131.6364
G1 X174.1 Y131.9
G1 X156.9
G1 X156.6364 Y131.6364
G1 X156.9 Y131.9
G1 Y164.1
G1 X156.6364 Y164.3636
G1 X156.9 Y164.1
G1 X174.1
G1 X174.3636 Y164.3636
G0 Z3.0
G0 Y167.6364
G0 Z0.0
G1 F300.0 Z-2.0
G1 F800.0 X174.1 Y167.9
G1 X156.9
G1 X156.6364 Y167.6364
G1 X156.9 Y167.9
G1 Y200.1
G1 X156.6364 Y200.3636
G1 X156.9 Y200.1
G1 X174.1
G1 X174.3636 Y200.3636
G1 X174.1 Y200.1
G1 Y167.9
G1 X174.3636 Y167.6364
G0 Z3.0
G0 X153.3636
G0 Z0.0
G1 F300.0 Z-2.0
G1 F800.0 X153.1 Y167.9
G1 X135.9
G1 X135.6364 Y167.6364
G1 X135.9 Y167.9
G1 Y200.1
G1 X135.6364 Y200.3636
G1 X135.9 Y200.1
G1 X153.1
G1 X153.3636 Y200.3636
G1 X153.1 Y200.1
G1 Y167.9
G1 X153.3636 Y167.6364
G0 Z3.0
G0 Y164.3636
G0 Z0.0
G1 F300.0 Z-2.0
G1 F800.0 X153.1 Y164.1
G1 Y131.9
G1 X153.3636 Y131.6364
G1 X153.1 Y131.9
G1 X135.9
G1 X135.6364 Y131.6364
G1 X135.9 Y131.9
G1 Y164.1
G1 X135.6364 Y164.3636
G1 X135.9 Y164.1
G1 X153.1
G1 X153.3636 Y164.3636
G0 Z3.0
G0 X132.3636
G0 Z0.0
G1 F300.0 Z-2.0
G1 F800.0 X132.1 Y164.1
G1 Y131.9
G1 X132.3636 Y131.6364
G1 X132.1 Y131.9
G1 X114.9
G1 X114.6364 Y131.6364
G1 X114.9 Y131.9
G1 Y164.1
G1 X114.6364 Y164.3636
G1 X114.9 Y164.1
G1 X132.1
G1 X132.3636 Y164.3636
G0 Z3.0
G0 Y167.6364
G0 Z0.0
G1 F300.0 Z-2.0
G1 F800.0 X132.1 Y167.9
G1 X114.9
G1 X114.6364 Y167.6364
G1 X114.9 Y167.9
G1 Y200.1
G1 X114.6364 Y200.3636
G1 X114.9 Y200.1
G1 X132.1
G1 X132.3636 Y200.3636
G1 X132.1 Y200.1
G1 Y167.9
G1 X132.3636 Y167.6364
G0 Z3.0
G0 X111.3636
G0 Z0.0
G1 F300.0 Z-2.0
G1 F800.0 X111.1 Y167.9
G1 X93.9
G1 X93.6364 Y167.6364
G1 X93.9 Y167.9
G1 Y200.1
G1 X93.6364 Y200.3636
G1 X93.9 Y200.1
G1 X111.1
G1 X111.3636 Y200.3636
G1 X111.1 Y200.1
G1 Y167.9
G1 X111.3636 Y167.6364
G0 Z3.0
G0 Y164.3636
G0 Z0.0
G1 F300.0 Z-2.0
G1 F800.0 X111.1 Y164.1
G1 Y131.9
G1 X111.3636 Y131.6364
G1 X111.1 Y131.9
G1 X93.9
G1 X93.6364 Y131.6364
G1 X93.9 Y131.9
G1 Y164.1
G1 X93.6364 Y164.3636
G1 X93.9 Y164.1
G1 X111.1
G1 X111.3636 Y164.3636
G0 Z3.0
G0 X90.3636
G0 Z0.0
G1 F300.0 Z-2.0
G1 F800.0 X90.1 Y164.1
G1 Y131.9
G1 X90.3636 Y131.6364
G1 X90.1 Y131.9
G1 X72.9
G1 X72.6364 Y131.6364
G1 X72.9 Y131.9
G1 Y164.1
G1 X72.6364 Y164.3636
G1 X72.9 Y164.1
G1 X90.1
G1 X90.3636 Y164.3636
G0 Z3.0
G0 Y167.6364
G0 Z0.0
G1 F300.0 Z-2.0
G1 F800.0 X90.1 Y167.9
G1 X72.9
G1 X72.6364 Y167.6364
G1 X72.9 Y167.9
G1 Y200.1
G1 X72.6364 Y200.3636
G1 X72.9 Y200.1
G1 X90.1
G1 X90.3636 Y200.3636
G1 X90.1 Y200.1
G1 Y167.9
G1 X90.3636 Y167.6364
G0 Z3.0
G0 X69.3636
G0 Z0.0
G1 F300.0 Z-2.0
G1 F800.0 X69.1 Y167.9
G1 X51.9
G1 X51.6364 Y167.6364
G1 X51.9 Y167.9
G1 Y200.1
G1 X51.6364 Y200.3636
G1 X51.9 Y200.1
G1 X69.1
G1 X69.3636 Y200.3636
G1 X69.1 Y200.1
G1 Y167.9
G1 X69.3636 Y167.6364
G0 Z3.0
G0 Y164.3636
G0 Z0.0
G1 F300.0 Z-2.0
G1 F800.0 X69.1 Y164.1
G1 Y131.9
G1 X69.3636 Y131.6364
G1 X69.1 Y131.9
G1 X51.9
G1 X51.6364 Y131.6364
G1 X51.9 Y131.9
G1 Y164.1
G1 X51.6364 Y164.3636
G1 X51.9 Y164.1
G1 X69.1
G1 X69.3636 Y164.3636
G0 Z3.0
G0 X48.3636
G0 Z0.0
G1 F300.0 Z-2.0
G1 F800.0 X48.1 Y164.1
G1 Y131.9
G1 X48.3636 Y131.6364
G1 X48.1 Y131.9
G1 X30.9
G1 X30.6364 Y131.6364
G1 X30.9 Y131.9
G1 Y164.1
G1 X30.6364 Y164.3636
G1 X30.9 Y164.1
G1 X48.1
G1 X48.3636 Y164.3636
G0 Z3.0
G0 Y167.6364
G0 Z0.0
G1 F300.0 Z-2.0
G1 F800.0 X48.1 Y167.9
G1 X30.9
G1 X30.6364 Y167.6364
G1 X30.9 Y167.9
G1 Y200.1
G1 X30.6364 Y200.3636
G1 X30.9 Y200.1
G1 X48.1
G1 X48.3636 Y200.3636
G1 X48.1 Y200.1
G1 Y167.9
G1 X48.3636 Y167.6364
G0 Z3.0
G0 Y128.3636
G0 Z0.0
G1 F300.0 Z-2.0
G1 F800.0 X48.1 Y128.1
G1 Y95.9
G1 X48.3636 Y95.6364
G1 X48.1 Y95.9
G1 X30.9
G1 X30.6364 Y95.6364
G1 X30.9 Y95.9
G1 Y128.1
G1 X30.6364 Y128.3636
G1 X30.9 Y128.1
G1 X48.1
G1 X48.3636 Y128.3636
G0 Z3.0
G0 X51.6364
G0 Z0.0
G1 F300.0 Z-2.0
G1 F800.0 X51.9 Y128.1
G1 X69.1
G1 X69.3636 Y128.3636
G1 X69.1 Y128.1
G1 Y95.9
G1 X69.3636 Y95.6364
G1 X69.1 Y95.9
G1 X51.9
G1 X51.6364 Y95.6364
G1 X51.9 Y95.9
G1 Y128.1
G1 X51.6364 Y128.3636
G0 Z3.0
G0 X72.6364
G0 Z0.0
G1 F300.0 Z-2.0
G1 F800.0 X72.9 Y128.1
G1 X90.1
G1 X90.3636 Y128.3636
G1 X90.1 Y128.1
G1 Y95.9
G1 X90.3636 Y95.6364
G1 X90.1 Y95.9
G1 X72.9
G1 X72.6364 Y95.6364
G1 X72.9 Y95.9
G1 Y128.1
G1 X72.6364 Y128.3636
G0 Z3.0
G0 X93.6364
G0 Z0.0
G1 F300.0 Z-2.0
G1 F800.0 X93.9 Y128.1
G1 X111.1
G1 X111.3636 Y128.3636
G1 X111.1 Y128.1
G1 Y95.9
G1 X111.3636 Y95.6364
G1 X111.1 Y95.9
G1 X93.9
G1 X93.6364 Y95.6364
G1 X93.9 Y95.9
G1 Y128.1
G1 X93.6364 Y128.3636
G0 Z3.0
G0 X114.6364
G0 Z0.0
G1 F300.0 Z-2.0
G1 F800.0 X114.9 Y128.1
G1 X132.1
G1 X132.3636 Y128.3636
G1 X132.1 Y128.1
G1 Y95.9
G1 X132.3636 Y95.6364
G1 X132.1 Y95.9
G1 X114.9
G1 X114.6364 Y95.6364
G1 X114.9 Y95.9
G1 Y128.1
G1 X114.6364 Y128.3636
G0 Z3.0
G0 X135.6364
G0 Z0.0
G1 F300.0 Z-2.0
G1 F800.0 X135.9 Y128.1
G1 X153.1
G1 X153.3636 Y128.3636
G1 X153.1 Y128.1
G1 Y95.9
G1 X153.3636 Y95.6364
G1 X153.1 Y95.9
G1 X135.9
G1 X135.6364 Y95.6364
G1 X135.9 Y95.9
G1 Y128.1
G1 X135.6364 Y128.3636
G0 Z3.0
G0 X156.6364
G0 Z0.0
G1 F300.0 Z-2.0
G1 F800.0 X156.9 Y128.1
G1 X174.1
G1 X174.3636 Y128.3636
G1 X174.1 Y128.1
G1 Y95.9
G1 X174.3636 Y95.6364
G1 X174.1 Y95.9
G1 X156.9
G1 X156.6364 Y95.6364
G1 X156.9 Y95.9
G1 Y128.1
G1 X156.6364 Y128.3636
G0 Z3.0
G0 X177.6364
G0 Z0.0
G1 F300.0 Z-2.0
G1 F800.0 X177.9 Y128.1
G1 X195.1
G1 X195.3636 Y128.3636
G1 X195.1 Y128.1
G1 Y95.9
G1 X195.3636 Y95.6364
G1 X195.1 Y95.9
G1 X177.9
G1 X177.6364 Y95.6364
G1 X177.9 Y95.9
G1 Y128.1
G1 X177.6364 Y128.3636
G0 Z3.0
G0 X198.6364
G0 Z0.0
G1 F300.0 Z-2.0
G1 F800.0 X198.9 Y128.1
G1 X216.1
G1 X216.3636 Y128.3636
G1 X216.1 Y128.1
G1 Y95.9
G1 X216.3636 Y95.6364
G1 X216.1 Y95.9
G1 X198.9
G1 X198.6364 Y95.6364
G1 X198.9 Y95.9
G1 Y128.1
G1 X198.6364 Y128.3636
G0 Z3.0
G0 X219.6364
G0 Z0.0
G1 F300.0 Z-2.0
G1 F800.0 X219.9 Y128.1
G1 X237.1
G1 X237.3636 Y128.3636
G1 X237.1 Y128.1
G1 Y95.9
G1 X237.3636 Y95.6364
G1 X237.1 Y95.9
G1 X219.9
G1 X219.6364 Y95.6364
G1 X219.9 Y95.9
G1 Y128.1
G1 X219.6364 Y128.3636
G0 Z3.0
G0 X240.6364
G0 Z0.0
G1 F300.0 Z-2.0
G1 F800.0 X240.9 Y128.1
G1 X258.1
G1 X258.3636 Y128.3636
G1 X258.1 Y128.1
G1 Y95.9
G1 X258.3636 Y95.6364
G1 X258.1 Y95.9
G1 X240.9
G1 X240.6364 Y95.6364
G1 X240.9 Y95.9
G1 Y128.1
G1 X240.6364 Y128.3636
G0 Z3.0
G0 Y92.3636
G0 Z0.0
G1 F300.0 Z-2.0
G1 F800.0 X240.9 Y92.1
G1 X258.1
G1 X258.3636 Y92.3636
G1 X258.1 Y92.1
G1 Y59.9
G1 X258.3636 Y59.6364
G1 X258.1 Y59.9
G1 X240.9
G1 X240.6364 Y59.6364
G1 X240.9 Y59.9
G1 Y92.1
G1 X240.6364 Y92.3636
G0 Z3.0
G0 X237.3636
G0 Z0.0
G1 F300.0 Z-2.0
G1 F800.0 X237.1 Y92.1
G1 Y59.9
G1 X237.3636 Y59.6364
G1 X237.1 Y59.9
G1 X219.9
G1 X219.6364 Y59.6364
G1 X219.9 Y59.9
G1 Y92.1
G1 X219.6364 Y92.3636
G1 X219.9 Y92.1
G1 X237.1
G1 X237.3636 Y92.3636
G0 Z3.0
G0 X216.3636
G0 Z0.0
G1 F300.0 Z-2.0
G1 F800.0 X216.1 Y92.1
G1 Y59.9
G1 X216.3636 Y59.6364
G1 X216.1 Y59.9
G1 X198.9
G1 X198.6364 Y59.6364
G1 X198.9 Y59.9
G1 Y92.1
G1 X198.6364 Y92.3636
G1 X198.9 Y92.1
G1 X216.1
G1 X216.3636 Y92.3636
G0 Z3.0
G0 X195.3636
G0 Z0.0
G1 F300.0 Z-2.0
G1 F800.0 X195.1 Y92.1
G1 Y59.9
G1 X195.3636 Y59.6364
G1 X195.1 Y59.9
G1 X177.9
G1 X177.6364 Y59.6364
G1 X177.9 Y59.9
G1 Y92.1
G1 X177.6364 Y92.3636
G1 X177.9 Y92.1
G1 X195.1
G1 X195.3636 Y92.3636
G0 Z3.0
G0 X174.3636
G0 Z0.0
G1 F300.0 Z-2.0
G1 F800.0 X174.1 Y92.1
G1 Y59.9
G1 X174.3636 Y59.6364
G1 X174.1 Y59.9
G1 X156.9
G1 X156.6364 Y59.6364
G1 X156.9 Y59.9
G1 Y92.1
G1 X156.6364 Y92.3636
G1 X156.9 Y92.1
G1 X174.1
G1 X174.3636 Y92.3636
G0 Z3.0
G0 X153.3636
G0 Z0.0
G1 F300.0 Z-2.0
G1 F800.0 X153.1 Y92.1
G1 Y59.9
G1 X153.3636 Y59.6364
G1 X153.1 Y59.9
G1 X135.9
G1 X135.6364 Y59.6364
G1 X135.9 Y59.9
G1 Y92.1
G1 X135.6364 Y92.3636
G1 X135.9 Y92.1
G1 X153.1
G1 X153.3636 Y92.3636
G0 Z3.0
G0 X132.3636
G0 Z0.0
G1 F300.0 Z-2.0
G1 F800.0 X132.1 Y92.1
G1 Y59.9
G1 X132.3636 Y59.6364
G1 X132.1 Y59.9
G1 X114.9
G1 X114.6364 Y59.6364
G1 X114.9 Y59.9
G1 Y92.1
G1 X114.6364 Y92.3636
G1 X114.9 Y92.1
G1 X132.1
G1 X132.3636 Y92.3636
G0 Z3.0
G0 X111.3636
G0 Z0.0
G1 F300.0 Z-2.0
G1 F800.0 X111.1 Y92.1
G1 Y59.9
G1 X111.3636 Y59.6364
G1 X111.1 Y59.9
G1 X93.9
G1 X93.6364 Y59.6364
G1 X93.9 Y59.9
G1 Y92.1
G1 X93.6364 Y92.3636
G1 X93.9 Y92.1
G1 X111.1
G1 X111.3636 Y92.3636
G0 Z3.0
G0 X90.3636
G0 Z0.0
G1 F300.0 Z-2.0
G1 F800.0 X90.1 Y92.1
G1 Y59.9
G1 X90.3636 Y59.6364
G1 X90.1 Y59.9
G1 X72.9
G1 X72.6364 Y59.6364
G1 X72.9 Y59.9
G1 Y92.1
G1 X72.6364 Y92.3636
G1 X72.9 Y92.1
G1 X90.1
G1 X90.3636 Y92.3636
G0 Z3.0
G0 X69.3636
G0 Z0.0
G1 F300.0 Z-2.0
G1 F800.0 X69.1 Y92.1
G1 Y59.9
G1 X69.3636 Y59.6364
G1 X69.1 Y59.9
G1 X51.9
G1 X51.6364 Y59.6364
G1 X51.9 Y59.9
G1 Y92.1
G1 X51.6364 Y92.3636
G1 X51.9 Y92.1
G1 X69.1
G1 X69.3636 Y92.3636
G0 Z3.0
G0 X48.3636
G0 Z0.0
G1 F300.0 Z-2.0
G1 F800.0 X48.1 Y92.1
G1 Y59.9
G1 X48.3636 Y59.6364
G1 X48.1 Y59.9
G1 X30.9
G1 X30.6364 Y59.6364
G1 X30.9 Y59.9
G1 Y92.1
G1 X30.6364 Y92.3636
G1 X30.9 Y92.1
G1 X48.1
G1 X48.3636 Y92.3636
G0 Z3.0
G0 Y56.3636
G0 Z0.0
G1 F300.0 Z-2.0
G1 F800.0 X48.1 Y56.1
G1 Y23.9
G1 X48.3636 Y23.6364
G1 X48.1 Y23.9
G1 X30.9
G1 X30.6364 Y23.6364
G1 X30.9 Y23.9
G1 Y56.1
G1 X30.6364 Y56.3636
G1 X30.9 Y56.1
G1 X48.1
G1 X48.3636 Y56.3636
G0 Z3.0
G0 X51.6364
G0 Z0.0
G1 F300.0 Z-2.0
G1 F800.0 X51.9 Y56.1
G1 X69.1
G1 X69.3636 Y56.3636
G1 X69.1 Y56.1
G1 Y23.9
G1 X69.3636 Y23.6364
G1 X69.1 Y23.9
G1 X51.9
G1 X51.6364 Y23.6364
G1 X51.9 Y23.9
G1 Y56.1
G1 X51.6364 Y56.3636
G0 Z3.0
G0 X72.6364
G0 Z0.0
G1 F300.0 Z-2.0
G1 F800.0 X72.9 Y56.1
G1 X90.1
G1 X90.3636 Y56.3636
G1 X90.1 Y56.1
G1 Y23.9
G1 X90.3636 Y23.6364
G1 X90.1 Y23.9
G1 X72.9
G1 X72.6364 Y23.6364
G1 X72.9 Y23.9
G1 Y56.1
G1 X72.6364 Y56.3636
G0 Z3.0
G0 X93.6364
G0 Z0.0
G1 F300.0 Z-2.0
G1 F800.0 X93.9 Y56.1
G1 X111.1
G1 X111.3636 Y56.3636
G1 X111.1 Y56.1
G1 Y23.9
G1 X111.3636 Y23.6364
G1 X111.1 Y23.9
G1 X93.9
G1 X93.6364 Y23.6364
G1 X93.9 Y23.9
G1 Y56.1
G1 X93.6364 Y56.3636
G0 Z3.0
G0 X114.6364
G0 Z0.0
G1 F300.0 Z-2.0
G1 F800.0 X114.9 Y56.1
G1 X132.1
G1 X132.3636 Y56.3636
G1 X132.1 Y56.1
G1 Y23.9
G1 X132.3636 Y23.6364
G1 X132.1 Y23.9
G1 X114.9
G1 X114.6364 Y23.6364
G1 X114.9 Y23.9
G1 Y56.1
G1 X114.6364 Y56.3636
G0 Z3.0
G0 X135.6364
G0 Z0.0
G1 F300.0 Z-2.0
G1 F800.0 X135.9 Y56.1
G1 X153.1
G1 X153.3636 Y56.3636
G1 X153.1 Y56.1
G1 Y23.9
G1 X153.3636 Y23.6364
G1 X153.1 Y23.9
G1 X135.9
G1 X135.6364 Y23.6364
G1 X135.9 Y23.9
G1 Y56.1
G1 X135.6364 Y56.3636
G0 Z3.0
G0 X156.6364
G0 Z0.0
G1 F300.0 Z-2.0
G1 F800.0 X156.9 Y56.1
G1 X174.1
G1 X174.3636 Y56.3636
G1 X174.1 Y56.1
G1 Y23.9
G1 X174.3636 Y23.6364
G1 X174.1 Y23.9
G1 X156.9
G1 X156.6364 Y23.6364
G1 X156.9 Y23.9
G1 Y56.1
G1 X156.6364 Y56.3636
G0 Z3.0
G0 X177.6364
G0 Z0.0
G1 F300.0 Z-2.0
G1 F800.0 X177.9 Y56.1
G1 X195.1
G1 X195.3636 Y56.3636
G1 X195.1 Y56.1
G1 Y23.9
G1 X195.3636 Y23.6364
G1 X195.1 Y23.9
G1 X177.9
G1 X177.6364 Y23.6364
G1 X177.9 Y23.9
G1 Y56.1
G1 X177.6364 Y56.3636
G0 Z3.0
G0 X198.6364
G0 Z0.0
G1 F300.0 Z-2.0
G1 F800.0 X198.9 Y56.1
G1 X216.1
G1 X216.3636 Y56.3636
G1 X216.1 Y56.1
G1 Y23.9
G1 X216.3636 Y23.6364
G1 X216.1 Y23.9
G1 X198.9
G1 X198.6364 Y23.6364
G1 X198.9 Y23.9
G1 Y56.1
G1 X198.6364 Y56.3636
G0 Z3.0
G0 X219.6364
G0 Z0.0
G1 F300.0 Z-2.0
G1 F800.0 X219.9 Y56.1
G1 X237.1
G1 X237.3636 Y56.3636
G1 X237.1 Y56.1
G1 Y23.9
G1 X237.3636 Y23.6364
G1 X237.1 Y23.9
G1 X219.9
G1 X219.6364 Y23.6364
G1 X219.9 Y23.9
G1 Y56.1
G1 X219.6364 Y56.3636
G0 Z3.0
G0 X240.6364
G0 Z0.0
G1 F300.0 Z-2.0
G1 F800.0 X240.9 Y56.1
G1 X258.1
G1 X258.3636 Y56.3636
G1 X258.1 Y56.1
G1 Y23.9
G1 X258.3636 Y23.6364
G1 X258.1 Y23.9
G1 X240.9
G1 X240.6364 Y23.6364
G1 X240.9 Y23.9
G1 Y56.1
G1 X240.6364 Y56.3636
G1 F300.0 Z-3.0
G1 F800.0 X240.9 Y56.1
G1 X258.1
G1 X258.3636 Y56.3636
G1 X258.1 Y56.1
G1 Y23.9
G1 X258.3636 Y23.6364
G1 X258.1 Y23.9
G1 X240.9
G1 X240.6364 Y23.6364
G1 X240.9 Y23.9
G1 Y56.1
G1 X240.6364 Y56.3636
G0 Z3.0
G0 Y59.6364
G0 Z-1.0
G1 F300.0 Z-3.0
G1 F800.0 X240.9 Y59.9
G1 Y92.1
G1 X240.6364 Y92.3636
G1 X240.9 Y92.1
G1 X258.1
G1 X258.3636 Y92.3636
G1 X258.1 Y92.1
G1 Y59.9
G1 X258.3636 Y59.6364
G1 X258.1 Y59.9
G1 X240.9
G1 X240.6364 Y59.6364
G0 Z3.0
G0 X237.3636
G0 Z-1.0
G1 F300.0 Z-3.0
G1 F800.0 X237.1 Y59.9
G1 X219.9
G1 X219.6364 Y59.6364
G1 X219.9 Y59.9
G1 Y92.1
G1 X219.6364 Y92.3636
G1 X219.9 Y92.1
G1 X237.1
G1 X237.3636 Y92.3636
G1 X237.1 Y92.1
G1 Y59.9
G1 X237.3636 Y59.6364
G0 Z3.0
G0 Y56.3636
G0 Z-1.0
G1 F300.0 Z-3.0
G1 F800.0 X237.1 Y56.1
G1 Y23.9
G1 X237.3636 Y23.6364
G1 X237.1 Y23.9
G1 X219.9
G1 X219.6364 Y23.6364
G1 X219.9 Y23.9
G1 Y56.1
G1 X219.6364 Y56.3636
G1 X219.9 Y56.1
G1 X237.1
G1 X237.3636 Y56.3636
G0 Z3.0
G0 X216.3636
G0 Z-1.0
G1 F300.0 Z-3.0
G1 F800.0 X216.1 Y56.1
G1 Y23.9
G1 X216.3636 Y23.6364
G1 X216.1 Y23.9
G1 X198.9
G1 X198.6364 Y23.6364
G1 X198.9 Y23.9
G1 Y56.1
G1 X198.6364 Y56.3636
G1 X198.9 Y56.1
G1 X216.1
G1 X216.3636 Y56.3636
G0 Z3.0
G0 Y59.6364
G0 Z-1.0
G1 F300.0 Z-3.0
G1 F800.0 X216.1 Y59.9
G1 X198.9
G1 X198.6364 Y59.6364
G1 X198.9 Y59.9
G1 Y92.1
G1 X198.6364 Y92.3636
G1 X198.9 Y92.1
G1 X216.1
G1 X216.3636 Y92.3636
G1 X216.1 Y92.1
G1 Y59.9
G1 X216.3636 Y59.6364
G0 Z3.0
G0 X195.3636
G0 Z-1.0
G1 F300.0 Z-3.0
G1 F800.0 X195.1 Y59.9
G1 X177.9
G1 X177.6364 Y59.6364
G1 X177.9 Y59.9
G1 Y92.1
G1 X177.6364 Y92.3636
G1 X177.9 Y92.1
G1 X195.1
G1 X195.3636 Y92.3636
G1 X195.1 Y92.1
G1 Y59.9
G1 X195.3636 Y59.6364
G0 Z3.0
G0 Y56.3636
G0 Z-1.0
G1 F300.0 Z-3.0
G1 F800.0 X195.1 Y56.1
G1 Y23.9
G1 X195.3636 Y23.6364
G1 X195.1 Y23.9
G1 X177.9
G1 X177.6364 Y23.6364
G1 X177.9 Y23.9
G1 Y56.1
G1 X177.6364 Y56.3636
G1 X177.9 Y56.1
G1 X195.1
G1 X195.3636 Y56.3636
G0 Z3.0
G0 X174.3636
G0 Z-1.0
G1 F300.0 Z-3.0
G1 F800.0 X174.1 Y56.1
G1 Y23.9
G1 X174.3636 Y23.6364
G1 X174.1 Y23.9
G1 X156.9
G1 X156.6364 Y23.6364
G1 X156.9 Y23.9
G1 Y56.1
G1 X156.6364 Y56.3636
G1 X156.9 Y56.1
G1 X174.1
G1 X174.3636 Y56.3636
G0 Z3.0
G0 Y59.6364
G0 Z-1.0
G1 F300.0 Z-3.0
G1 F800.0 X174.1 Y59.9
G1 X156.9
G1 X156.6364 Y59.6364
G1 X156.9 Y59.9
G1 Y92.1
G1 X156.6364 Y92.3636
G1 X156.9 Y92.1
G1 X174.1
G1 X174.3636 Y92.3636
G1 X174.1 Y92.1
G1 Y59.9
G1 X174.3636 Y59.6364
G0 Z3.0
G0 X153.3636
G0 Z-1.0
G1 F300.0 Z-3.0
G1 F800.0 X153.1 Y59.9
G1 X135.9
G1 X135.6364 Y59.6364
G1 X135.9 Y59.9
G1 Y92.1
G1 X135.6364 Y92.3636
G1 X135.9 Y92.1
G1 X153.1
G1 X153.3636 Y92.3636
G1 X153.1 Y92.1
G1 Y59.9
G1 X153.3636 Y59.6364
G0 Z3.0
G0 Y56.3636
G0 Z-1.0
G1 F300.0 Z-3.0
G1 F800.0 X153.1 Y56.1
G1 Y23.9
G1 X153.3636 Y23.6364
G1 X153.1 Y23.9
G1 X135.9
G1 X135.6364 Y23.6364
G1 X135.9 Y23.9
G1 Y56.1
G1 X135.6364 Y56.3636
G1 X135.9 Y56.1
G1 X153.1
G1 X153.3636 Y56.3636
G0 Z3.0
G0 X132.3636
G0 Z-1.0
G1 F300.0 Z-3.0
G1 F800.0 X132.1 Y56.1
G1 Y23.9
G1 X132.3636 Y23.6364
G1 X132.1 Y23.9
G1 X114.9
G1 X114.6364 Y23.6364
G1 X114.9 Y23.9
G1 Y56.1
G1 X114.6364 Y56.3636
G1 X114.9 Y56.1
G1 X132.1
G1 X132.3636 Y56.3636
G0 Z3.0
G0 Y59.6364
G0 Z-1.0
G1 F300.0 Z-3.0
G1 F800.0 X132.1 Y59.9
G1 X114.9
G1 X114.6364 Y59.6364
G1 X114.9 Y59.9
G1 Y92.1
G1 X114.6364 Y92.3636
G1 X114.9 Y92.1
G1 X132.1
G1 X132.3636 Y92.3636
G1 X132.1 Y92.1
G1 Y59.9
G1 X132.3636 Y59.6364
G0 Z3.0
G0 X111.3636
G0 Z-1.0
G1 F300.0 Z-3.0
G1 F800.0 X111.1 Y59.9
G1 X93.9
G1 X93.6364 Y59.6364
G1 X93.9 Y59.9
G1 Y92.1
G1 X93.6364 Y92.3636
G1 X93.9 Y92.1
G1 X111.1
G1 X111.3636 Y92.3636
G1 X111.1 Y92.1
G1 Y59.9
G1 X111.3636 Y59.6364
G0 Z3.0
G0 Y56.3636
G0 Z-1.0
G1 F300.0 Z-3.0
G1 F800.0 X111.1 Y56.1
G1 Y23.9
G1 X111.3636 Y23.6364
G1 X111.1 Y23.9
G1 X93.9
G1 X93.6364 Y23.6364
G1 X93.9 Y23.9
G1 Y56.1
G1 X93.6364 Y56.3636
G1 X93.9 Y56.1
G1 X111.1
G1 X111.3636 Y56.3636
G0 Z3.0
G0 X90.3636
G0 Z-1.0
G1 F300.0 Z-3.0
G1 F800.0 X90.1 Y56.1
G1 Y23.9
G1 X90.3636 Y23.6364
G1 X90.1 Y23.9
G1 X72.9
G1 X72.6364 Y23.6364
G1 X72.9 Y23.9
G1 Y56.1
G1 X72.6364 Y56.3636
G1 X72.9 Y56.1
G1 X90.1
G1 X90.3636 Y56.3636
G0 Z3.0
G0 Y59.6364
G0 Z-1.0
G1 F300.0 Z-3.0
G1 F800.0 X90.1 Y59.9
G1 X72.9
G1 X72.6364 Y59.6364
G1 X72.9 Y59.9
G1 Y92.1
G1 X72.6364 Y92.3636
G1 X72.9 Y92.1
G1 X90.1
G1 X90.3636 Y92.3636
G1 X90.1 Y92.1
G1 Y59.9
G1 X90.3636 Y59.6364
G0 Z3.0
G0 X69.3636
G0 Z-1.0
G1 F300.0 Z-3.0
G1 F800.0 X69.1 Y59.9
G1 X51.9
G1 X51.6364 Y59.6364
G1 X51.9 Y59.9
G1 Y92.1
G1 X51.6364 Y92.3636
G1 X51.9 Y92.1
G1 X69.1
G1 X69.3636 Y92.3636
G1 X69.1 Y92.1
G1 Y59.9
G1 X69.3636 Y59.6364
G0 Z3.0
G0 Y56.3636
G0 Z-1.0
G1 F300.0 Z-3.0
G1 F800.0 X69.1 Y56.1
G1 Y23.9
G1 X69.3636 Y23.6364
G1 X69.1 Y23.9
G1 X51.9
G1 X51.6364 Y23.6364
G1 X51.9 Y23.9
G1 Y56.1
G1 X51.6364 Y56.3636
G1 X51.9 Y56.1
G1 X69.1
G1 X69.3636 Y56.3636
G0 Z3.0
G0 X48.3636
G0 Z-1.0
G1 F300.0 Z-3.0
G1 F800.0 X48.1 Y56.1
G1 Y23.9
G1 X48.3636 Y23.6364
G1 X48.1 Y23.9
G1 X30.9
G1 X30.6364 Y23.6364
G1 X30.9 Y23.9
G1 Y56.1
G1 X30.6364 Y56.3636
G1 X30.9 Y56.1
G1 X48.1
G1 X48.3636 Y56.3636
G0 Z3.0
G0 Y59.6364
G0 Z-1.0
G1 F300.0 Z-3.0
G1 F800.0 X48.1 Y59.9
G1 X30.9
G1 X30.6364 Y59.6364
G1 X30.9 Y59.9
G1 Y92.1
G1 X30.6364 Y92.3636
G1 X30.9 Y92.1
G1 X48.1
G1 X48.3636 Y92.3636
G1 X48.1 Y92.1
G1 Y59.9
G1 X48.3636 Y59.6364
G0 Z3.0
G0 Y95.6364
G0 Z-1.0
G1 F300.0 Z-3.0
G1 F800.0 X48.1 Y95.9
G1 X30.9
G1 X30.6364 Y95.6364
G1 X30.9 Y95.9
G1 Y128.1
G1 X30.6364 Y128.3636
G1 X30.9 Y128.1
G1 X48.1
G1 X48.3636 Y128.3636
G1 X48.1 Y128.1
G1 Y95.9
G1 X48.3636 Y95.6364
G0 Z3.0
G0 X51.6364
G0 Z-1.0
G1 F300.0 Z-3.0
G1 F800.0 X51.9 Y95.9
G1 Y128.1
G1 X51.6364 Y128.3636
G1 X51.9 Y128.1
G1 X69.1
G1 X69.3636 Y128.3636
G1 X69.1 Y128.1
G1 Y95.9
G1 X69.3636 Y95.6364
G1 X69.1 Y95.9
G1 X51.9
G1 X51.6364 Y95.6364
G0 Z3.0
G0 X72.6364
G0 Z-1.0
G1 F300.0 Z-3.0
G1 F800.0 X72.9 Y95.9
G1 Y128.1
G1 X72.6364 Y128.3636
G1 X72.9 Y128.1
G1 X90.1
G1 X90.3636 Y128.3636
G1 X90.1 Y128.1
G1 Y95.9
G1 X90.3636 Y95.6364
G1 X90.1 Y95.9
G1 X72.9
G1 X72.6364 Y95.6364
G0 Z3.0
G0 X93.6364
G0 Z-1.0
G1 F300.0 Z-3.0
G1 F800.0 X93.9 Y95.9
G1 Y128.1
G1 X93.6364 Y128.3636
G1 X93.9 Y128.1
G1 X111.1
G1 X111.3636 Y128.3636
G1 X111.1 Y128.1
G1 Y95.9
G1 X111.3636 Y95.6364
G1 X111.1 Y95.9
G1 X93.9
G1 X93.6364 Y95.6364
G0 Z3.0
G0 X114.6364
G0 Z-1.0
G1 F300.0 Z-3.0
G1 F800.0 X114.9 Y95.9
G1 Y128.1
G1 X114.6364 Y128.3636
G1 X114.9 Y128.1
G1 X132.1
G1 X132.3636 Y128.3636
G1 X132.1 Y128.1
G1 Y95.9
G1 X132.3636 Y95.6364
G1 X132.1 Y95.9
G1 X114.9
G1 X114.6364 Y95.6364
G0 Z3.0
G0 X135.6364
G0 Z-1.0
G1 F300.0 Z-3.0
G1 F800.0 X135.9 Y95.9
G1 Y128.1
G1 X135.6364 Y128.3636
G1 X135.9 Y128.1
G1 X153.1
G1 X153.3636 Y128.3636
G1 X153.1 Y128.1
G1 Y95.9
G1 X153.3636 Y95.6364
G1 X153.1 Y95.9
G1 X135.9
G1 X135.6364 Y95.6364
G0 Z3.0
G0 X156.6364
G0 Z-1.0
G1 F300.0 Z-3.0
G1 F800.0 X156.9 Y95.9
G1 Y128.1
G1 X156.6364 Y128.3636
G1 X156.9 Y128.1
G1 X174.1
G1 X174.3636 Y128.3636
G1 X174.1 Y128.1
G1 Y95.9
G1 X174.3636 Y95.6364
G1 X174.1 Y95.9
G1 X156.9
G1 X156.6364 Y95.6364
G0 Z3.0
G0 X177.6364
G0 Z-1.0
G1 F300.0 Z-3.0
G1 F800.0 X177.9 Y95.9
G1 Y128.1
G1 X177.6364 Y128.3636
G1 X177.9 Y128.1
G1 X195.1
G1 X195.3636 Y128.3636
G1 X195.1 Y128.1
G1 Y95.9
G1 X195.3636 Y95.6364
G1 X195.1 Y95.9
G1 X177.9
G1 X177.6364 Y95.6364
G0 Z3.0
G0 X198.6364
G0 Z-1.0
G1 F300.0 Z-3.0
G1 F800.0 X198.9 Y95.9
G1 Y128.1
G1 X198.6364 Y128.3636
G1 X198.9 Y128.1
G1 X216.1
G1 X216.3636 Y128.3636
G1 X216.1 Y128.1
G1 Y95.9
G1 X216.3636 Y95.6364
G1 X216.1 Y95.9
G1 X198.9
G1 X198.6364 Y95.6364
G0 Z3.0
G0 X219.6364
G0 Z-1.0
G1 F300.0 Z-3.0
G1 F800.0 X219.9 Y95.9
G1 Y128.1
G1 X219.6364 Y128.3636
G1 X219.9 Y128.1
G1 X237.1
G1 X237.3636 Y128.3636
G1 X237.1 Y128.1
G1 Y95.9
G1 X237.3636 Y95.6364
G1 X237.1 Y95.9
G1 X219.9
G1 X219.6364 Y95.6364
G0 Z3.0
G0 X240.6364
G0 Z-1.0
G1 F300.0 Z-3.0
G1 F800.0 X240.9 Y95.9
G1 Y128.1
G1 X240.6364 Y128.3636
G1 X240.9 Y128.1
G1 X258.1
G1 X258.3636 Y128.3636
G1 X258.1 Y128.1
G1 Y95.9
G1 X258.3636 Y95.6364
G1 X258.1 Y95.9
G1 X240.9
G1 X240.6364 Y95.6364
G0 Z3.0
G0 Y131.6364
G0 Z-1.0
G1 F300.0 Z-3.0
G1 F800.0 X240.9 Y131.9
G1 Y164.1
G1 X240.6364 Y164.3636
G1 X240.9 Y164.1
G1 X258.1
G1 X258.3636 Y164.3636
G1 X258.1 Y164.1
G1 Y131.9
G1 X258.3636 Y131.6364
G1 X258.1 Y131.9
G1 X240.9
G1 X240.6364 Y131.6364
G0 Z3.0
G0 X237.3636
G0 Z-1.0
G1 F300.0 Z-3.0
G1 F800.0 X237.1 Y131.9
G1 X219.9
G1 X219.6364 Y131.6364
G1 X219.9 Y131.9
G1 Y164.1
G1 X219.6364 Y164.3636
G1 X219.9 Y164.1
G1 X237.1
G1 X237.3636 Y164.3636
G1 X237.1 Y164.1
G1 Y131.9
G1 X237.3636 Y131.6364
G0 Z3.0
G0 X216.3636
G0 Z-1.0
G1 F300.0 Z-3.0
G1 F800.0 X216.1 Y131.9
G1 X198.9
G1 X198.6364 Y131.6364
G1 X198.9 Y131.9
G1 Y164.1
G1 X198.6364 Y164.3636
G1 X198.9 Y164.1
G1 X216.1
G1 X216.3636 Y164.3636
G1 X216.1 Y164.1
G1 Y131.9
G1 X216.3636 Y131.6364
G0 Z3.0
G0 X195.3636
G0 Z-1.0
G1 F300.0 Z-3.0
G1 F800.0 X195.1 Y131.9
G1 X177.9
G1 X177.6364 Y131.6364
G1 X177.9 Y131.9
G1 Y164.1
G1 X177.6364 Y164.3636
G1 X177.9 Y164.1
G1 X195.1
G1 X195.3636 Y164.3636
G1 X195.1 Y164.1
G1 Y131.9
G1 X195.3636 Y131.6364
G0 Z3.0
G0 X174.3636
G0 Z-1.0
G1 F300.0 Z-3.0
G1 F800.0 X174.1 Y131.9
G1 X156.9
G1 X156.6364 Y131.6364
G1 X156.9 Y131.9
G1 Y164.1
G1 X156.6364 Y164.3636
G1 X156.9 Y164.1
G1 X174.1
G1 X174.3636 Y164.3636
G1 X174.1 Y164.1
G1 Y131.9
G1 X174.3636 Y131.6364
G0 Z3.0
G0 X153.3636
G0 Z-1.0
G1 F300.0 Z-3.0
G1 F800.0 X153.1 Y131.9
G1 X135.9
G1 X135.6364 Y131.6364
G1 X135.9 Y131.9
G1 Y164.1
G1 X135.6364 Y164.3636
G1 X135.9 Y164.1
G1 X153.1
G1 X153.3636 Y164.3636
G1 X153.1 Y164.1
G1 Y131.9
G1 X153.3636 Y131.6364
G0 Z3.0
G0 X132.3636
G0 Z-1.0
G1 F300.0 Z-3.0
G1 F800.0 X132.1 Y131.9
G1 X114.9
G1 X114.6364 Y131.6364
G1 X114.9 Y131.9
G1 Y164.1
G1 X114.6364 Y164.3636
G1 X114.9 Y164.1
G1 X132.1
G1 X132.3636 Y164.3636
G1 X132.1 Y164.1
G1 Y131.9
G1 X132.3636 Y131.6364
G0 Z3.0
G0 X111.3636
G0 Z-1.0
G1 F300.0 Z-3.0
G1 F800.0 X111.1 Y131.9
G1 X93.9
G1 X93.6364 Y131.6364
G1 X93.9 Y131.9
G1 Y164.1
G1 X93.6364 Y164.3636
G1 X93.9 Y164.1
G1 X111.1
G1 X111.3636 Y164.3636
G1 X111.1 Y164.1
G1 Y131.9
G1 X111.3636 Y131.6364
G0 Z3.0
G0 X90.3636
G0 Z-1.0
G1 F300.0 Z-3.0
G1 F800.0 X90.1 Y131.9
G1 X72.9
G1 X72.6364 Y131.6364
G1 X72.9 Y131.9
G1 Y164.1
G1 X72.6364 Y164.3636
G1 X72.9 Y164.1
G1 X90.1
G1 X90.3636 Y164.3636
G1 X90.1 Y164.1
G1 Y131.9
G1 X90.3636 Y131.6364
G0 Z3.0
G0 X69.3636
G0 Z-1.0
G1 F300.0 Z-3.0
G1 F800.0 X69.1 Y131.9
G1 X51.9
G1 X51.6364 Y131.6364
G1 X51.9 Y131.9
G1 Y164.1
G1 X51.6364 Y164.3636
G1 X51.9 Y164.1
G1 X69.1
G1 X69.3636 Y164.3636
G1 X69.1 Y164.1
G1 Y131.9
G1 X69.3636 Y131.6364
G0 Z3.0
G0 X48.3636
G0 Z-1.0
G1 F300.0 Z-3.0
G1 F800.0 X48.1 Y131.9
G1 X30.9
G1 X30.6364 Y131.6364
G1 X30.9 Y131.9
G1 Y164.1
G1 X30.6364 Y164.3636
G1 X30.9 Y164.1
G1 X48.1
G1 X48.3636 Y164.3636
G1 X48.1 Y164.1
G1 Y131.9
G1 X48.3636 Y131.6364
G0 Z3.0
G0 Y167.6364
G0 Z-1.0
G1 F300.0 Z-3.0
G1 F800.0 X48.1 Y167.9
G1 X30.9
G1 X30.6364 Y167.6364
G1 X30.9 Y167.9
G1 Y200.1
G1 X30.6364 Y200.3636
G1 X30.9 Y200.1
G1 X48.1
G1 X48.3636 Y200.3636
G1 X48.1 Y200.1
G1 Y167.9
G1 X48.3636 Y167.6364
G0 Z3.0
G0 X51.6364
G0 Z-1.0
G1 F300.0 Z-3.0
G1 F800.0 X51.9 Y167.9
G1 Y200.1
G1 X51.6364 Y200.3636
G1 X51.9 Y200.1
G1 X69.1
G1 X69.3636 Y200.3636
G1 X69.1 Y200.1
G1 Y167.9
G1 X69.3636 Y167.6364
G1 X69.1 Y167.9
G1 X51.9
G1 X51.6364 Y167.6364
G0 Z3.0
G0 X72.6364
G0 Z-1.0
G1 F300.0 Z-3.0
G1 F800.0 X72.9 Y167.9
G1 Y200.1
G1 X72.6364 Y200.3636
G1 X72.9 Y200.1
G1 X90.1
G1 X90.3636 Y200.3636
G1 X90.1 Y200.1
G1 Y167.9
G1 X90.3636 Y167.6364
G1 X90.1 Y167.9
G1 X72.9
G1 X72.6364 Y167.6364
G0 Z3.0
G0 X93.6364
G0 Z-1.0
G1 F300.0 Z-3.0
G1 F800.0 X93.9 Y167.9
G1 Y200.1
G1 X93.6364 Y200.3636
G1 X93.9 Y200.1
G1 X111.1
G1 X111.3636 Y200.3636
G1 X111.1 Y200.1
G1 Y167.9
G1 X111.3636 Y167.6364
G1 X111.1 Y167.9
G1 X93.9
G1 X93.6364 Y167.6364
G0 Z3.0
G0 X114.6364
G0 Z-1.0
G1 F300.0 Z-3.0
G1 F800.0 X114.9 Y167.9
G1 Y200.1
G1 X114.6364 Y200.3636
G1 X114.9 Y200.1
G1 X132.1
G1 X132.3636 Y200.3636
G1 X132.1 Y200.1
G1 Y167.9
G1 X132.3636 Y167.6364
G1 X132.1 Y167.9
G1 X114.9
G1 X114.6364 Y167.6364
G0 Z3.0
G0 X135.6364
G0 Z-1.0
G1 F300.0 Z-3.0
G1 F800.0 X135.9 Y167.9
G1 Y200.1
G1 X135.6364 Y200.3636
G1 X135.9 Y200.1
G1 X153.1
G1 X153.3636 Y200.3636
G1 X153.1 Y200.1
G1 Y167.9
G1 X153.3636 Y167.6364
G1 X153.1 Y167.9
G1 X135.9
G1 X135.6364 Y167.6364
G0 Z3.0
G0 X156.6364
G0 Z-1.0
G1 F300.0 Z-3.0
G1 F800.0 X156.9 Y167.9
G1 Y200.1
G1 X156.6364 Y200.3636
G1 X156.9 Y200.1
G1 X174.1
G1 X174.3636 Y200.3636
G1 X174.1 Y200.1
G1 Y167.9
G1 X174.3636 Y167.6364
G1 X174.1 Y167.9
G1 X156.9
G1 X156.6364 Y167.6364
G0 Z3.0
G0 X177.6364
G0 Z-1.0
G1 F300.0 Z-3.0
G1 F800.0 X177.9 Y167.9
G1 Y200.1
G1 X177.6364 Y200.3636
G1 X177.9 Y200.1
G1 X195.1
G1 X195.3636 Y200.3636
G1 X195.1 Y200.1
G1 Y167.9
G1 X195.3636 Y167.6364
G1 X195.1 Y167.9
G1 X177.9
G1 X177.6364 Y167.6364
G0 Z3.0
G0 X198.6364
G0 Z-1.0
G1 F300.0 Z-3.0
G1 F800.0 X198.9 Y167.9
G1 Y200.1
G1 X198.6364 Y200.3636
G1 X198.9 Y200.1
G1 X216.1
G1 X216.3636 Y200.3636
G1 X216.1 Y200.1
G1 Y167.9
G1 X216.3636 Y167.6364
G1 X216.1 Y167.9
G1 X198.9
G1 X198.6364 Y167.6364
G0 Z3.0
G0 X219.6364
G0 Z-1.0
G1 F300.0 Z-3.0
G1 F800.0 X219.9 Y167.9
G1 Y200.1
G1 X219.6364 Y200.3636
G1 X219.9 Y200.1
G1 X237.1
G1 X237.3636 Y200.3636
G1 X237.1 Y200.1
G1 Y167.9
G1 X237.3636 Y167.6364
G1 X237.1 Y167.9
G1 X219.9
G1 X219.6364 Y167.6364
G0 Z3.0
G0 X240.6364
G0 Z-1.0
G1 F300.0 Z-3.0
G1 F800.0 X240.9 Y167.9
G1 Y200.1
G1 X240.6364 Y200.3636
G1 X240.9 Y200.1
G1 X258.1
G1 X258.3636 Y200.3636
G1 X258.1 Y200.1
G1 Y167.9
G1 X258.3636 Y167.6364
G1 X258.1 Y167.9
G1 X240.9
G1 X240.6364 Y167.6364
G0 Z3.0
M5
M30
