( Made using CamBam - http://www.cambam.co.uk )
( linstrument_small_8 10/3/2014 2:58:17 PM )
( T2 : 2.0 )
G21 G90 G64 G40
G0 Z3.0
( T2 : 2.0 )
T2 M6
( rez )
G17
M3 S1000
G0 X32.9 Y25.9
G0 Z1.0
G1 F300.0 Z-1.1
G1 F800.0 Y54.1
G1 X32.6364 Y54.3636
G1 X32.9 Y54.1
G1 X46.1
G1 X46.3636 Y54.3636
G1 X46.1 Y54.1
G1 Y25.9
G1 X46.3636 Y25.6364
G1 X46.1 Y25.9
G1 X32.9
G1 X32.6364 Y25.6364
G1 X32.9 Y25.9
G0 Z3.0
G0 X53.6364 Y25.6364
G0 Z1.0
G1 F300.0 Z-1.1
G1 F800.0 X53.9 Y25.9
G1 Y54.1
G1 X53.6364 Y54.3636
G1 X53.9 Y54.1
G1 X67.1
G1 X67.3636 Y54.3636
G1 X67.1 Y54.1
G1 Y25.9
G1 X67.3636 Y25.6364
G1 X67.1 Y25.9
G1 X53.9
G1 X53.6364 Y25.6364
G0 Z3.0
G0 X74.6364
G0 Z1.0
G1 F300.0 Z-1.1
G1 F800.0 X74.9 Y25.9
G1 Y54.1
G1 X74.6364 Y54.3636
G1 X74.9 Y54.1
G1 X88.1
G1 X88.3636 Y54.3636
G1 X88.1 Y54.1
G1 Y25.9
G1 X88.3636 Y25.6364
G1 X88.1 Y25.9
G1 X74.9
G1 X74.6364 Y25.6364
G0 Z3.0
G0 X95.6364
G0 Z1.0
G1 F300.0 Z-1.1
G1 F800.0 X95.9 Y25.9
G1 Y54.1
G1 X95.6364 Y54.3636
G1 X95.9 Y54.1
G1 X109.1
G1 X109.3636 Y54.3636
G1 X109.1 Y54.1
G1 Y25.9
G1 X109.3636 Y25.6364
G1 X109.1 Y25.9
G1 X95.9
G1 X95.6364 Y25.6364
G0 Z3.0
G0 X116.6364
G0 Z1.0
G1 F300.0 Z-1.1
G1 F800.0 X116.9 Y25.9
G1 Y54.1
G1 X116.6364 Y54.3636
G1 X116.9 Y54.1
G1 X130.1
G1 X130.3636 Y54.3636
G1 X130.1 Y54.1
G1 Y25.9
G1 X130.3636 Y25.6364
G1 X130.1 Y25.9
G1 X116.9
G1 X116.6364 Y25.6364
G0 Z3.0
G0 X137.6364
G0 Z1.0
G1 F300.0 Z-1.1
G1 F800.0 X137.9 Y25.9
G1 Y54.1
G1 X137.6364 Y54.3636
G1 X137.9 Y54.1
G1 X151.1
G1 X151.3636 Y54.3636
G1 X151.1 Y54.1
G1 Y25.9
G1 X151.3636 Y25.6364
G1 X151.1 Y25.9
G1 X137.9
G1 X137.6364 Y25.6364
G0 Z3.0
G0 X158.6364
G0 Z1.0
G1 F300.0 Z-1.1
G1 F800.0 X158.9 Y25.9
G1 Y54.1
G1 X158.6364 Y54.3636
G1 X158.9 Y54.1
G1 X172.1
G1 X172.3636 Y54.3636
G1 X172.1 Y54.1
G1 Y25.9
G1 X172.3636 Y25.6364
G1 X172.1 Y25.9
G1 X158.9
G1 X158.6364 Y25.6364
G0 Z3.0
G0 X179.6364
G0 Z1.0
G1 F300.0 Z-1.1
G1 F800.0 X179.9 Y25.9
G1 Y54.1
G1 X179.6364 Y54.3636
G1 X179.9 Y54.1
G1 X193.1
G1 X193.3636 Y54.3636
G1 X193.1 Y54.1
G1 Y25.9
G1 X193.3636 Y25.6364
G1 X193.1 Y25.9
G1 X179.9
G1 X179.6364 Y25.6364
G0 Z3.0
G0 X200.6364
G0 Z1.0
G1 F300.0 Z-1.1
G1 F800.0 X200.9 Y25.9
G1 Y54.1
G1 X200.6364 Y54.3636
G1 X200.9 Y54.1
G1 X214.1
G1 X214.3636 Y54.3636
G1 X214.1 Y54.1
G1 Y25.9
G1 X214.3636 Y25.6364
G1 X214.1 Y25.9
G1 X200.9
G1 X200.6364 Y25.6364
G0 Z3.0
G0 X221.6364
G0 Z1.0
G1 F300.0 Z-1.1
G1 F800.0 X221.9 Y25.9
G1 Y54.1
G1 X221.6364 Y54.3636
G1 X221.9 Y54.1
G1 X235.1
G1 X235.3636 Y54.3636
G1 X235.1 Y54.1
G1 Y25.9
G1 X235.3636 Y25.6364
G1 X235.1 Y25.9
G1 X221.9
G1 X221.6364 Y25.6364
G0 Z3.0
G0 X242.6364
G0 Z1.0
G1 F300.0 Z-1.1
G1 F800.0 X242.9 Y25.9
G1 Y54.1
G1 X242.6364 Y54.3636
G1 X242.9 Y54.1
G1 X256.1
G1 X256.3636 Y54.3636
G1 X256.1 Y54.1
G1 Y25.9
G1 X256.3636 Y25.6364
G1 X256.1 Y25.9
G1 X242.9
G1 X242.6364 Y25.6364
G0 Z3.0
G0 Y61.6364
G0 Z1.0
G1 F300.0 Z-1.1
G1 F800.0 X242.9 Y61.9
G1 Y90.1
G1 X242.6364 Y90.3636
G1 X242.9 Y90.1
G1 X256.1
G1 X256.3636 Y90.3636
G1 X256.1 Y90.1
G1 Y61.9
G1 X256.3636 Y61.6364
G1 X256.1 Y61.9
G1 X242.9
G1 X242.6364 Y61.6364
G0 Z3.0
G0 X235.3636
G0 Z1.0
G1 F300.0 Z-1.1
G1 F800.0 X235.1 Y61.9
G1 X221.9
G1 X221.6364 Y61.6364
G1 X221.9 Y61.9
G1 Y90.1
G1 X221.6364 Y90.3636
G1 X221.9 Y90.1
G1 X235.1
G1 X235.3636 Y90.3636
G1 X235.1 Y90.1
G1 Y61.9
G1 X235.3636 Y61.6364
G0 Z3.0
G0 X214.3636
G0 Z1.0
G1 F300.0 Z-1.1
G1 F800.0 X214.1 Y61.9
G1 X200.9
G1 X200.6364 Y61.6364
G1 X200.9 Y61.9
G1 Y90.1
G1 X200.6364 Y90.3636
G1 X200.9 Y90.1
G1 X214.1
G1 X214.3636 Y90.3636
G1 X214.1 Y90.1
G1 Y61.9
G1 X214.3636 Y61.6364
G0 Z3.0
G0 X193.3636
G0 Z1.0
G1 F300.0 Z-1.1
G1 F800.0 X193.1 Y61.9
G1 X179.9
G1 X179.6364 Y61.6364
G1 X179.9 Y61.9
G1 Y90.1
G1 X179.6364 Y90.3636
G1 X179.9 Y90.1
G1 X193.1
G1 X193.3636 Y90.3636
G1 X193.1 Y90.1
G1 Y61.9
G1 X193.3636 Y61.6364
G0 Z3.0
G0 X172.3636
G0 Z1.0
G1 F300.0 Z-1.1
G1 F800.0 X172.1 Y61.9
G1 X158.9
G1 X158.6364 Y61.6364
G1 X158.9 Y61.9
G1 Y90.1
G1 X158.6364 Y90.3636
G1 X158.9 Y90.1
G1 X172.1
G1 X172.3636 Y90.3636
G1 X172.1 Y90.1
G1 Y61.9
G1 X172.3636 Y61.6364
G0 Z3.0
G0 X151.3636
G0 Z1.0
G1 F300.0 Z-1.1
G1 F800.0 X151.1 Y61.9
G1 X137.9
G1 X137.6364 Y61.6364
G1 X137.9 Y61.9
G1 Y90.1
G1 X137.6364 Y90.3636
G1 X137.9 Y90.1
G1 X151.1
G1 X151.3636 Y90.3636
G1 X151.1 Y90.1
G1 Y61.9
G1 X151.3636 Y61.6364
G0 Z3.0
G0 X130.3636
G0 Z1.0
G1 F300.0 Z-1.1
G1 F800.0 X130.1 Y61.9
G1 X116.9
G1 X116.6364 Y61.6364
G1 X116.9 Y61.9
G1 Y90.1
G1 X116.6364 Y90.3636
G1 X116.9 Y90.1
G1 X130.1
G1 X130.3636 Y90.3636
G1 X130.1 Y90.1
G1 Y61.9
G1 X130.3636 Y61.6364
G0 Z3.0
G0 X109.3636
G0 Z1.0
G1 F300.0 Z-1.1
G1 F800.0 X109.1 Y61.9
G1 X95.9
G1 X95.6364 Y61.6364
G1 X95.9 Y61.9
G1 Y90.1
G1 X95.6364 Y90.3636
G1 X95.9 Y90.1
G1 X109.1
G1 X109.3636 Y90.3636
G1 X109.1 Y90.1
G1 Y61.9
G1 X109.3636 Y61.6364
G0 Z3.0
G0 X88.3636
G0 Z1.0
G1 F300.0 Z-1.1
G1 F800.0 X88.1 Y61.9
G1 X74.9
G1 X74.6364 Y61.6364
G1 X74.9 Y61.9
G1 Y90.1
G1 X74.6364 Y90.3636
G1 X74.9 Y90.1
G1 X88.1
G1 X88.3636 Y90.3636
G1 X88.1 Y90.1
G1 Y61.9
G1 X88.3636 Y61.6364
G0 Z3.0
G0 X67.3636
G0 Z1.0
G1 F300.0 Z-1.1
G1 F800.0 X67.1 Y61.9
G1 X53.9
G1 X53.6364 Y61.6364
G1 X53.9 Y61.9
G1 Y90.1
G1 X53.6364 Y90.3636
G1 X53.9 Y90.1
G1 X67.1
G1 X67.3636 Y90.3636
G1 X67.1 Y90.1
G1 Y61.9
G1 X67.3636 Y61.6364
G0 Z3.0
G0 X46.3636
G0 Z1.0
G1 F300.0 Z-1.1
G1 F800.0 X46.1 Y61.9
G1 X32.9
G1 X32.6364 Y61.6364
G1 X32.9 Y61.9
G1 Y90.1
G1 X32.6364 Y90.3636
G1 X32.9 Y90.1
G1 X46.1
G1 X46.3636 Y90.3636
G1 X46.1 Y90.1
G1 Y61.9
G1 X46.3636 Y61.6364
G0 Z3.0
G0 Y97.6364
G0 Z1.0
G1 F300.0 Z-1.1
G1 F800.0 X46.1 Y97.9
G1 X32.9
G1 X32.6364 Y97.6364
G1 X32.9 Y97.9
G1 Y126.1
G1 X32.6364 Y126.3636
G1 X32.9 Y126.1
G1 X46.1
G1 X46.3636 Y126.3636
G1 X46.1 Y126.1
G1 Y97.9
G1 X46.3636 Y97.6364
G0 Z3.0
G0 X53.6364
G0 Z1.0
G1 F300.0 Z-1.1
G1 F800.0 X53.9 Y97.9
G1 Y126.1
G1 X53.6364 Y126.3636
G1 X53.9 Y126.1
G1 X67.1
G1 X67.3636 Y126.3636
G1 X67.1 Y126.1
G1 Y97.9
G1 X67.3636 Y97.6364
G1 X67.1 Y97.9
G1 X53.9
G1 X53.6364 Y97.6364
G0 Z3.0
G0 X74.6364
G0 Z1.0
G1 F300.0 Z-1.1
G1 F800.0 X74.9 Y97.9
G1 Y126.1
G1 X74.6364 Y126.3636
G1 X74.9 Y126.1
G1 X88.1
G1 X88.3636 Y126.3636
G1 X88.1 Y126.1
G1 Y97.9
G1 X88.3636 Y97.6364
G1 X88.1 Y97.9
G1 X74.9
G1 X74.6364 Y97.6364
G0 Z3.0
G0 X95.6364
G0 Z1.0
G1 F300.0 Z-1.1
G1 F800.0 X95.9 Y97.9
G1 Y126.1
G1 X95.6364 Y126.3636
G1 X95.9 Y126.1
G1 X109.1
G1 X109.3636 Y126.3636
G1 X109.1 Y126.1
G1 Y97.9
G1 X109.3636 Y97.6364
G1 X109.1 Y97.9
G1 X95.9
G1 X95.6364 Y97.6364
G0 Z3.0
G0 X116.6364
G0 Z1.0
G1 F300.0 Z-1.1
G1 F800.0 X116.9 Y97.9
G1 Y126.1
G1 X116.6364 Y126.3636
G1 X116.9 Y126.1
G1 X130.1
G1 X130.3636 Y126.3636
G1 X130.1 Y126.1
G1 Y97.9
G1 X130.3636 Y97.6364
G1 X130.1 Y97.9
G1 X116.9
G1 X116.6364 Y97.6364
G0 Z3.0
G0 X137.6364
G0 Z1.0
G1 F300.0 Z-1.1
G1 F800.0 X137.9 Y97.9
G1 Y126.1
G1 X137.6364 Y126.3636
G1 X137.9 Y126.1
G1 X151.1
G1 X151.3636 Y126.3636
G1 X151.1 Y126.1
G1 Y97.9
G1 X151.3636 Y97.6364
G1 X151.1 Y97.9
G1 X137.9
G1 X137.6364 Y97.6364
G0 Z3.0
G0 X158.6364
G0 Z1.0
G1 F300.0 Z-1.1
G1 F800.0 X158.9 Y97.9
G1 Y126.1
G1 X158.6364 Y126.3636
G1 X158.9 Y126.1
G1 X172.1
G1 X172.3636 Y126.3636
G1 X172.1 Y126.1
G1 Y97.9
G1 X172.3636 Y97.6364
G1 X172.1 Y97.9
G1 X158.9
G1 X158.6364 Y97.6364
G0 Z3.0
G0 X179.6364
G0 Z1.0
G1 F300.0 Z-1.1
G1 F800.0 X179.9 Y97.9
G1 Y126.1
G1 X179.6364 Y126.3636
G1 X179.9 Y126.1
G1 X193.1
G1 X193.3636 Y126.3636
G1 X193.1 Y126.1
G1 Y97.9
G1 X193.3636 Y97.6364
G1 X193.1 Y97.9
G1 X179.9
G1 X179.6364 Y97.6364
G0 Z3.0
G0 X200.6364
G0 Z1.0
G1 F300.0 Z-1.1
G1 F800.0 X200.9 Y97.9
G1 Y126.1
G1 X200.6364 Y126.3636
G1 X200.9 Y126.1
G1 X214.1
G1 X214.3636 Y126.3636
G1 X214.1 Y126.1
G1 Y97.9
G1 X214.3636 Y97.6364
G1 X214.1 Y97.9
G1 X200.9
G1 X200.6364 Y97.6364
G0 Z3.0
G0 X221.6364
G0 Z1.0
G1 F300.0 Z-1.1
G1 F800.0 X221.9 Y97.9
G1 Y126.1
G1 X221.6364 Y126.3636
G1 X221.9 Y126.1
G1 X235.1
G1 X235.3636 Y126.3636
G1 X235.1 Y126.1
G1 Y97.9
G1 X235.3636 Y97.6364
G1 X235.1 Y97.9
G1 X221.9
G1 X221.6364 Y97.6364
G0 Z3.0
G0 X242.6364
G0 Z1.0
G1 F300.0 Z-1.1
G1 F800.0 X242.9 Y97.9
G1 Y126.1
G1 X242.6364 Y126.3636
G1 X242.9 Y126.1
G1 X256.1
G1 X256.3636 Y126.3636
G1 X256.1 Y126.1
G1 Y97.9
G1 X256.3636 Y97.6364
G1 X256.1 Y97.9
G1 X242.9
G1 X242.6364 Y97.6364
G0 Z3.0
G0 Y133.6364
G0 Z1.0
G1 F300.0 Z-1.1
G1 F800.0 X242.9 Y133.9
G1 Y162.1
G1 X242.6364 Y162.3636
G1 X242.9 Y162.1
G1 X256.1
G1 X256.3636 Y162.3636
G1 X256.1 Y162.1
G1 Y133.9
G1 X256.3636 Y133.6364
G1 X256.1 Y133.9
G1 X242.9
G1 X242.6364 Y133.6364
G0 Z3.0
G0 X235.3636
G0 Z1.0
G1 F300.0 Z-1.1
G1 F800.0 X235.1 Y133.9
G1 X221.9
G1 X221.6364 Y133.6364
G1 X221.9 Y133.9
G1 Y162.1
G1 X221.6364 Y162.3636
G1 X221.9 Y162.1
G1 X235.1
G1 X235.3636 Y162.3636
G1 X235.1 Y162.1
G1 Y133.9
G1 X235.3636 Y133.6364
G0 Z3.0
G0 X214.3636
G0 Z1.0
G1 F300.0 Z-1.1
G1 F800.0 X214.1 Y133.9
G1 X200.9
G1 X200.6364 Y133.6364
G1 X200.9 Y133.9
G1 Y162.1
G1 X200.6364 Y162.3636
G1 X200.9 Y162.1
G1 X214.1
G1 X214.3636 Y162.3636
G1 X214.1 Y162.1
G1 Y133.9
G1 X214.3636 Y133.6364
G0 Z3.0
G0 X193.3636
G0 Z1.0
G1 F300.0 Z-1.1
G1 F800.0 X193.1 Y133.9
G1 X179.9
G1 X179.6364 Y133.6364
G1 X179.9 Y133.9
G1 Y162.1
G1 X179.6364 Y162.3636
G1 X179.9 Y162.1
G1 X193.1
G1 X193.3636 Y162.3636
G1 X193.1 Y162.1
G1 Y133.9
G1 X193.3636 Y133.6364
G0 Z3.0
G0 X172.3636
G0 Z1.0
G1 F300.0 Z-1.1
G1 F800.0 X172.1 Y133.9
G1 X158.9
G1 X158.6364 Y133.6364
G1 X158.9 Y133.9
G1 Y162.1
G1 X158.6364 Y162.3636
G1 X158.9 Y162.1
G1 X172.1
G1 X172.3636 Y162.3636
G1 X172.1 Y162.1
G1 Y133.9
G1 X172.3636 Y133.6364
G0 Z3.0
G0 X151.3636
G0 Z1.0
G1 F300.0 Z-1.1
G1 F800.0 X151.1 Y133.9
G1 X137.9
G1 X137.6364 Y133.6364
G1 X137.9 Y133.9
G1 Y162.1
G1 X137.6364 Y162.3636
G1 X137.9 Y162.1
G1 X151.1
G1 X151.3636 Y162.3636
G1 X151.1 Y162.1
G1 Y133.9
G1 X151.3636 Y133.6364
G0 Z3.0
G0 X130.3636
G0 Z1.0
G1 F300.0 Z-1.1
G1 F800.0 X130.1 Y133.9
G1 X116.9
G1 X116.6364 Y133.6364
G1 X116.9 Y133.9
G1 Y162.1
G1 X116.6364 Y162.3636
G1 X116.9 Y162.1
G1 X130.1
G1 X130.3636 Y162.3636
G1 X130.1 Y162.1
G1 Y133.9
G1 X130.3636 Y133.6364
G0 Z3.0
G0 X109.3636
G0 Z1.0
G1 F300.0 Z-1.1
G1 F800.0 X109.1 Y133.9
G1 X95.9
G1 X95.6364 Y133.6364
G1 X95.9 Y133.9
G1 Y162.1
G1 X95.6364 Y162.3636
G1 X95.9 Y162.1
G1 X109.1
G1 X109.3636 Y162.3636
G1 X109.1 Y162.1
G1 Y133.9
G1 X109.3636 Y133.6364
G0 Z3.0
G0 X88.3636
G0 Z1.0
G1 F300.0 Z-1.1
G1 F800.0 X88.1 Y133.9
G1 X74.9
G1 X74.6364 Y133.6364
G1 X74.9 Y133.9
G1 Y162.1
G1 X74.6364 Y162.3636
G1 X74.9 Y162.1
G1 X88.1
G1 X88.3636 Y162.3636
G1 X88.1 Y162.1
G1 Y133.9
G1 X88.3636 Y133.6364
G0 Z3.0
G0 X67.3636
G0 Z1.0
G1 F300.0 Z-1.1
G1 F800.0 X67.1 Y133.9
G1 X53.9
G1 X53.6364 Y133.6364
G1 X53.9 Y133.9
G1 Y162.1
G1 X53.6364 Y162.3636
G1 X53.9 Y162.1
G1 X67.1
G1 X67.3636 Y162.3636
G1 X67.1 Y162.1
G1 Y133.9
G1 X67.3636 Y133.6364
G0 Z3.0
G0 X46.3636
G0 Z1.0
G1 F300.0 Z-1.1
G1 F800.0 X46.1 Y133.9
G1 X32.9
G1 X32.6364 Y133.6364
G1 X32.9 Y133.9
G1 Y162.1
G1 X32.6364 Y162.3636
G1 X32.9 Y162.1
G1 X46.1
G1 X46.3636 Y162.3636
G1 X46.1 Y162.1
G1 Y133.9
G1 X46.3636 Y133.6364
G0 Z3.0
G0 Y169.6364
G0 Z1.0
G1 F300.0 Z-1.1
G1 F800.0 X46.1 Y169.9
G1 X32.9
G1 X32.6364 Y169.6364
G1 X32.9 Y169.9
G1 Y198.1
G1 X32.6364 Y198.3636
G1 X32.9 Y198.1
G1 X46.1
G1 X46.3636 Y198.3636
G1 X46.1 Y198.1
G1 Y169.9
G1 X46.3636 Y169.6364
G0 Z3.0
G0 X53.6364
G0 Z1.0
G1 F300.0 Z-1.1
G1 F800.0 X53.9 Y169.9
G1 Y198.1
G1 X53.6364 Y198.3636
G1 X53.9 Y198.1
G1 X67.1
G1 X67.3636 Y198.3636
G1 X67.1 Y198.1
G1 Y169.9
G1 X67.3636 Y169.6364
G1 X67.1 Y169.9
G1 X53.9
G1 X53.6364 Y169.6364
G0 Z3.0
G0 X74.6364
G0 Z1.0
G1 F300.0 Z-1.1
G1 F800.0 X74.9 Y169.9
G1 Y198.1
G1 X74.6364 Y198.3636
G1 X74.9 Y198.1
G1 X88.1
G1 X88.3636 Y198.3636
G1 X88.1 Y198.1
G1 Y169.9
G1 X88.3636 Y169.6364
G1 X88.1 Y169.9
G1 X74.9
G1 X74.6364 Y169.6364
G0 Z3.0
G0 X95.6364
G0 Z1.0
G1 F300.0 Z-1.1
G1 F800.0 X95.9 Y169.9
G1 Y198.1
G1 X95.6364 Y198.3636
G1 X95.9 Y198.1
G1 X109.1
G1 X109.3636 Y198.3636
G1 X109.1 Y198.1
G1 Y169.9
G1 X109.3636 Y169.6364
G1 X109.1 Y169.9
G1 X95.9
G1 X95.6364 Y169.6364
G0 Z3.0
G0 X116.6364
G0 Z1.0
G1 F300.0 Z-1.1
G1 F800.0 X116.9 Y169.9
G1 Y198.1
G1 X116.6364 Y198.3636
G1 X116.9 Y198.1
G1 X130.1
G1 X130.3636 Y198.3636
G1 X130.1 Y198.1
G1 Y169.9
G1 X130.3636 Y169.6364
G1 X130.1 Y169.9
G1 X116.9
G1 X116.6364 Y169.6364
G0 Z3.0
G0 X137.6364
G0 Z1.0
G1 F300.0 Z-1.1
G1 F800.0 X137.9 Y169.9
G1 Y198.1
G1 X137.6364 Y198.3636
G1 X137.9 Y198.1
G1 X151.1
G1 X151.3636 Y198.3636
G1 X151.1 Y198.1
G1 Y169.9
G1 X151.3636 Y169.6364
G1 X151.1 Y169.9
G1 X137.9
G1 X137.6364 Y169.6364
G0 Z3.0
G0 X158.6364
G0 Z1.0
G1 F300.0 Z-1.1
G1 F800.0 X158.9 Y169.9
G1 Y198.1
G1 X158.6364 Y198.3636
G1 X158.9 Y198.1
G1 X172.1
G1 X172.3636 Y198.3636
G1 X172.1 Y198.1
G1 Y169.9
G1 X172.3636 Y169.6364
G1 X172.1 Y169.9
G1 X158.9
G1 X158.6364 Y169.6364
G0 Z3.0
G0 X179.6364
G0 Z1.0
G1 F300.0 Z-1.1
G1 F800.0 X179.9 Y169.9
G1 Y198.1
G1 X179.6364 Y198.3636
G1 X179.9 Y198.1
G1 X193.1
G1 X193.3636 Y198.3636
G1 X193.1 Y198.1
G1 Y169.9
G1 X193.3636 Y169.6364
G1 X193.1 Y169.9
G1 X179.9
G1 X179.6364 Y169.6364
G0 Z3.0
G0 X200.6364
G0 Z1.0
G1 F300.0 Z-1.1
G1 F800.0 X200.9 Y169.9
G1 Y198.1
G1 X200.6364 Y198.3636
G1 X200.9 Y198.1
G1 X214.1
G1 X214.3636 Y198.3636
G1 X214.1 Y198.1
G1 Y169.9
G1 X214.3636 Y169.6364
G1 X214.1 Y169.9
G1 X200.9
G1 X200.6364 Y169.6364
G0 Z3.0
G0 X221.6364
G0 Z1.0
G1 F300.0 Z-1.1
G1 F800.0 X221.9 Y169.9
G1 Y198.1
G1 X221.6364 Y198.3636
G1 X221.9 Y198.1
G1 X235.1
G1 X235.3636 Y198.3636
G1 X235.1 Y198.1
G1 Y169.9
G1 X235.3636 Y169.6364
G1 X235.1 Y169.9
G1 X221.9
G1 X221.6364 Y169.6364
G0 Z3.0
G0 X242.6364
G0 Z1.0
G1 F300.0 Z-1.1
G1 F800.0 X242.9 Y169.9
G1 Y198.1
G1 X242.6364 Y198.3636
G1 X242.9 Y198.1
G1 X256.1
G1 X256.3636 Y198.3636
G1 X256.1 Y198.1
G1 Y169.9
G1 X256.3636 Y169.6364
G1 X256.1 Y169.9
G1 X242.9
G1 X242.6364 Y169.6364
G1 F300.0 Z-2.2
G1 F800.0 X242.9 Y169.9
G1 Y198.1
G1 X242.6364 Y198.3636
G1 X242.9 Y198.1
G1 X256.1
G1 X256.3636 Y198.3636
G1 X256.1 Y198.1
G1 Y169.9
G1 X256.3636 Y169.6364
G1 X256.1 Y169.9
G1 X242.9
G1 X242.6364 Y169.6364
G0 Z3.0
G0 Y162.3636
G0 Z-0.1
G1 F300.0 Z-2.2
G1 F800.0 X242.9 Y162.1
G1 X256.1
G1 X256.3636 Y162.3636
G1 X256.1 Y162.1
G1 Y133.9
G1 X256.3636 Y133.6364
G1 X256.1 Y133.9
G1 X242.9
G1 X242.6364 Y133.6364
G1 X242.9 Y133.9
G1 Y162.1
G1 X242.6364 Y162.3636
G0 Z3.0
G0 X235.3636
G0 Z-0.1
G1 F300.0 Z-2.2
G1 F800.0 X235.1 Y162.1
G1 Y133.9
G1 X235.3636 Y133.6364
G1 X235.1 Y133.9
G1 X221.9
G1 X221.6364 Y133.6364
G1 X221.9 Y133.9
G1 Y162.1
G1 X221.6364 Y162.3636
G1 X221.9 Y162.1
G1 X235.1
G1 X235.3636 Y162.3636
G0 Z3.0
G0 Y169.6364
G0 Z-0.1
G1 F300.0 Z-2.2
G1 F800.0 X235.1 Y169.9
G1 X221.9
G1 X221.6364 Y169.6364
G1 X221.9 Y169.9
G1 Y198.1
G1 X221.6364 Y198.3636
G1 X221.9 Y198.1
G1 X235.1
G1 X235.3636 Y198.3636
G1 X235.1 Y198.1
G1 Y169.9
G1 X235.3636 Y169.6364
G0 Z3.0
G0 X214.3636
G0 Z-0.1
G1 F300.0 Z-2.2
G1 F800.0 X214.1 Y169.9
G1 X200.9
G1 X200.6364 Y169.6364
G1 X200.9 Y169.9
G1 Y198.1
G1 X200.6364 Y198.3636
G1 X200.9 Y198.1
G1 X214.1
G1 X214.3636 Y198.3636
G1 X214.1 Y198.1
G1 Y169.9
G1 X214.3636 Y169.6364
G0 Z3.0
G0 Y162.3636
G0 Z-0.1
G1 F300.0 Z-2.2
G1 F800.0 X214.1 Y162.1
G1 Y133.9
G1 X214.3636 Y133.6364
G1 X214.1 Y133.9
G1 X200.9
G1 X200.6364 Y133.6364
G1 X200.9 Y133.9
G1 Y162.1
G1 X200.6364 Y162.3636
G1 X200.9 Y162.1
G1 X214.1
G1 X214.3636 Y162.3636
G0 Z3.0
G0 X193.3636
G0 Z-0.1
G1 F300.0 Z-2.2
G1 F800.0 X193.1 Y162.1
G1 Y133.9
G1 X193.3636 Y133.6364
G1 X193.1 Y133.9
G1 X179.9
G1 X179.6364 Y133.6364
G1 X179.9 Y133.9
G1 Y162.1
G1 X179.6364 Y162.3636
G1 X179.9 Y162.1
G1 X193.1
G1 X193.3636 Y162.3636
G0 Z3.0
G0 Y169.6364
G0 Z-0.1
G1 F300.0 Z-2.2
G1 F800.0 X193.1 Y169.9
G1 X179.9
G1 X179.6364 Y169.6364
G1 X179.9 Y169.9
G1 Y198.1
G1 X179.6364 Y198.3636
G1 X179.9 Y198.1
G1 X193.1
G1 X193.3636 Y198.3636
G1 X193.1 Y198.1
G1 Y169.9
G1 X193.3636 Y169.6364
G0 Z3.0
G0 X172.3636
G0 Z-0.1
G1 F300.0 Z-2.2
G1 F800.0 X172.1 Y169.9
G1 X158.9
G1 X158.6364 Y169.6364
G1 X158.9 Y169.9
G1 Y198.1
G1 X158.6364 Y198.3636
G1 X158.9 Y198.1
G1 X172.1
G1 X172.3636 Y198.3636
G1 X172.1 Y198.1
G1 Y169.9
G1 X172.3636 Y169.6364
G0 Z3.0
G0 Y162.3636
G0 Z-0.1
G1 F300.0 Z-2.2
G1 F800.0 X172.1 Y162.1
G1 Y133.9
G1 X172.3636 Y133.6364
G1 X172.1 Y133.9
G1 X158.9
G1 X158.6364 Y133.6364
G1 X158.9 Y133.9
G1 Y162.1
G1 X158.6364 Y162.3636
G1 X158.9 Y162.1
G1 X172.1
G1 X172.3636 Y162.3636
G0 Z3.0
G0 X151.3636
G0 Z-0.1
G1 F300.0 Z-2.2
G1 F800.0 X151.1 Y162.1
G1 Y133.9
G1 X151.3636 Y133.6364
G1 X151.1 Y133.9
G1 X137.9
G1 X137.6364 Y133.6364
G1 X137.9 Y133.9
G1 Y162.1
G1 X137.6364 Y162.3636
G1 X137.9 Y162.1
G1 X151.1
G1 X151.3636 Y162.3636
G0 Z3.0
G0 Y169.6364
G0 Z-0.1
G1 F300.0 Z-2.2
G1 F800.0 X151.1 Y169.9
G1 X137.9
G1 X137.6364 Y169.6364
G1 X137.9 Y169.9
G1 Y198.1
G1 X137.6364 Y198.3636
G1 X137.9 Y198.1
G1 X151.1
G1 X151.3636 Y198.3636
G1 X151.1 Y198.1
G1 Y169.9
G1 X151.3636 Y169.6364
G0 Z3.0
G0 X130.3636
G0 Z-0.1
G1 F300.0 Z-2.2
G1 F800.0 X130.1 Y169.9
G1 X116.9
G1 X116.6364 Y169.6364
G1 X116.9 Y169.9
G1 Y198.1
G1 X116.6364 Y198.3636
G1 X116.9 Y198.1
G1 X130.1
G1 X130.3636 Y198.3636
G1 X130.1 Y198.1
G1 Y169.9
G1 X130.3636 Y169.6364
G0 Z3.0
G0 Y162.3636
G0 Z-0.1
G1 F300.0 Z-2.2
G1 F800.0 X130.1 Y162.1
G1 Y133.9
G1 X130.3636 Y133.6364
G1 X130.1 Y133.9
G1 X116.9
G1 X116.6364 Y133.6364
G1 X116.9 Y133.9
G1 Y162.1
G1 X116.6364 Y162.3636
G1 X116.9 Y162.1
G1 X130.1
G1 X130.3636 Y162.3636
G0 Z3.0
G0 X109.3636
G0 Z-0.1
G1 F300.0 Z-2.2
G1 F800.0 X109.1 Y162.1
G1 Y133.9
G1 X109.3636 Y133.6364
G1 X109.1 Y133.9
G1 X95.9
G1 X95.6364 Y133.6364
G1 X95.9 Y133.9
G1 Y162.1
G1 X95.6364 Y162.3636
G1 X95.9 Y162.1
G1 X109.1
G1 X109.3636 Y162.3636
G0 Z3.0
G0 Y169.6364
G0 Z-0.1
G1 F300.0 Z-2.2
G1 F800.0 X109.1 Y169.9
G1 X95.9
G1 X95.6364 Y169.6364
G1 X95.9 Y169.9
G1 Y198.1
G1 X95.6364 Y198.3636
G1 X95.9 Y198.1
G1 X109.1
G1 X109.3636 Y198.3636
G1 X109.1 Y198.1
G1 Y169.9
G1 X109.3636 Y169.6364
G0 Z3.0
G0 X88.3636
G0 Z-0.1
G1 F300.0 Z-2.2
G1 F800.0 X88.1 Y169.9
G1 X74.9
G1 X74.6364 Y169.6364
G1 X74.9 Y169.9
G1 Y198.1
G1 X74.6364 Y198.3636
G1 X74.9 Y198.1
G1 X88.1
G1 X88.3636 Y198.3636
G1 X88.1 Y198.1
G1 Y169.9
G1 X88.3636 Y169.6364
G0 Z3.0
G0 Y162.3636
G0 Z-0.1
G1 F300.0 Z-2.2
G1 F800.0 X88.1 Y162.1
G1 Y133.9
G1 X88.3636 Y133.6364
G1 X88.1 Y133.9
G1 X74.9
G1 X74.6364 Y133.6364
G1 X74.9 Y133.9
G1 Y162.1
G1 X74.6364 Y162.3636
G1 X74.9 Y162.1
G1 X88.1
G1 X88.3636 Y162.3636
G0 Z3.0
G0 X67.3636
G0 Z-0.1
G1 F300.0 Z-2.2
G1 F800.0 X67.1 Y162.1
G1 Y133.9
G1 X67.3636 Y133.6364
G1 X67.1 Y133.9
G1 X53.9
G1 X53.6364 Y133.6364
G1 X53.9 Y133.9
G1 Y162.1
G1 X53.6364 Y162.3636
G1 X53.9 Y162.1
G1 X67.1
G1 X67.3636 Y162.3636
G0 Z3.0
G0 Y169.6364
G0 Z-0.1
G1 F300.0 Z-2.2
G1 F800.0 X67.1 Y169.9
G1 X53.9
G1 X53.6364 Y169.6364
G1 X53.9 Y169.9
G1 Y198.1
G1 X53.6364 Y198.3636
G1 X53.9 Y198.1
G1 X67.1
G1 X67.3636 Y198.3636
G1 X67.1 Y198.1
G1 Y169.9
G1 X67.3636 Y169.6364
G0 Z3.0
G0 X46.3636
G0 Z-0.1
G1 F300.0 Z-2.2
G1 F800.0 X46.1 Y169.9
G1 X32.9
G1 X32.6364 Y169.6364
G1 X32.9 Y169.9
G1 Y198.1
G1 X32.6364 Y198.3636
G1 X32.9 Y198.1
G1 X46.1
G1 X46.3636 Y198.3636
G1 X46.1 Y198.1
G1 Y169.9
G1 X46.3636 Y169.6364
G0 Z3.0
G0 Y162.3636
G0 Z-0.1
G1 F300.0 Z-2.2
G1 F800.0 X46.1 Y162.1
G1 Y133.9
G1 X46.3636 Y133.6364
G1 X46.1 Y133.9
G1 X32.9
G1 X32.6364 Y133.6364
G1 X32.9 Y133.9
G1 Y162.1
G1 X32.6364 Y162.3636
G1 X32.9 Y162.1
G1 X46.1
G1 X46.3636 Y162.3636
G0 Z3.0
G0 Y126.3636
G0 Z-0.1
G1 F300.0 Z-2.2
G1 F800.0 X46.1 Y126.1
G1 Y97.9
G1 X46.3636 Y97.6364
G1 X46.1 Y97.9
G1 X32.9
G1 X32.6364 Y97.6364
G1 X32.9 Y97.9
G1 Y126.1
G1 X32.6364 Y126.3636
G1 X32.9 Y126.1
G1 X46.1
G1 X46.3636 Y126.3636
G0 Z3.0
G0 X53.6364
G0 Z-0.1
G1 F300.0 Z-2.2
G1 F800.0 X53.9 Y126.1
G1 X67.1
G1 X67.3636 Y126.3636
G1 X67.1 Y126.1
G1 Y97.9
G1 X67.3636 Y97.6364
G1 X67.1 Y97.9
G1 X53.9
G1 X53.6364 Y97.6364
G1 X53.9 Y97.9
G1 Y126.1
G1 X53.6364 Y126.3636
G0 Z3.0
G0 X74.6364
G0 Z-0.1
G1 F300.0 Z-2.2
G1 F800.0 X74.9 Y126.1
G1 X88.1
G1 X88.3636 Y126.3636
G1 X88.1 Y126.1
G1 Y97.9
G1 X88.3636 Y97.6364
G1 X88.1 Y97.9
G1 X74.9
G1 X74.6364 Y97.6364
G1 X74.9 Y97.9
G1 Y126.1
G1 X74.6364 Y126.3636
G0 Z3.0
G0 X95.6364
G0 Z-0.1
G1 F300.0 Z-2.2
G1 F800.0 X95.9 Y126.1
G1 X109.1
G1 X109.3636 Y126.3636
G1 X109.1 Y126.1
G1 Y97.9
G1 X109.3636 Y97.6364
G1 X109.1 Y97.9
G1 X95.9
G1 X95.6364 Y97.6364
G1 X95.9 Y97.9
G1 Y126.1
G1 X95.6364 Y126.3636
G0 Z3.0
G0 X116.6364
G0 Z-0.1
G1 F300.0 Z-2.2
G1 F800.0 X116.9 Y126.1
G1 X130.1
G1 X130.3636 Y126.3636
G1 X130.1 Y126.1
G1 Y97.9
G1 X130.3636 Y97.6364
G1 X130.1 Y97.9
G1 X116.9
G1 X116.6364 Y97.6364
G1 X116.9 Y97.9
G1 Y126.1
G1 X116.6364 Y126.3636
G0 Z3.0
G0 X137.6364
G0 Z-0.1
G1 F300.0 Z-2.2
G1 F800.0 X137.9 Y126.1
G1 X151.1
G1 X151.3636 Y126.3636
G1 X151.1 Y126.1
G1 Y97.9
G1 X151.3636 Y97.6364
G1 X151.1 Y97.9
G1 X137.9
G1 X137.6364 Y97.6364
G1 X137.9 Y97.9
G1 Y126.1
G1 X137.6364 Y126.3636
G0 Z3.0
G0 X158.6364
G0 Z-0.1
G1 F300.0 Z-2.2
G1 F800.0 X158.9 Y126.1
G1 X172.1
G1 X172.3636 Y126.3636
G1 X172.1 Y126.1
G1 Y97.9
G1 X172.3636 Y97.6364
G1 X172.1 Y97.9
G1 X158.9
G1 X158.6364 Y97.6364
G1 X158.9 Y97.9
G1 Y126.1
G1 X158.6364 Y126.3636
G0 Z3.0
G0 X179.6364
G0 Z-0.1
G1 F300.0 Z-2.2
G1 F800.0 X179.9 Y126.1
G1 X193.1
G1 X193.3636 Y126.3636
G1 X193.1 Y126.1
G1 Y97.9
G1 X193.3636 Y97.6364
G1 X193.1 Y97.9
G1 X179.9
G1 X179.6364 Y97.6364
G1 X179.9 Y97.9
G1 Y126.1
G1 X179.6364 Y126.3636
G0 Z3.0
G0 X200.6364
G0 Z-0.1
G1 F300.0 Z-2.2
G1 F800.0 X200.9 Y126.1
G1 X214.1
G1 X214.3636 Y126.3636
G1 X214.1 Y126.1
G1 Y97.9
G1 X214.3636 Y97.6364
G1 X214.1 Y97.9
G1 X200.9
G1 X200.6364 Y97.6364
G1 X200.9 Y97.9
G1 Y126.1
G1 X200.6364 Y126.3636
G0 Z3.0
G0 X221.6364
G0 Z-0.1
G1 F300.0 Z-2.2
G1 F800.0 X221.9 Y126.1
G1 X235.1
G1 X235.3636 Y126.3636
G1 X235.1 Y126.1
G1 Y97.9
G1 X235.3636 Y97.6364
G1 X235.1 Y97.9
G1 X221.9
G1 X221.6364 Y97.6364
G1 X221.9 Y97.9
G1 Y126.1
G1 X221.6364 Y126.3636
G0 Z3.0
G0 X242.6364
G0 Z-0.1
G1 F300.0 Z-2.2
G1 F800.0 X242.9 Y126.1
G1 X256.1
G1 X256.3636 Y126.3636
G1 X256.1 Y126.1
G1 Y97.9
G1 X256.3636 Y97.6364
G1 X256.1 Y97.9
G1 X242.9
G1 X242.6364 Y97.6364
G1 X242.9 Y97.9
G1 Y126.1
G1 X242.6364 Y126.3636
G0 Z3.0
G0 Y90.3636
G0 Z-0.1
G1 F300.0 Z-2.2
G1 F800.0 X242.9 Y90.1
G1 X256.1
G1 X256.3636 Y90.3636
G1 X256.1 Y90.1
G1 Y61.9
G1 X256.3636 Y61.6364
G1 X256.1 Y61.9
G1 X242.9
G1 X242.6364 Y61.6364
G1 X242.9 Y61.9
G1 Y90.1
G1 X242.6364 Y90.3636
G0 Z3.0
G0 X235.3636
G0 Z-0.1
G1 F300.0 Z-2.2
G1 F800.0 X235.1 Y90.1
G1 Y61.9
G1 X235.3636 Y61.6364
G1 X235.1 Y61.9
G1 X221.9
G1 X221.6364 Y61.6364
G1 X221.9 Y61.9
G1 Y90.1
G1 X221.6364 Y90.3636
G1 X221.9 Y90.1
G1 X235.1
G1 X235.3636 Y90.3636
G0 Z3.0
G0 X214.3636
G0 Z-0.1
G1 F300.0 Z-2.2
G1 F800.0 X214.1 Y90.1
G1 Y61.9
G1 X214.3636 Y61.6364
G1 X214.1 Y61.9
G1 X200.9
G1 X200.6364 Y61.6364
G1 X200.9 Y61.9
G1 Y90.1
G1 X200.6364 Y90.3636
G1 X200.9 Y90.1
G1 X214.1
G1 X214.3636 Y90.3636
G0 Z3.0
G0 X193.3636
G0 Z-0.1
G1 F300.0 Z-2.2
G1 F800.0 X193.1 Y90.1
G1 Y61.9
G1 X193.3636 Y61.6364
G1 X193.1 Y61.9
G1 X179.9
G1 X179.6364 Y61.6364
G1 X179.9 Y61.9
G1 Y90.1
G1 X179.6364 Y90.3636
G1 X179.9 Y90.1
G1 X193.1
G1 X193.3636 Y90.3636
G0 Z3.0
G0 X172.3636
G0 Z-0.1
G1 F300.0 Z-2.2
G1 F800.0 X172.1 Y90.1
G1 Y61.9
G1 X172.3636 Y61.6364
G1 X172.1 Y61.9
G1 X158.9
G1 X158.6364 Y61.6364
G1 X158.9 Y61.9
G1 Y90.1
G1 X158.6364 Y90.3636
G1 X158.9 Y90.1
G1 X172.1
G1 X172.3636 Y90.3636
G0 Z3.0
G0 X151.3636
G0 Z-0.1
G1 F300.0 Z-2.2
G1 F800.0 X151.1 Y90.1
G1 Y61.9
G1 X151.3636 Y61.6364
G1 X151.1 Y61.9
G1 X137.9
G1 X137.6364 Y61.6364
G1 X137.9 Y61.9
G1 Y90.1
G1 X137.6364 Y90.3636
G1 X137.9 Y90.1
G1 X151.1
G1 X151.3636 Y90.3636
G0 Z3.0
G0 X130.3636
G0 Z-0.1
G1 F300.0 Z-2.2
G1 F800.0 X130.1 Y90.1
G1 Y61.9
G1 X130.3636 Y61.6364
G1 X130.1 Y61.9
G1 X116.9
G1 X116.6364 Y61.6364
G1 X116.9 Y61.9
G1 Y90.1
G1 X116.6364 Y90.3636
G1 X116.9 Y90.1
G1 X130.1
G1 X130.3636 Y90.3636
G0 Z3.0
G0 X109.3636
G0 Z-0.1
G1 F300.0 Z-2.2
G1 F800.0 X109.1 Y90.1
G1 Y61.9
G1 X109.3636 Y61.6364
G1 X109.1 Y61.9
G1 X95.9
G1 X95.6364 Y61.6364
G1 X95.9 Y61.9
G1 Y90.1
G1 X95.6364 Y90.3636
G1 X95.9 Y90.1
G1 X109.1
G1 X109.3636 Y90.3636
G0 Z3.0
G0 X88.3636
G0 Z-0.1
G1 F300.0 Z-2.2
G1 F800.0 X88.1 Y90.1
G1 Y61.9
G1 X88.3636 Y61.6364
G1 X88.1 Y61.9
G1 X74.9
G1 X74.6364 Y61.6364
G1 X74.9 Y61.9
G1 Y90.1
G1 X74.6364 Y90.3636
G1 X74.9 Y90.1
G1 X88.1
G1 X88.3636 Y90.3636
G0 Z3.0
G0 X67.3636
G0 Z-0.1
G1 F300.0 Z-2.2
G1 F800.0 X67.1 Y90.1
G1 Y61.9
G1 X67.3636 Y61.6364
G1 X67.1 Y61.9
G1 X53.9
G1 X53.6364 Y61.6364
G1 X53.9 Y61.9
G1 Y90.1
G1 X53.6364 Y90.3636
G1 X53.9 Y90.1
G1 X67.1
G1 X67.3636 Y90.3636
G0 Z3.0
G0 X46.3636
G0 Z-0.1
G1 F300.0 Z-2.2
G1 F800.0 X46.1 Y90.1
G1 Y61.9
G1 X46.3636 Y61.6364
G1 X46.1 Y61.9
G1 X32.9
G1 X32.6364 Y61.6364
G1 X32.9 Y61.9
G1 Y90.1
G1 X32.6364 Y90.3636
G1 X32.9 Y90.1
G1 X46.1
G1 X46.3636 Y90.3636
G0 Z3.0
G0 Y54.3636
G0 Z-0.1
G1 F300.0 Z-2.2
G1 F800.0 X46.1 Y54.1
G1 Y25.9
G1 X46.3636 Y25.6364
G1 X46.1 Y25.9
G1 X32.9
G1 X32.6364 Y25.6364
G1 X32.9 Y25.9
G1 Y54.1
G1 X32.6364 Y54.3636
G1 X32.9 Y54.1
G1 X46.1
G1 X46.3636 Y54.3636
G0 Z3.0
G0 X53.6364
G0 Z-0.1
G1 F300.0 Z-2.2
G1 F800.0 X53.9 Y54.1
G1 X67.1
G1 X67.3636 Y54.3636
G1 X67.1 Y54.1
G1 Y25.9
G1 X67.3636 Y25.6364
G1 X67.1 Y25.9
G1 X53.9
G1 X53.6364 Y25.6364
G1 X53.9 Y25.9
G1 Y54.1
G1 X53.6364 Y54.3636
G0 Z3.0
G0 X74.6364
G0 Z-0.1
G1 F300.0 Z-2.2
G1 F800.0 X74.9 Y54.1
G1 X88.1
G1 X88.3636 Y54.3636
G1 X88.1 Y54.1
G1 Y25.9
G1 X88.3636 Y25.6364
G1 X88.1 Y25.9
G1 X74.9
G1 X74.6364 Y25.6364
G1 X74.9 Y25.9
G1 Y54.1
G1 X74.6364 Y54.3636
G0 Z3.0
G0 X95.6364
G0 Z-0.1
G1 F300.0 Z-2.2
G1 F800.0 X95.9 Y54.1
G1 X109.1
G1 X109.3636 Y54.3636
G1 X109.1 Y54.1
G1 Y25.9
G1 X109.3636 Y25.6364
G1 X109.1 Y25.9
G1 X95.9
G1 X95.6364 Y25.6364
G1 X95.9 Y25.9
G1 Y54.1
G1 X95.6364 Y54.3636
G0 Z3.0
G0 X116.6364
G0 Z-0.1
G1 F300.0 Z-2.2
G1 F800.0 X116.9 Y54.1
G1 X130.1
G1 X130.3636 Y54.3636
G1 X130.1 Y54.1
G1 Y25.9
G1 X130.3636 Y25.6364
G1 X130.1 Y25.9
G1 X116.9
G1 X116.6364 Y25.6364
G1 X116.9 Y25.9
G1 Y54.1
G1 X116.6364 Y54.3636
G0 Z3.0
G0 X137.6364
G0 Z-0.1
G1 F300.0 Z-2.2
G1 F800.0 X137.9 Y54.1
G1 X151.1
G1 X151.3636 Y54.3636
G1 X151.1 Y54.1
G1 Y25.9
G1 X151.3636 Y25.6364
G1 X151.1 Y25.9
G1 X137.9
G1 X137.6364 Y25.6364
G1 X137.9 Y25.9
G1 Y54.1
G1 X137.6364 Y54.3636
G0 Z3.0
G0 X158.6364
G0 Z-0.1
G1 F300.0 Z-2.2
G1 F800.0 X158.9 Y54.1
G1 X172.1
G1 X172.3636 Y54.3636
G1 X172.1 Y54.1
G1 Y25.9
G1 X172.3636 Y25.6364
G1 X172.1 Y25.9
G1 X158.9
G1 X158.6364 Y25.6364
G1 X158.9 Y25.9
G1 Y54.1
G1 X158.6364 Y54.3636
G0 Z3.0
G0 X179.6364
G0 Z-0.1
G1 F300.0 Z-2.2
G1 F800.0 X179.9 Y54.1
G1 X193.1
G1 X193.3636 Y54.3636
G1 X193.1 Y54.1
G1 Y25.9
G1 X193.3636 Y25.6364
G1 X193.1 Y25.9
G1 X179.9
G1 X179.6364 Y25.6364
G1 X179.9 Y25.9
G1 Y54.1
G1 X179.6364 Y54.3636
G0 Z3.0
G0 X200.6364
G0 Z-0.1
G1 F300.0 Z-2.2
G1 F800.0 X200.9 Y54.1
G1 X214.1
G1 X214.3636 Y54.3636
G1 X214.1 Y54.1
G1 Y25.9
G1 X214.3636 Y25.6364
G1 X214.1 Y25.9
G1 X200.9
G1 X200.6364 Y25.6364
G1 X200.9 Y25.9
G1 Y54.1
G1 X200.6364 Y54.3636
G0 Z3.0
G0 X221.6364
G0 Z-0.1
G1 F300.0 Z-2.2
G1 F800.0 X221.9 Y54.1
G1 X235.1
G1 X235.3636 Y54.3636
G1 X235.1 Y54.1
G1 Y25.9
G1 X235.3636 Y25.6364
G1 X235.1 Y25.9
G1 X221.9
G1 X221.6364 Y25.6364
G1 X221.9 Y25.9
G1 Y54.1
G1 X221.6364 Y54.3636
G0 Z3.0
G0 X242.6364
G0 Z-0.1
G1 F300.0 Z-2.2
G1 F800.0 X242.9 Y54.1
G1 X256.1
G1 X256.3636 Y54.3636
G1 X256.1 Y54.1
G1 Y25.9
G1 X256.3636 Y25.6364
G1 X256.1 Y25.9
G1 X242.9
G1 X242.6364 Y25.6364
G1 X242.9 Y25.9
G1 Y54.1
G1 X242.6364 Y54.3636
G1 F300.0 Z-3.3
G1 F800.0 X242.9 Y54.1
G1 X256.1
G1 X256.3636 Y54.3636
G1 X256.1 Y54.1
G1 Y25.9
G1 X256.3636 Y25.6364
G1 X256.1 Y25.9
G1 X242.9
G1 X242.6364 Y25.6364
G1 X242.9 Y25.9
G1 Y54.1
G1 X242.6364 Y54.3636
G0 Z3.0
G0 Y61.6364
G0 Z-1.2
G1 F300.0 Z-3.3
G1 F800.0 X242.9 Y61.9
G1 Y90.1
G1 X242.6364 Y90.3636
G1 X242.9 Y90.1
G1 X256.1
G1 X256.3636 Y90.3636
G1 X256.1 Y90.1
G1 Y61.9
G1 X256.3636 Y61.6364
G1 X256.1 Y61.9
G1 X242.9
G1 X242.6364 Y61.6364
G0 Z3.0
G0 X235.3636
G0 Z-1.2
G1 F300.0 Z-3.3
G1 F800.0 X235.1 Y61.9
G1 X221.9
G1 X221.6364 Y61.6364
G1 X221.9 Y61.9
G1 Y90.1
G1 X221.6364 Y90.3636
G1 X221.9 Y90.1
G1 X235.1
G1 X235.3636 Y90.3636
G1 X235.1 Y90.1
G1 Y61.9
G1 X235.3636 Y61.6364
G0 Z3.0
G0 Y54.3636
G0 Z-1.2
G1 F300.0 Z-3.3
G1 F800.0 X235.1 Y54.1
G1 Y25.9
G1 X235.3636 Y25.6364
G1 X235.1 Y25.9
G1 X221.9
G1 X221.6364 Y25.6364
G1 X221.9 Y25.9
G1 Y54.1
G1 X221.6364 Y54.3636
G1 X221.9 Y54.1
G1 X235.1
G1 X235.3636 Y54.3636
G0 Z3.0
G0 X214.3636
G0 Z-1.2
G1 F300.0 Z-3.3
G1 F800.0 X214.1 Y54.1
G1 Y25.9
G1 X214.3636 Y25.6364
G1 X214.1 Y25.9
G1 X200.9
G1 X200.6364 Y25.6364
G1 X200.9 Y25.9
G1 Y54.1
G1 X200.6364 Y54.3636
G1 X200.9 Y54.1
G1 X214.1
G1 X214.3636 Y54.3636
G0 Z3.0
G0 Y61.6364
G0 Z-1.2
G1 F300.0 Z-3.3
G1 F800.0 X214.1 Y61.9
G1 X200.9
G1 X200.6364 Y61.6364
G1 X200.9 Y61.9
G1 Y90.1
G1 X200.6364 Y90.3636
G1 X200.9 Y90.1
G1 X214.1
G1 X214.3636 Y90.3636
G1 X214.1 Y90.1
G1 Y61.9
G1 X214.3636 Y61.6364
G0 Z3.0
G0 X193.3636
G0 Z-1.2
G1 F300.0 Z-3.3
G1 F800.0 X193.1 Y61.9
G1 X179.9
G1 X179.6364 Y61.6364
G1 X179.9 Y61.9
G1 Y90.1
G1 X179.6364 Y90.3636
G1 X179.9 Y90.1
G1 X193.1
G1 X193.3636 Y90.3636
G1 X193.1 Y90.1
G1 Y61.9
G1 X193.3636 Y61.6364
G0 Z3.0
G0 Y54.3636
G0 Z-1.2
G1 F300.0 Z-3.3
G1 F800.0 X193.1 Y54.1
G1 Y25.9
G1 X193.3636 Y25.6364
G1 X193.1 Y25.9
G1 X179.9
G1 X179.6364 Y25.6364
G1 X179.9 Y25.9
G1 Y54.1
G1 X179.6364 Y54.3636
G1 X179.9 Y54.1
G1 X193.1
G1 X193.3636 Y54.3636
G0 Z3.0
G0 X172.3636
G0 Z-1.2
G1 F300.0 Z-3.3
G1 F800.0 X172.1 Y54.1
G1 Y25.9
G1 X172.3636 Y25.6364
G1 X172.1 Y25.9
G1 X158.9
G1 X158.6364 Y25.6364
G1 X158.9 Y25.9
G1 Y54.1
G1 X158.6364 Y54.3636
G1 X158.9 Y54.1
G1 X172.1
G1 X172.3636 Y54.3636
G0 Z3.0
G0 Y61.6364
G0 Z-1.2
G1 F300.0 Z-3.3
G1 F800.0 X172.1 Y61.9
G1 X158.9
G1 X158.6364 Y61.6364
G1 X158.9 Y61.9
G1 Y90.1
G1 X158.6364 Y90.3636
G1 X158.9 Y90.1
G1 X172.1
G1 X172.3636 Y90.3636
G1 X172.1 Y90.1
G1 Y61.9
G1 X172.3636 Y61.6364
G0 Z3.0
G0 X151.3636
G0 Z-1.2
G1 F300.0 Z-3.3
G1 F800.0 X151.1 Y61.9
G1 X137.9
G1 X137.6364 Y61.6364
G1 X137.9 Y61.9
G1 Y90.1
G1 X137.6364 Y90.3636
G1 X137.9 Y90.1
G1 X151.1
G1 X151.3636 Y90.3636
G1 X151.1 Y90.1
G1 Y61.9
G1 X151.3636 Y61.6364
G0 Z3.0
G0 Y54.3636
G0 Z-1.2
G1 F300.0 Z-3.3
G1 F800.0 X151.1 Y54.1
G1 Y25.9
G1 X151.3636 Y25.6364
G1 X151.1 Y25.9
G1 X137.9
G1 X137.6364 Y25.6364
G1 X137.9 Y25.9
G1 Y54.1
G1 X137.6364 Y54.3636
G1 X137.9 Y54.1
G1 X151.1
G1 X151.3636 Y54.3636
G0 Z3.0
G0 X130.3636
G0 Z-1.2
G1 F300.0 Z-3.3
G1 F800.0 X130.1 Y54.1
G1 Y25.9
G1 X130.3636 Y25.6364
G1 X130.1 Y25.9
G1 X116.9
G1 X116.6364 Y25.6364
G1 X116.9 Y25.9
G1 Y54.1
G1 X116.6364 Y54.3636
G1 X116.9 Y54.1
G1 X130.1
G1 X130.3636 Y54.3636
G0 Z3.0
G0 Y61.6364
G0 Z-1.2
G1 F300.0 Z-3.3
G1 F800.0 X130.1 Y61.9
G1 X116.9
G1 X116.6364 Y61.6364
G1 X116.9 Y61.9
G1 Y90.1
G1 X116.6364 Y90.3636
G1 X116.9 Y90.1
G1 X130.1
G1 X130.3636 Y90.3636
G1 X130.1 Y90.1
G1 Y61.9
G1 X130.3636 Y61.6364
G0 Z3.0
G0 X109.3636
G0 Z-1.2
G1 F300.0 Z-3.3
G1 F800.0 X109.1 Y61.9
G1 X95.9
G1 X95.6364 Y61.6364
G1 X95.9 Y61.9
G1 Y90.1
G1 X95.6364 Y90.3636
G1 X95.9 Y90.1
G1 X109.1
G1 X109.3636 Y90.3636
G1 X109.1 Y90.1
G1 Y61.9
G1 X109.3636 Y61.6364
G0 Z3.0
G0 Y54.3636
G0 Z-1.2
G1 F300.0 Z-3.3
G1 F800.0 X109.1 Y54.1
G1 Y25.9
G1 X109.3636 Y25.6364
G1 X109.1 Y25.9
G1 X95.9
G1 X95.6364 Y25.6364
G1 X95.9 Y25.9
G1 Y54.1
G1 X95.6364 Y54.3636
G1 X95.9 Y54.1
G1 X109.1
G1 X109.3636 Y54.3636
G0 Z3.0
G0 X88.3636
G0 Z-1.2
G1 F300.0 Z-3.3
G1 F800.0 X88.1 Y54.1
G1 Y25.9
G1 X88.3636 Y25.6364
G1 X88.1 Y25.9
G1 X74.9
G1 X74.6364 Y25.6364
G1 X74.9 Y25.9
G1 Y54.1
G1 X74.6364 Y54.3636
G1 X74.9 Y54.1
G1 X88.1
G1 X88.3636 Y54.3636
G0 Z3.0
G0 Y61.6364
G0 Z-1.2
G1 F300.0 Z-3.3
G1 F800.0 X88.1 Y61.9
G1 X74.9
G1 X74.6364 Y61.6364
G1 X74.9 Y61.9
G1 Y90.1
G1 X74.6364 Y90.3636
G1 X74.9 Y90.1
G1 X88.1
G1 X88.3636 Y90.3636
G1 X88.1 Y90.1
G1 Y61.9
G1 X88.3636 Y61.6364
G0 Z3.0
G0 X67.3636
G0 Z-1.2
G1 F300.0 Z-3.3
G1 F800.0 X67.1 Y61.9
G1 X53.9
G1 X53.6364 Y61.6364
G1 X53.9 Y61.9
G1 Y90.1
G1 X53.6364 Y90.3636
G1 X53.9 Y90.1
G1 X67.1
G1 X67.3636 Y90.3636
G1 X67.1 Y90.1
G1 Y61.9
G1 X67.3636 Y61.6364
G0 Z3.0
G0 Y54.3636
G0 Z-1.2
G1 F300.0 Z-3.3
G1 F800.0 X67.1 Y54.1
G1 Y25.9
G1 X67.3636 Y25.6364
G1 X67.1 Y25.9
G1 X53.9
G1 X53.6364 Y25.6364
G1 X53.9 Y25.9
G1 Y54.1
G1 X53.6364 Y54.3636
G1 X53.9 Y54.1
G1 X67.1
G1 X67.3636 Y54.3636
G0 Z3.0
G0 X46.3636
G0 Z-1.2
G1 F300.0 Z-3.3
G1 F800.0 X46.1 Y54.1
G1 Y25.9
G1 X46.3636 Y25.6364
G1 X46.1 Y25.9
G1 X32.9
G1 X32.6364 Y25.6364
G1 X32.9 Y25.9
G1 Y54.1
G1 X32.6364 Y54.3636
G1 X32.9 Y54.1
G1 X46.1
G1 X46.3636 Y54.3636
G0 Z3.0
G0 Y61.6364
G0 Z-1.2
G1 F300.0 Z-3.3
G1 F800.0 X46.1 Y61.9
G1 X32.9
G1 X32.6364 Y61.6364
G1 X32.9 Y61.9
G1 Y90.1
G1 X32.6364 Y90.3636
G1 X32.9 Y90.1
G1 X46.1
G1 X46.3636 Y90.3636
G1 X46.1 Y90.1
G1 Y61.9
G1 X46.3636 Y61.6364
G0 Z3.0
G0 Y97.6364
G0 Z-1.2
G1 F300.0 Z-3.3
G1 F800.0 X46.1 Y97.9
G1 X32.9
G1 X32.6364 Y97.6364
G1 X32.9 Y97.9
G1 Y126.1
G1 X32.6364 Y126.3636
G1 X32.9 Y126.1
G1 X46.1
G1 X46.3636 Y126.3636
G1 X46.1 Y126.1
G1 Y97.9
G1 X46.3636 Y97.6364
G0 Z3.0
G0 X53.6364
G0 Z-1.2
G1 F300.0 Z-3.3
G1 F800.0 X53.9 Y97.9
G1 Y126.1
G1 X53.6364 Y126.3636
G1 X53.9 Y126.1
G1 X67.1
G1 X67.3636 Y126.3636
G1 X67.1 Y126.1
G1 Y97.9
G1 X67.3636 Y97.6364
G1 X67.1 Y97.9
G1 X53.9
G1 X53.6364 Y97.6364
G0 Z3.0
G0 X74.6364
G0 Z-1.2
G1 F300.0 Z-3.3
G1 F800.0 X74.9 Y97.9
G1 Y126.1
G1 X74.6364 Y126.3636
G1 X74.9 Y126.1
G1 X88.1
G1 X88.3636 Y126.3636
G1 X88.1 Y126.1
G1 Y97.9
G1 X88.3636 Y97.6364
G1 X88.1 Y97.9
G1 X74.9
G1 X74.6364 Y97.6364
G0 Z3.0
G0 X95.6364
G0 Z-1.2
G1 F300.0 Z-3.3
G1 F800.0 X95.9 Y97.9
G1 Y126.1
G1 X95.6364 Y126.3636
G1 X95.9 Y126.1
G1 X109.1
G1 X109.3636 Y126.3636
G1 X109.1 Y126.1
G1 Y97.9
G1 X109.3636 Y97.6364
G1 X109.1 Y97.9
G1 X95.9
G1 X95.6364 Y97.6364
G0 Z3.0
G0 X116.6364
G0 Z-1.2
G1 F300.0 Z-3.3
G1 F800.0 X116.9 Y97.9
G1 Y126.1
G1 X116.6364 Y126.3636
G1 X116.9 Y126.1
G1 X130.1
G1 X130.3636 Y126.3636
G1 X130.1 Y126.1
G1 Y97.9
G1 X130.3636 Y97.6364
G1 X130.1 Y97.9
G1 X116.9
G1 X116.6364 Y97.6364
G0 Z3.0
G0 X137.6364
G0 Z-1.2
G1 F300.0 Z-3.3
G1 F800.0 X137.9 Y97.9
G1 Y126.1
G1 X137.6364 Y126.3636
G1 X137.9 Y126.1
G1 X151.1
G1 X151.3636 Y126.3636
G1 X151.1 Y126.1
G1 Y97.9
G1 X151.3636 Y97.6364
G1 X151.1 Y97.9
G1 X137.9
G1 X137.6364 Y97.6364
G0 Z3.0
G0 X158.6364
G0 Z-1.2
G1 F300.0 Z-3.3
G1 F800.0 X158.9 Y97.9
G1 Y126.1
G1 X158.6364 Y126.3636
G1 X158.9 Y126.1
G1 X172.1
G1 X172.3636 Y126.3636
G1 X172.1 Y126.1
G1 Y97.9
G1 X172.3636 Y97.6364
G1 X172.1 Y97.9
G1 X158.9
G1 X158.6364 Y97.6364
G0 Z3.0
G0 X179.6364
G0 Z-1.2
G1 F300.0 Z-3.3
G1 F800.0 X179.9 Y97.9
G1 Y126.1
G1 X179.6364 Y126.3636
G1 X179.9 Y126.1
G1 X193.1
G1 X193.3636 Y126.3636
G1 X193.1 Y126.1
G1 Y97.9
G1 X193.3636 Y97.6364
G1 X193.1 Y97.9
G1 X179.9
G1 X179.6364 Y97.6364
G0 Z3.0
G0 X200.6364
G0 Z-1.2
G1 F300.0 Z-3.3
G1 F800.0 X200.9 Y97.9
G1 Y126.1
G1 X200.6364 Y126.3636
G1 X200.9 Y126.1
G1 X214.1
G1 X214.3636 Y126.3636
G1 X214.1 Y126.1
G1 Y97.9
G1 X214.3636 Y97.6364
G1 X214.1 Y97.9
G1 X200.9
G1 X200.6364 Y97.6364
G0 Z3.0
G0 X221.6364
G0 Z-1.2
G1 F300.0 Z-3.3
G1 F800.0 X221.9 Y97.9
G1 Y126.1
G1 X221.6364 Y126.3636
G1 X221.9 Y126.1
G1 X235.1
G1 X235.3636 Y126.3636
G1 X235.1 Y126.1
G1 Y97.9
G1 X235.3636 Y97.6364
G1 X235.1 Y97.9
G1 X221.9
G1 X221.6364 Y97.6364
G0 Z3.0
G0 X242.6364
G0 Z-1.2
G1 F300.0 Z-3.3
G1 F800.0 X242.9 Y97.9
G1 Y126.1
G1 X242.6364 Y126.3636
G1 X242.9 Y126.1
G1 X256.1
G1 X256.3636 Y126.3636
G1 X256.1 Y126.1
G1 Y97.9
G1 X256.3636 Y97.6364
G1 X256.1 Y97.9
G1 X242.9
G1 X242.6364 Y97.6364
G0 Z3.0
G0 Y133.6364
G0 Z-1.2
G1 F300.0 Z-3.3
G1 F800.0 X242.9 Y133.9
G1 Y162.1
G1 X242.6364 Y162.3636
G1 X242.9 Y162.1
G1 X256.1
G1 X256.3636 Y162.3636
G1 X256.1 Y162.1
G1 Y133.9
G1 X256.3636 Y133.6364
G1 X256.1 Y133.9
G1 X242.9
G1 X242.6364 Y133.6364
G0 Z3.0
G0 X235.3636
G0 Z-1.2
G1 F300.0 Z-3.3
G1 F800.0 X235.1 Y133.9
G1 X221.9
G1 X221.6364 Y133.6364
G1 X221.9 Y133.9
G1 Y162.1
G1 X221.6364 Y162.3636
G1 X221.9 Y162.1
G1 X235.1
G1 X235.3636 Y162.3636
G1 X235.1 Y162.1
G1 Y133.9
G1 X235.3636 Y133.6364
G0 Z3.0
G0 X214.3636
G0 Z-1.2
G1 F300.0 Z-3.3
G1 F800.0 X214.1 Y133.9
G1 X200.9
G1 X200.6364 Y133.6364
G1 X200.9 Y133.9
G1 Y162.1
G1 X200.6364 Y162.3636
G1 X200.9 Y162.1
G1 X214.1
G1 X214.3636 Y162.3636
G1 X214.1 Y162.1
G1 Y133.9
G1 X214.3636 Y133.6364
G0 Z3.0
G0 X193.3636
G0 Z-1.2
G1 F300.0 Z-3.3
G1 F800.0 X193.1 Y133.9
G1 X179.9
G1 X179.6364 Y133.6364
G1 X179.9 Y133.9
G1 Y162.1
G1 X179.6364 Y162.3636
G1 X179.9 Y162.1
G1 X193.1
G1 X193.3636 Y162.3636
G1 X193.1 Y162.1
G1 Y133.9
G1 X193.3636 Y133.6364
G0 Z3.0
G0 X172.3636
G0 Z-1.2
G1 F300.0 Z-3.3
G1 F800.0 X172.1 Y133.9
G1 X158.9
G1 X158.6364 Y133.6364
G1 X158.9 Y133.9
G1 Y162.1
G1 X158.6364 Y162.3636
G1 X158.9 Y162.1
G1 X172.1
G1 X172.3636 Y162.3636
G1 X172.1 Y162.1
G1 Y133.9
G1 X172.3636 Y133.6364
G0 Z3.0
G0 X151.3636
G0 Z-1.2
G1 F300.0 Z-3.3
G1 F800.0 X151.1 Y133.9
G1 X137.9
G1 X137.6364 Y133.6364
G1 X137.9 Y133.9
G1 Y162.1
G1 X137.6364 Y162.3636
G1 X137.9 Y162.1
G1 X151.1
G1 X151.3636 Y162.3636
G1 X151.1 Y162.1
G1 Y133.9
G1 X151.3636 Y133.6364
G0 Z3.0
G0 X130.3636
G0 Z-1.2
G1 F300.0 Z-3.3
G1 F800.0 X130.1 Y133.9
G1 X116.9
G1 X116.6364 Y133.6364
G1 X116.9 Y133.9
G1 Y162.1
G1 X116.6364 Y162.3636
G1 X116.9 Y162.1
G1 X130.1
G1 X130.3636 Y162.3636
G1 X130.1 Y162.1
G1 Y133.9
G1 X130.3636 Y133.6364
G0 Z3.0
G0 X109.3636
G0 Z-1.2
G1 F300.0 Z-3.3
G1 F800.0 X109.1 Y133.9
G1 X95.9
G1 X95.6364 Y133.6364
G1 X95.9 Y133.9
G1 Y162.1
G1 X95.6364 Y162.3636
G1 X95.9 Y162.1
G1 X109.1
G1 X109.3636 Y162.3636
G1 X109.1 Y162.1
G1 Y133.9
G1 X109.3636 Y133.6364
G0 Z3.0
G0 X88.3636
G0 Z-1.2
G1 F300.0 Z-3.3
G1 F800.0 X88.1 Y133.9
G1 X74.9
G1 X74.6364 Y133.6364
G1 X74.9 Y133.9
G1 Y162.1
G1 X74.6364 Y162.3636
G1 X74.9 Y162.1
G1 X88.1
G1 X88.3636 Y162.3636
G1 X88.1 Y162.1
G1 Y133.9
G1 X88.3636 Y133.6364
G0 Z3.0
G0 X67.3636
G0 Z-1.2
G1 F300.0 Z-3.3
G1 F800.0 X67.1 Y133.9
G1 X53.9
G1 X53.6364 Y133.6364
G1 X53.9 Y133.9
G1 Y162.1
G1 X53.6364 Y162.3636
G1 X53.9 Y162.1
G1 X67.1
G1 X67.3636 Y162.3636
G1 X67.1 Y162.1
G1 Y133.9
G1 X67.3636 Y133.6364
G0 Z3.0
G0 X46.3636
G0 Z-1.2
G1 F300.0 Z-3.3
G1 F800.0 X46.1 Y133.9
G1 X32.9
G1 X32.6364 Y133.6364
G1 X32.9 Y133.9
G1 Y162.1
G1 X32.6364 Y162.3636
G1 X32.9 Y162.1
G1 X46.1
G1 X46.3636 Y162.3636
G1 X46.1 Y162.1
G1 Y133.9
G1 X46.3636 Y133.6364
G0 Z3.0
G0 Y169.6364
G0 Z-1.2
G1 F300.0 Z-3.3
G1 F800.0 X46.1 Y169.9
G1 X32.9
G1 X32.6364 Y169.6364
G1 X32.9 Y169.9
G1 Y198.1
G1 X32.6364 Y198.3636
G1 X32.9 Y198.1
G1 X46.1
G1 X46.3636 Y198.3636
G1 X46.1 Y198.1
G1 Y169.9
G1 X46.3636 Y169.6364
G0 Z3.0
G0 X53.6364
G0 Z-1.2
G1 F300.0 Z-3.3
G1 F800.0 X53.9 Y169.9
G1 Y198.1
G1 X53.6364 Y198.3636
G1 X53.9 Y198.1
G1 X67.1
G1 X67.3636 Y198.3636
G1 X67.1 Y198.1
G1 Y169.9
G1 X67.3636 Y169.6364
G1 X67.1 Y169.9
G1 X53.9
G1 X53.6364 Y169.6364
G0 Z3.0
G0 X74.6364
G0 Z-1.2
G1 F300.0 Z-3.3
G1 F800.0 X74.9 Y169.9
G1 Y198.1
G1 X74.6364 Y198.3636
G1 X74.9 Y198.1
G1 X88.1
G1 X88.3636 Y198.3636
G1 X88.1 Y198.1
G1 Y169.9
G1 X88.3636 Y169.6364
G1 X88.1 Y169.9
G1 X74.9
G1 X74.6364 Y169.6364
G0 Z3.0
G0 X95.6364
G0 Z-1.2
G1 F300.0 Z-3.3
G1 F800.0 X95.9 Y169.9
G1 Y198.1
G1 X95.6364 Y198.3636
G1 X95.9 Y198.1
G1 X109.1
G1 X109.3636 Y198.3636
G1 X109.1 Y198.1
G1 Y169.9
G1 X109.3636 Y169.6364
G1 X109.1 Y169.9
G1 X95.9
G1 X95.6364 Y169.6364
G0 Z3.0
G0 X116.6364
G0 Z-1.2
G1 F300.0 Z-3.3
G1 F800.0 X116.9 Y169.9
G1 Y198.1
G1 X116.6364 Y198.3636
G1 X116.9 Y198.1
G1 X130.1
G1 X130.3636 Y198.3636
G1 X130.1 Y198.1
G1 Y169.9
G1 X130.3636 Y169.6364
G1 X130.1 Y169.9
G1 X116.9
G1 X116.6364 Y169.6364
G0 Z3.0
G0 X137.6364
G0 Z-1.2
G1 F300.0 Z-3.3
G1 F800.0 X137.9 Y169.9
G1 Y198.1
G1 X137.6364 Y198.3636
G1 X137.9 Y198.1
G1 X151.1
G1 X151.3636 Y198.3636
G1 X151.1 Y198.1
G1 Y169.9
G1 X151.3636 Y169.6364
G1 X151.1 Y169.9
G1 X137.9
G1 X137.6364 Y169.6364
G0 Z3.0
G0 X158.6364
G0 Z-1.2
G1 F300.0 Z-3.3
G1 F800.0 X158.9 Y169.9
G1 Y198.1
G1 X158.6364 Y198.3636
G1 X158.9 Y198.1
G1 X172.1
G1 X172.3636 Y198.3636
G1 X172.1 Y198.1
G1 Y169.9
G1 X172.3636 Y169.6364
G1 X172.1 Y169.9
G1 X158.9
G1 X158.6364 Y169.6364
G0 Z3.0
G0 X179.6364
G0 Z-1.2
G1 F300.0 Z-3.3
G1 F800.0 X179.9 Y169.9
G1 Y198.1
G1 X179.6364 Y198.3636
G1 X179.9 Y198.1
G1 X193.1
G1 X193.3636 Y198.3636
G1 X193.1 Y198.1
G1 Y169.9
G1 X193.3636 Y169.6364
G1 X193.1 Y169.9
G1 X179.9
G1 X179.6364 Y169.6364
G0 Z3.0
G0 X200.6364
G0 Z-1.2
G1 F300.0 Z-3.3
G1 F800.0 X200.9 Y169.9
G1 Y198.1
G1 X200.6364 Y198.3636
G1 X200.9 Y198.1
G1 X214.1
G1 X214.3636 Y198.3636
G1 X214.1 Y198.1
G1 Y169.9
G1 X214.3636 Y169.6364
G1 X214.1 Y169.9
G1 X200.9
G1 X200.6364 Y169.6364
G0 Z3.0
G0 X221.6364
G0 Z-1.2
G1 F300.0 Z-3.3
G1 F800.0 X221.9 Y169.9
G1 Y198.1
G1 X221.6364 Y198.3636
G1 X221.9 Y198.1
G1 X235.1
G1 X235.3636 Y198.3636
G1 X235.1 Y198.1
G1 Y169.9
G1 X235.3636 Y169.6364
G1 X235.1 Y169.9
G1 X221.9
G1 X221.6364 Y169.6364
G0 Z3.0
G0 X242.6364
G0 Z-1.2
G1 F300.0 Z-3.3
G1 F800.0 X242.9 Y169.9
G1 Y198.1
G1 X242.6364 Y198.3636
G1 X242.9 Y198.1
G1 X256.1
G1 X256.3636 Y198.3636
G1 X256.1 Y198.1
G1 Y169.9
G1 X256.3636 Y169.6364
G1 X256.1 Y169.9
G1 X242.9
G1 X242.6364 Y169.6364
G1 F300.0 Z-4.4
G1 F800.0 X242.9 Y169.9
G1 Y178.75
G1 Y179.25 Z-4.1
G1 Y181.25
G1 Y181.75 Z-4.4
G1 Y198.1
G1 X242.6364 Y198.3636
G1 X242.9 Y198.1
G1 X244.25
G1 X244.75 Z-4.1
G1 X246.75
G1 X247.25 Z-4.4
G1 X256.1
G1 X256.3636 Y198.3636
G1 X256.1 Y198.1
G1 Y189.25
G1 Y188.75 Z-4.1
G1 Y186.75
G1 Y186.25 Z-4.4
G1 Y169.9
G1 X256.3636 Y169.6364
G1 X256.1 Y169.9
G1 X254.75
G1 X254.25 Z-4.1
G1 X252.25
G1 X251.75 Z-4.4
G1 X242.9
G1 X242.6364 Y169.6364
G0 Z3.0
G0 Y162.3636
G0 Z-2.3
G1 F300.0 Z-4.4
G1 F800.0 X242.9 Y162.1
G1 X244.25
G1 X244.75 Z-4.1
G1 X246.75
G1 X247.25 Z-4.4
G1 X256.1
G1 X256.3636 Y162.3636
G1 X256.1 Y162.1
G1 Y153.25
G1 Y152.75 Z-4.1
G1 Y150.75
G1 Y150.25 Z-4.4
G1 Y133.9
G1 X256.3636 Y133.6364
G1 X256.1 Y133.9
G1 X254.75
G1 X254.25 Z-4.1
G1 X252.25
G1 X251.75 Z-4.4
G1 X242.9
G1 X242.6364 Y133.6364
G1 X242.9 Y133.9
G1 Y142.75
G1 Y143.25 Z-4.1
G1 Y145.25
G1 Y145.75 Z-4.4
G1 Y162.1
G1 X242.6364 Y162.3636
G0 Z3.0
G0 X235.3636
G0 Z-2.3
G1 F300.0 Z-4.4
G1 F800.0 X235.1 Y162.1
G1 Y153.25
G1 Y152.75 Z-4.1
G1 Y150.75
G1 Y150.25 Z-4.4
G1 Y133.9
G1 X235.3636 Y133.6364
G1 X235.1 Y133.9
G1 X233.75
G1 X233.25 Z-4.1
G1 X231.25
G1 X230.75 Z-4.4
G1 X221.9
G1 X221.6364 Y133.6364
G1 X221.9 Y133.9
G1 Y142.75
G1 Y143.25 Z-4.1
G1 Y145.25
G1 Y145.75 Z-4.4
G1 Y162.1
G1 X221.6364 Y162.3636
G1 X221.9 Y162.1
G1 X223.25
G1 X223.75 Z-4.1
G1 X225.75
G1 X226.25 Z-4.4
G1 X235.1
G1 X235.3636 Y162.3636
G0 Z3.0
G0 Y169.6364
G0 Z-2.3
G1 F300.0 Z-4.4
G1 F800.0 X235.1 Y169.9
G1 X233.75
G1 X233.25 Z-4.1
G1 X231.25
G1 X230.75 Z-4.4
G1 X221.9
G1 X221.6364 Y169.6364
G1 X221.9 Y169.9
G1 Y178.75
G1 Y179.25 Z-4.1
G1 Y181.25
G1 Y181.75 Z-4.4
G1 Y198.1
G1 X221.6364 Y198.3636
G1 X221.9 Y198.1
G1 X223.25
G1 X223.75 Z-4.1
G1 X225.75
G1 X226.25 Z-4.4
G1 X235.1
G1 X235.3636 Y198.3636
G1 X235.1 Y198.1
G1 Y189.25
G1 Y188.75 Z-4.1
G1 Y186.75
G1 Y186.25 Z-4.4
G1 Y169.9
G1 X235.3636 Y169.6364
G0 Z3.0
G0 X214.3636
G0 Z-2.3
G1 F300.0 Z-4.4
G1 F800.0 X214.1 Y169.9
G1 X212.75
G1 X212.25 Z-4.1
G1 X210.25
G1 X209.75 Z-4.4
G1 X200.9
G1 X200.6364 Y169.6364
G1 X200.9 Y169.9
G1 Y178.75
G1 Y179.25 Z-4.1
G1 Y181.25
G1 Y181.75 Z-4.4
G1 Y198.1
G1 X200.6364 Y198.3636
G1 X200.9 Y198.1
G1 X202.25
G1 X202.75 Z-4.1
G1 X204.75
G1 X205.25 Z-4.4
G1 X214.1
G1 X214.3636 Y198.3636
G1 X214.1 Y198.1
G1 Y189.25
G1 Y188.75 Z-4.1
G1 Y186.75
G1 Y186.25 Z-4.4
G1 Y169.9
G1 X214.3636 Y169.6364
G0 Z3.0
G0 Y162.3636
G0 Z-2.3
G1 F300.0 Z-4.4
G1 F800.0 X214.1 Y162.1
G1 Y153.25
G1 Y152.75 Z-4.1
G1 Y150.75
G1 Y150.25 Z-4.4
G1 Y133.9
G1 X214.3636 Y133.6364
G1 X214.1 Y133.9
G1 X212.75
G1 X212.25 Z-4.1
G1 X210.25
G1 X209.75 Z-4.4
G1 X200.9
G1 X200.6364 Y133.6364
G1 X200.9 Y133.9
G1 Y142.75
G1 Y143.25 Z-4.1
G1 Y145.25
G1 Y145.75 Z-4.4
G1 Y162.1
G1 X200.6364 Y162.3636
G1 X200.9 Y162.1
G1 X202.25
G1 X202.75 Z-4.1
G1 X204.75
G1 X205.25 Z-4.4
G1 X214.1
G1 X214.3636 Y162.3636
G0 Z3.0
G0 X193.3636
G0 Z-2.3
G1 F300.0 Z-4.4
G1 F800.0 X193.1 Y162.1
G1 Y153.25
G1 Y152.75 Z-4.1
G1 Y150.75
G1 Y150.25 Z-4.4
G1 Y133.9
G1 X193.3636 Y133.6364
G1 X193.1 Y133.9
G1 X191.75
G1 X191.25 Z-4.1
G1 X189.25
G1 X188.75 Z-4.4
G1 X179.9
G1 X179.6364 Y133.6364
G1 X179.9 Y133.9
G1 Y142.75
G1 Y143.25 Z-4.1
G1 Y145.25
G1 Y145.75 Z-4.4
G1 Y162.1
G1 X179.6364 Y162.3636
G1 X179.9 Y162.1
G1 X181.25
G1 X181.75 Z-4.1
G1 X183.75
G1 X184.25 Z-4.4
G1 X193.1
G1 X193.3636 Y162.3636
G0 Z3.0
G0 Y169.6364
G0 Z-2.3
G1 F300.0 Z-4.4
G1 F800.0 X193.1 Y169.9
G1 X191.75
G1 X191.25 Z-4.1
G1 X189.25
G1 X188.75 Z-4.4
G1 X179.9
G1 X179.6364 Y169.6364
G1 X179.9 Y169.9
G1 Y178.75
G1 Y179.25 Z-4.1
G1 Y181.25
G1 Y181.75 Z-4.4
G1 Y198.1
G1 X179.6364 Y198.3636
G1 X179.9 Y198.1
G1 X181.25
G1 X181.75 Z-4.1
G1 X183.75
G1 X184.25 Z-4.4
G1 X193.1
G1 X193.3636 Y198.3636
G1 X193.1 Y198.1
G1 Y189.25
G1 Y188.75 Z-4.1
G1 Y186.75
G1 Y186.25 Z-4.4
G1 Y169.9
G1 X193.3636 Y169.6364
G0 Z3.0
G0 X172.3636
G0 Z-2.3
G1 F300.0 Z-4.4
G1 F800.0 X172.1 Y169.9
G1 X170.75
G1 X170.25 Z-4.1
G1 X168.25
G1 X167.75 Z-4.4
G1 X158.9
G1 X158.6364 Y169.6364
G1 X158.9 Y169.9
G1 Y178.75
G1 Y179.25 Z-4.1
G1 Y181.25
G1 Y181.75 Z-4.4
G1 Y198.1
G1 X158.6364 Y198.3636
G1 X158.9 Y198.1
G1 X160.25
G1 X160.75 Z-4.1
G1 X162.75
G1 X163.25 Z-4.4
G1 X172.1
G1 X172.3636 Y198.3636
G1 X172.1 Y198.1
G1 Y189.25
G1 Y188.75 Z-4.1
G1 Y186.75
G1 Y186.25 Z-4.4
G1 Y169.9
G1 X172.3636 Y169.6364
G0 Z3.0
G0 Y162.3636
G0 Z-2.3
G1 F300.0 Z-4.4
G1 F800.0 X172.1 Y162.1
G1 Y153.25
G1 Y152.75 Z-4.1
G1 Y150.75
G1 Y150.25 Z-4.4
G1 Y133.9
G1 X172.3636 Y133.6364
G1 X172.1 Y133.9
G1 X170.75
G1 X170.25 Z-4.1
G1 X168.25
G1 X167.75 Z-4.4
G1 X158.9
G1 X158.6364 Y133.6364
G1 X158.9 Y133.9
G1 Y142.75
G1 Y143.25 Z-4.1
G1 Y145.25
G1 Y145.75 Z-4.4
G1 Y162.1
G1 X158.6364 Y162.3636
G1 X158.9 Y162.1
G1 X160.25
G1 X160.75 Z-4.1
G1 X162.75
G1 X163.25 Z-4.4
G1 X172.1
G1 X172.3636 Y162.3636
G0 Z3.0
G0 X151.3636
G0 Z-2.3
G1 F300.0 Z-4.4
G1 F800.0 X151.1 Y162.1
G1 Y153.25
G1 Y152.75 Z-4.1
G1 Y150.75
G1 Y150.25 Z-4.4
G1 Y133.9
G1 X151.3636 Y133.6364
G1 X151.1 Y133.9
G1 X149.75
G1 X149.25 Z-4.1
G1 X147.25
G1 X146.75 Z-4.4
G1 X137.9
G1 X137.6364 Y133.6364
G1 X137.9 Y133.9
G1 Y142.75
G1 Y143.25 Z-4.1
G1 Y145.25
G1 Y145.75 Z-4.4
G1 Y162.1
G1 X137.6364 Y162.3636
G1 X137.9 Y162.1
G1 X139.25
G1 X139.75 Z-4.1
G1 X141.75
G1 X142.25 Z-4.4
G1 X151.1
G1 X151.3636 Y162.3636
G0 Z3.0
G0 Y169.6364
G0 Z-2.3
G1 F300.0 Z-4.4
G1 F800.0 X151.1 Y169.9
G1 X149.75
G1 X149.25 Z-4.1
G1 X147.25
G1 X146.75 Z-4.4
G1 X137.9
G1 X137.6364 Y169.6364
G1 X137.9 Y169.9
G1 Y178.75
G1 Y179.25 Z-4.1
G1 Y181.25
G1 Y181.75 Z-4.4
G1 Y198.1
G1 X137.6364 Y198.3636
G1 X137.9 Y198.1
G1 X139.25
G1 X139.75 Z-4.1
G1 X141.75
G1 X142.25 Z-4.4
G1 X151.1
G1 X151.3636 Y198.3636
G1 X151.1 Y198.1
G1 Y189.25
G1 Y188.75 Z-4.1
G1 Y186.75
G1 Y186.25 Z-4.4
G1 Y169.9
G1 X151.3636 Y169.6364
G0 Z3.0
G0 X130.3636
G0 Z-2.3
G1 F300.0 Z-4.4
G1 F800.0 X130.1 Y169.9
G1 X128.75
G1 X128.25 Z-4.1
G1 X126.25
G1 X125.75 Z-4.4
G1 X116.9
G1 X116.6364 Y169.6364
G1 X116.9 Y169.9
G1 Y178.75
G1 Y179.25 Z-4.1
G1 Y181.25
G1 Y181.75 Z-4.4
G1 Y198.1
G1 X116.6364 Y198.3636
G1 X116.9 Y198.1
G1 X118.25
G1 X118.75 Z-4.1
G1 X120.75
G1 X121.25 Z-4.4
G1 X130.1
G1 X130.3636 Y198.3636
G1 X130.1 Y198.1
G1 Y189.25
G1 Y188.75 Z-4.1
G1 Y186.75
G1 Y186.25 Z-4.4
G1 Y169.9
G1 X130.3636 Y169.6364
G0 Z3.0
G0 Y162.3636
G0 Z-2.3
G1 F300.0 Z-4.4
G1 F800.0 X130.1 Y162.1
G1 Y153.25
G1 Y152.75 Z-4.1
G1 Y150.75
G1 Y150.25 Z-4.4
G1 Y133.9
G1 X130.3636 Y133.6364
G1 X130.1 Y133.9
G1 X128.75
G1 X128.25 Z-4.1
G1 X126.25
G1 X125.75 Z-4.4
G1 X116.9
G1 X116.6364 Y133.6364
G1 X116.9 Y133.9
G1 Y142.75
G1 Y143.25 Z-4.1
G1 Y145.25
G1 Y145.75 Z-4.4
G1 Y162.1
G1 X116.6364 Y162.3636
G1 X116.9 Y162.1
G1 X118.25
G1 X118.75 Z-4.1
G1 X120.75
G1 X121.25 Z-4.4
G1 X130.1
G1 X130.3636 Y162.3636
G0 Z3.0
G0 X109.3636
G0 Z-2.3
G1 F300.0 Z-4.4
G1 F800.0 X109.1 Y162.1
G1 Y153.25
G1 Y152.75 Z-4.1
G1 Y150.75
G1 Y150.25 Z-4.4
G1 Y133.9
G1 X109.3636 Y133.6364
G1 X109.1 Y133.9
G1 X107.75
G1 X107.25 Z-4.1
G1 X105.25
G1 X104.75 Z-4.4
G1 X95.9
G1 X95.6364 Y133.6364
G1 X95.9 Y133.9
G1 Y142.75
G1 Y143.25 Z-4.1
G1 Y145.25
G1 Y145.75 Z-4.4
G1 Y162.1
G1 X95.6364 Y162.3636
G1 X95.9 Y162.1
G1 X97.25
G1 X97.75 Z-4.1
G1 X99.75
G1 X100.25 Z-4.4
G1 X109.1
G1 X109.3636 Y162.3636
G0 Z3.0
G0 Y169.6364
G0 Z-2.3
G1 F300.0 Z-4.4
G1 F800.0 X109.1 Y169.9
G1 X107.75
G1 X107.25 Z-4.1
G1 X105.25
G1 X104.75 Z-4.4
G1 X95.9
G1 X95.6364 Y169.6364
G1 X95.9 Y169.9
G1 Y177.5
G1 Y178.0 Z-4.1
G1 Y180.0
G1 Y180.5 Z-4.4
G1 Y198.1
G1 X95.6364 Y198.3636
G1 X95.9 Y198.1
G1 X97.25
G1 X97.75 Z-4.1
G1 X99.75
G1 X100.25 Z-4.4
G1 X109.1
G1 X109.3636 Y198.3636
G1 X109.1 Y198.1
G1 Y190.5
G1 Y190.0 Z-4.1
G1 Y188.0
G1 Y187.5 Z-4.4
G1 Y169.9
G1 X109.3636 Y169.6364
G0 Z3.0
G0 X88.3636
G0 Z-2.3
G1 F300.0 Z-4.4
G1 F800.0 X88.1 Y169.9
G1 X86.75
G1 X86.25 Z-4.1
G1 X84.25
G1 X83.75 Z-4.4
G1 X74.9
G1 X74.6364 Y169.6364
G1 X74.9 Y169.9
G1 Y177.5
G1 Y178.0 Z-4.1
G1 Y180.0
G1 Y180.5 Z-4.4
G1 Y198.1
G1 X74.6364 Y198.3636
G1 X74.9 Y198.1
G1 X76.25
G1 X76.75 Z-4.1
G1 X78.75
G1 X79.25 Z-4.4
G1 X88.1
G1 X88.3636 Y198.3636
G1 X88.1 Y198.1
G1 Y189.5
G1 Y189.0 Z-4.1
G1 Y187.0
G1 Y186.5 Z-4.4
G1 Y169.9
G1 X88.3636 Y169.6364
G0 Z3.0
G0 Y162.3636
G0 Z-2.3
G1 F300.0 Z-4.4
G1 F800.0 X88.1 Y162.1
G1 Y153.25
G1 Y152.75 Z-4.1
G1 Y150.75
G1 Y150.25 Z-4.4
G1 Y133.9
G1 X88.3636 Y133.6364
G1 X88.1 Y133.9
G1 X86.75
G1 X86.25 Z-4.1
G1 X84.25
G1 X83.75 Z-4.4
G1 X74.9
G1 X74.6364 Y133.6364
G1 X74.9 Y133.9
G1 Y142.75
G1 Y143.25 Z-4.1
G1 Y145.25
G1 Y145.75 Z-4.4
G1 Y162.1
G1 X74.6364 Y162.3636
G1 X74.9 Y162.1
G1 X76.25
G1 X76.75 Z-4.1
G1 X78.75
G1 X79.25 Z-4.4
G1 X88.1
G1 X88.3636 Y162.3636
G0 Z3.0
G0 X67.3636
G0 Z-2.3
G1 F300.0 Z-4.4
G1 F800.0 X67.1 Y162.1
G1 Y153.25
G1 Y152.75 Z-4.1
G1 Y150.75
G1 Y150.25 Z-4.4
G1 Y133.9
G1 X67.3636 Y133.6364
G1 X67.1 Y133.9
G1 X65.75
G1 X65.25 Z-4.1
G1 X63.25
G1 X62.75 Z-4.4
G1 X53.9
G1 X53.6364 Y133.6364
G1 X53.9 Y133.9
G1 Y142.75
G1 Y143.25 Z-4.1
G1 Y145.25
G1 Y145.75 Z-4.4
G1 Y162.1
G1 X53.6364 Y162.3636
G1 X53.9 Y162.1
G1 X55.25
G1 X55.75 Z-4.1
G1 X57.75
G1 X58.25 Z-4.4
G1 X67.1
G1 X67.3636 Y162.3636
G0 Z3.0
G0 Y169.6364
G0 Z-2.3
G1 F300.0 Z-4.4
G1 F800.0 X67.1 Y169.9
G1 X65.75
G1 X65.25 Z-4.1
G1 X63.25
G1 X62.75 Z-4.4
G1 X53.9
G1 X53.6364 Y169.6364
G1 X53.9 Y169.9
G1 Y177.5
G1 Y178.0 Z-4.1
G1 Y180.0
G1 Y180.5 Z-4.4
G1 Y198.1
G1 X53.6364 Y198.3636
G1 X53.9 Y198.1
G1 X55.25
G1 X55.75 Z-4.1
G1 X57.75
G1 X58.25 Z-4.4
G1 X67.1
G1 X67.3636 Y198.3636
G1 X67.1 Y198.1
G1 Y191.5
G1 Y191.0 Z-4.1
G1 Y189.0
G1 Y188.5 Z-4.4
G1 Y169.9
G1 X67.3636 Y169.6364
G0 Z3.0
G0 X46.3636
G0 Z-2.3
G1 F300.0 Z-4.4
G1 F800.0 X46.1 Y169.9
G1 X44.75
G1 X44.25 Z-4.1
G1 X42.25
G1 X41.75 Z-4.4
G1 X32.9
G1 X32.6364 Y169.6364
G1 X32.9 Y169.9
G1 Y178.75
G1 Y179.25 Z-4.1
G1 Y181.25
G1 Y181.75 Z-4.4
G1 Y198.1
G1 X32.6364 Y198.3636
G1 X32.9 Y198.1
G1 X34.25
G1 X34.75 Z-4.1
G1 X36.75
G1 X37.25 Z-4.4
G1 X46.1
G1 X46.3636 Y198.3636
G1 X46.1 Y198.1
G1 Y190.5
G1 Y190.0 Z-4.1
G1 Y188.0
G1 Y187.5 Z-4.4
G1 Y169.9
G1 X46.3636 Y169.6364
G0 Z3.0
G0 Y162.3636
G0 Z-2.3
G1 F300.0 Z-4.4
G1 F800.0 X46.1 Y162.1
G1 Y153.25
G1 Y152.75 Z-4.1
G1 Y150.75
G1 Y150.25 Z-4.4
G1 Y133.9
G1 X46.3636 Y133.6364
G1 X46.1 Y133.9
G1 X44.75
G1 X44.25 Z-4.1
G1 X42.25
G1 X41.75 Z-4.4
G1 X32.9
G1 X32.6364 Y133.6364
G1 X32.9 Y133.9
G1 Y142.75
G1 Y143.25 Z-4.1
G1 Y145.25
G1 Y145.75 Z-4.4
G1 Y162.1
G1 X32.6364 Y162.3636
G1 X32.9 Y162.1
G1 X34.25
G1 X34.75 Z-4.1
G1 X36.75
G1 X37.25 Z-4.4
G1 X46.1
G1 X46.3636 Y162.3636
G0 Z3.0
G0 Y126.3636
G0 Z-2.3
G1 F300.0 Z-4.4
G1 F800.0 X46.1 Y126.1
G1 Y117.25
G1 Y116.75 Z-4.1
G1 Y114.75
G1 Y114.25 Z-4.4
G1 Y97.9
G1 X46.3636 Y97.6364
G1 X46.1 Y97.9
G1 X44.75
G1 X44.25 Z-4.1
G1 X42.25
G1 X41.75 Z-4.4
G1 X32.9
G1 X32.6364 Y97.6364
G1 X32.9 Y97.9
G1 Y106.75
G1 Y107.25 Z-4.1
G1 Y109.25
G1 Y109.75 Z-4.4
G1 Y126.1
G1 X32.6364 Y126.3636
G1 X32.9 Y126.1
G1 X34.25
G1 X34.75 Z-4.1
G1 X36.75
G1 X37.25 Z-4.4
G1 X46.1
G1 X46.3636 Y126.3636
G0 Z3.0
G0 X53.6364
G0 Z-2.3
G1 F300.0 Z-4.4
G1 F800.0 X53.9 Y126.1
G1 X55.25
G1 X55.75 Z-4.1
G1 X57.75
G1 X58.25 Z-4.4
G1 X67.1
G1 X67.3636 Y126.3636
G1 X67.1 Y126.1
G1 Y117.25
G1 Y116.75 Z-4.1
G1 Y114.75
G1 Y114.25 Z-4.4
G1 Y97.9
G1 X67.3636 Y97.6364
G1 X67.1 Y97.9
G1 X65.75
G1 X65.25 Z-4.1
G1 X63.25
G1 X62.75 Z-4.4
G1 X53.9
G1 X53.6364 Y97.6364
G1 X53.9 Y97.9
G1 Y106.75
G1 Y107.25 Z-4.1
G1 Y109.25
G1 Y109.75 Z-4.4
G1 Y126.1
G1 X53.6364 Y126.3636
G0 Z3.0
G0 X74.6364
G0 Z-2.3
G1 F300.0 Z-4.4
G1 F800.0 X74.9 Y126.1
G1 X76.25
G1 X76.75 Z-4.1
G1 X78.75
G1 X79.25 Z-4.4
G1 X88.1
G1 X88.3636 Y126.3636
G1 X88.1 Y126.1
G1 Y117.25
G1 Y116.75 Z-4.1
G1 Y114.75
G1 Y114.25 Z-4.4
G1 Y97.9
G1 X88.3636 Y97.6364
G1 X88.1 Y97.9
G1 X86.75
G1 X86.25 Z-4.1
G1 X84.25
G1 X83.75 Z-4.4
G1 X74.9
G1 X74.6364 Y97.6364
G1 X74.9 Y97.9
G1 Y106.75
G1 Y107.25 Z-4.1
G1 Y109.25
G1 Y109.75 Z-4.4
G1 Y126.1
G1 X74.6364 Y126.3636
G0 Z3.0
G0 X95.6364
G0 Z-2.3
G1 F300.0 Z-4.4
G1 F800.0 X95.9 Y126.1
G1 X97.25
G1 X97.75 Z-4.1
G1 X99.75
G1 X100.25 Z-4.4
G1 X109.1
G1 X109.3636 Y126.3636
G1 X109.1 Y126.1
G1 Y117.25
G1 Y116.75 Z-4.1
G1 Y114.75
G1 Y114.25 Z-4.4
G1 Y97.9
G1 X109.3636 Y97.6364
G1 X109.1 Y97.9
G1 X107.75
G1 X107.25 Z-4.1
G1 X105.25
G1 X104.75 Z-4.4
G1 X95.9
G1 X95.6364 Y97.6364
G1 X95.9 Y97.9
G1 Y106.75
G1 Y107.25 Z-4.1
G1 Y109.25
G1 Y109.75 Z-4.4
G1 Y126.1
G1 X95.6364 Y126.3636
G0 Z3.0
G0 X116.6364
G0 Z-2.3
G1 F300.0 Z-4.4
G1 F800.0 X116.9 Y126.1
G1 X118.25
G1 X118.75 Z-4.1
G1 X120.75
G1 X121.25 Z-4.4
G1 X130.1
G1 X130.3636 Y126.3636
G1 X130.1 Y126.1
G1 Y117.25
G1 Y116.75 Z-4.1
G1 Y114.75
G1 Y114.25 Z-4.4
G1 Y97.9
G1 X130.3636 Y97.6364
G1 X130.1 Y97.9
G1 X128.75
G1 X128.25 Z-4.1
G1 X126.25
G1 X125.75 Z-4.4
G1 X116.9
G1 X116.6364 Y97.6364
G1 X116.9 Y97.9
G1 Y106.75
G1 Y107.25 Z-4.1
G1 Y109.25
G1 Y109.75 Z-4.4
G1 Y126.1
G1 X116.6364 Y126.3636
G0 Z3.0
G0 X137.6364
G0 Z-2.3
G1 F300.0 Z-4.4
G1 F800.0 X137.9 Y126.1
G1 X139.25
G1 X139.75 Z-4.1
G1 X141.75
G1 X142.25 Z-4.4
G1 X151.1
G1 X151.3636 Y126.3636
G1 X151.1 Y126.1
G1 Y117.25
G1 Y116.75 Z-4.1
G1 Y114.75
G1 Y114.25 Z-4.4
G1 Y97.9
G1 X151.3636 Y97.6364
G1 X151.1 Y97.9
G1 X149.75
G1 X149.25 Z-4.1
G1 X147.25
G1 X146.75 Z-4.4
G1 X137.9
G1 X137.6364 Y97.6364
G1 X137.9 Y97.9
G1 Y106.75
G1 Y107.25 Z-4.1
G1 Y109.25
G1 Y109.75 Z-4.4
G1 Y126.1
G1 X137.6364 Y126.3636
G0 Z3.0
G0 X158.6364
G0 Z-2.3
G1 F300.0 Z-4.4
G1 F800.0 X158.9 Y126.1
G1 X160.25
G1 X160.75 Z-4.1
G1 X162.75
G1 X163.25 Z-4.4
G1 X172.1
G1 X172.3636 Y126.3636
G1 X172.1 Y126.1
G1 Y117.25
G1 Y116.75 Z-4.1
G1 Y114.75
G1 Y114.25 Z-4.4
G1 Y97.9
G1 X172.3636 Y97.6364
G1 X172.1 Y97.9
G1 X170.75
G1 X170.25 Z-4.1
G1 X168.25
G1 X167.75 Z-4.4
G1 X158.9
G1 X158.6364 Y97.6364
G1 X158.9 Y97.9
G1 Y106.75
G1 Y107.25 Z-4.1
G1 Y109.25
G1 Y109.75 Z-4.4
G1 Y126.1
G1 X158.6364 Y126.3636
G0 Z3.0
G0 X179.6364
G0 Z-2.3
G1 F300.0 Z-4.4
G1 F800.0 X179.9 Y126.1
G1 X181.25
G1 X181.75 Z-4.1
G1 X183.75
G1 X184.25 Z-4.4
G1 X193.1
G1 X193.3636 Y126.3636
G1 X193.1 Y126.1
G1 Y117.25
G1 Y116.75 Z-4.1
G1 Y114.75
G1 Y114.25 Z-4.4
G1 Y97.9
G1 X193.3636 Y97.6364
G1 X193.1 Y97.9
G1 X191.75
G1 X191.25 Z-4.1
G1 X189.25
G1 X188.75 Z-4.4
G1 X179.9
G1 X179.6364 Y97.6364
G1 X179.9 Y97.9
G1 Y106.75
G1 Y107.25 Z-4.1
G1 Y109.25
G1 Y109.75 Z-4.4
G1 Y126.1
G1 X179.6364 Y126.3636
G0 Z3.0
G0 X200.6364
G0 Z-2.3
G1 F300.0 Z-4.4
G1 F800.0 X200.9 Y126.1
G1 X202.25
G1 X202.75 Z-4.1
G1 X204.75
G1 X205.25 Z-4.4
G1 X214.1
G1 X214.3636 Y126.3636
G1 X214.1 Y126.1
G1 Y117.25
G1 Y116.75 Z-4.1
G1 Y114.75
G1 Y114.25 Z-4.4
G1 Y97.9
G1 X214.3636 Y97.6364
G1 X214.1 Y97.9
G1 X212.75
G1 X212.25 Z-4.1
G1 X210.25
G1 X209.75 Z-4.4
G1 X200.9
G1 X200.6364 Y97.6364
G1 X200.9 Y97.9
G1 Y106.75
G1 Y107.25 Z-4.1
G1 Y109.25
G1 Y109.75 Z-4.4
G1 Y126.1
G1 X200.6364 Y126.3636
G0 Z3.0
G0 X221.6364
G0 Z-2.3
G1 F300.0 Z-4.4
G1 F800.0 X221.9 Y126.1
G1 X223.25
G1 X223.75 Z-4.1
G1 X225.75
G1 X226.25 Z-4.4
G1 X235.1
G1 X235.3636 Y126.3636
G1 X235.1 Y126.1
G1 Y117.25
G1 Y116.75 Z-4.1
G1 Y114.75
G1 Y114.25 Z-4.4
G1 Y97.9
G1 X235.3636 Y97.6364
G1 X235.1 Y97.9
G1 X233.75
G1 X233.25 Z-4.1
G1 X231.25
G1 X230.75 Z-4.4
G1 X221.9
G1 X221.6364 Y97.6364
G1 X221.9 Y97.9
G1 Y106.75
G1 Y107.25 Z-4.1
G1 Y109.25
G1 Y109.75 Z-4.4
G1 Y126.1
G1 X221.6364 Y126.3636
G0 Z3.0
G0 X242.6364
G0 Z-2.3
G1 F300.0 Z-4.4
G1 F800.0 X242.9 Y126.1
G1 X244.25
G1 X244.75 Z-4.1
G1 X246.75
G1 X247.25 Z-4.4
G1 X256.1
G1 X256.3636 Y126.3636
G1 X256.1 Y126.1
G1 Y117.25
G1 Y116.75 Z-4.1
G1 Y114.75
G1 Y114.25 Z-4.4
G1 Y97.9
G1 X256.3636 Y97.6364
G1 X256.1 Y97.9
G1 X254.75
G1 X254.25 Z-4.1
G1 X252.25
G1 X251.75 Z-4.4
G1 X242.9
G1 X242.6364 Y97.6364
G1 X242.9 Y97.9
G1 Y106.75
G1 Y107.25 Z-4.1
G1 Y109.25
G1 Y109.75 Z-4.4
G1 Y126.1
G1 X242.6364 Y126.3636
G0 Z3.0
G0 Y90.3636
G0 Z-2.3
G1 F300.0 Z-4.4
G1 F800.0 X242.9 Y90.1
G1 X244.25
G1 X244.75 Z-4.1
G1 X246.75
G1 X247.25 Z-4.4
G1 X256.1
G1 X256.3636 Y90.3636
G1 X256.1 Y90.1
G1 Y81.25
G1 Y80.75 Z-4.1
G1 Y78.75
G1 Y78.25 Z-4.4
G1 Y61.9
G1 X256.3636 Y61.6364
G1 X256.1 Y61.9
G1 X254.75
G1 X254.25 Z-4.1
G1 X252.25
G1 X251.75 Z-4.4
G1 X242.9
G1 X242.6364 Y61.6364
G1 X242.9 Y61.9
G1 Y70.75
G1 Y71.25 Z-4.1
G1 Y73.25
G1 Y73.75 Z-4.4
G1 Y90.1
G1 X242.6364 Y90.3636
G0 Z3.0
G0 X235.3636
G0 Z-2.3
G1 F300.0 Z-4.4
G1 F800.0 X235.1 Y90.1
G1 Y81.25
G1 Y80.75 Z-4.1
G1 Y78.75
G1 Y78.25 Z-4.4
G1 Y61.9
G1 X235.3636 Y61.6364
G1 X235.1 Y61.9
G1 X233.75
G1 X233.25 Z-4.1
G1 X231.25
G1 X230.75 Z-4.4
G1 X221.9
G1 X221.6364 Y61.6364
G1 X221.9 Y61.9
G1 Y70.75
G1 Y71.25 Z-4.1
G1 Y73.25
G1 Y73.75 Z-4.4
G1 Y90.1
G1 X221.6364 Y90.3636
G1 X221.9 Y90.1
G1 X223.25
G1 X223.75 Z-4.1
G1 X225.75
G1 X226.25 Z-4.4
G1 X235.1
G1 X235.3636 Y90.3636
G0 Z3.0
G0 X214.3636
G0 Z-2.3
G1 F300.0 Z-4.4
G1 F800.0 X214.1 Y90.1
G1 Y81.25
G1 Y80.75 Z-4.1
G1 Y78.75
G1 Y78.25 Z-4.4
G1 Y61.9
G1 X214.3636 Y61.6364
G1 X214.1 Y61.9
G1 X212.75
G1 X212.25 Z-4.1
G1 X210.25
G1 X209.75 Z-4.4
G1 X200.9
G1 X200.6364 Y61.6364
G1 X200.9 Y61.9
G1 Y70.75
G1 Y71.25 Z-4.1
G1 Y73.25
G1 Y73.75 Z-4.4
G1 Y90.1
G1 X200.6364 Y90.3636
G1 X200.9 Y90.1
G1 X202.25
G1 X202.75 Z-4.1
G1 X204.75
G1 X205.25 Z-4.4
G1 X214.1
G1 X214.3636 Y90.3636
G0 Z3.0
G0 X193.3636
G0 Z-2.3
G1 F300.0 Z-4.4
G1 F800.0 X193.1 Y90.1
G1 Y81.25
G1 Y80.75 Z-4.1
G1 Y78.75
G1 Y78.25 Z-4.4
G1 Y61.9
G1 X193.3636 Y61.6364
G1 X193.1 Y61.9
G1 X191.75
G1 X191.25 Z-4.1
G1 X189.25
G1 X188.75 Z-4.4
G1 X179.9
G1 X179.6364 Y61.6364
G1 X179.9 Y61.9
G1 Y70.75
G1 Y71.25 Z-4.1
G1 Y73.25
G1 Y73.75 Z-4.4
G1 Y90.1
G1 X179.6364 Y90.3636
G1 X179.9 Y90.1
G1 X181.25
G1 X181.75 Z-4.1
G1 X183.75
G1 X184.25 Z-4.4
G1 X193.1
G1 X193.3636 Y90.3636
G0 Z3.0
G0 X172.3636
G0 Z-2.3
G1 F300.0 Z-4.4
G1 F800.0 X172.1 Y90.1
G1 Y81.25
G1 Y80.75 Z-4.1
G1 Y78.75
G1 Y78.25 Z-4.4
G1 Y61.9
G1 X172.3636 Y61.6364
G1 X172.1 Y61.9
G1 X170.75
G1 X170.25 Z-4.1
G1 X168.25
G1 X167.75 Z-4.4
G1 X158.9
G1 X158.6364 Y61.6364
G1 X158.9 Y61.9
G1 Y70.75
G1 Y71.25 Z-4.1
G1 Y73.25
G1 Y73.75 Z-4.4
G1 Y90.1
G1 X158.6364 Y90.3636
G1 X158.9 Y90.1
G1 X160.25
G1 X160.75 Z-4.1
G1 X162.75
G1 X163.25 Z-4.4
G1 X172.1
G1 X172.3636 Y90.3636
G0 Z3.0
G0 X151.3636
G0 Z-2.3
G1 F300.0 Z-4.4
G1 F800.0 X151.1 Y90.1
G1 Y81.25
G1 Y80.75 Z-4.1
G1 Y78.75
G1 Y78.25 Z-4.4
G1 Y61.9
G1 X151.3636 Y61.6364
G1 X151.1 Y61.9
G1 X149.75
G1 X149.25 Z-4.1
G1 X147.25
G1 X146.75 Z-4.4
G1 X137.9
G1 X137.6364 Y61.6364
G1 X137.9 Y61.9
G1 Y70.75
G1 Y71.25 Z-4.1
G1 Y73.25
G1 Y73.75 Z-4.4
G1 Y90.1
G1 X137.6364 Y90.3636
G1 X137.9 Y90.1
G1 X139.25
G1 X139.75 Z-4.1
G1 X141.75
G1 X142.25 Z-4.4
G1 X151.1
G1 X151.3636 Y90.3636
G0 Z3.0
G0 X130.3636
G0 Z-2.3
G1 F300.0 Z-4.4
G1 F800.0 X130.1 Y90.1
G1 Y81.25
G1 Y80.75 Z-4.1
G1 Y78.75
G1 Y78.25 Z-4.4
G1 Y61.9
G1 X130.3636 Y61.6364
G1 X130.1 Y61.9
G1 X128.75
G1 X128.25 Z-4.1
G1 X126.25
G1 X125.75 Z-4.4
G1 X116.9
G1 X116.6364 Y61.6364
G1 X116.9 Y61.9
G1 Y70.75
G1 Y71.25 Z-4.1
G1 Y73.25
G1 Y73.75 Z-4.4
G1 Y90.1
G1 X116.6364 Y90.3636
G1 X116.9 Y90.1
G1 X118.25
G1 X118.75 Z-4.1
G1 X120.75
G1 X121.25 Z-4.4
G1 X130.1
G1 X130.3636 Y90.3636
G0 Z3.0
G0 X109.3636
G0 Z-2.3
G1 F300.0 Z-4.4
G1 F800.0 X109.1 Y90.1
G1 Y81.25
G1 Y80.75 Z-4.1
G1 Y78.75
G1 Y78.25 Z-4.4
G1 Y61.9
G1 X109.3636 Y61.6364
G1 X109.1 Y61.9
G1 X107.75
G1 X107.25 Z-4.1
G1 X105.25
G1 X104.75 Z-4.4
G1 X95.9
G1 X95.6364 Y61.6364
G1 X95.9 Y61.9
G1 Y70.75
G1 Y71.25 Z-4.1
G1 Y73.25
G1 Y73.75 Z-4.4
G1 Y90.1
G1 X95.6364 Y90.3636
G1 X95.9 Y90.1
G1 X97.25
G1 X97.75 Z-4.1
G1 X99.75
G1 X100.25 Z-4.4
G1 X109.1
G1 X109.3636 Y90.3636
G0 Z3.0
G0 X88.3636
G0 Z-2.3
G1 F300.0 Z-4.4
G1 F800.0 X88.1 Y90.1
G1 Y81.25
G1 Y80.75 Z-4.1
G1 Y78.75
G1 Y78.25 Z-4.4
G1 Y61.9
G1 X88.3636 Y61.6364
G1 X88.1 Y61.9
G1 X86.75
G1 X86.25 Z-4.1
G1 X84.25
G1 X83.75 Z-4.4
G1 X74.9
G1 X74.6364 Y61.6364
G1 X74.9 Y61.9
G1 Y70.75
G1 Y71.25 Z-4.1
G1 Y73.25
G1 Y73.75 Z-4.4
G1 Y90.1
G1 X74.6364 Y90.3636
G1 X74.9 Y90.1
G1 X76.25
G1 X76.75 Z-4.1
G1 X78.75
G1 X79.25 Z-4.4
G1 X88.1
G1 X88.3636 Y90.3636
G0 Z3.0
G0 X67.3636
G0 Z-2.3
G1 F300.0 Z-4.4
G1 F800.0 X67.1 Y90.1
G1 Y81.25
G1 Y80.75 Z-4.1
G1 Y78.75
G1 Y78.25 Z-4.4
G1 Y61.9
G1 X67.3636 Y61.6364
G1 X67.1 Y61.9
G1 X65.75
G1 X65.25 Z-4.1
G1 X63.25
G1 X62.75 Z-4.4
G1 X53.9
G1 X53.6364 Y61.6364
G1 X53.9 Y61.9
G1 Y70.75
G1 Y71.25 Z-4.1
G1 Y73.25
G1 Y73.75 Z-4.4
G1 Y90.1
G1 X53.6364 Y90.3636
G1 X53.9 Y90.1
G1 X55.25
G1 X55.75 Z-4.1
G1 X57.75
G1 X58.25 Z-4.4
G1 X67.1
G1 X67.3636 Y90.3636
G0 Z3.0
G0 X46.3636
G0 Z-2.3
G1 F300.0 Z-4.4
G1 F800.0 X46.1 Y90.1
G1 Y81.25
G1 Y80.75 Z-4.1
G1 Y78.75
G1 Y78.25 Z-4.4
G1 Y61.9
G1 X46.3636 Y61.6364
G1 X46.1 Y61.9
G1 X44.75
G1 X44.25 Z-4.1
G1 X42.25
G1 X41.75 Z-4.4
G1 X32.9
G1 X32.6364 Y61.6364
G1 X32.9 Y61.9
G1 Y70.75
G1 Y71.25 Z-4.1
G1 Y73.25
G1 Y73.75 Z-4.4
G1 Y90.1
G1 X32.6364 Y90.3636
G1 X32.9 Y90.1
G1 X34.25
G1 X34.75 Z-4.1
G1 X36.75
G1 X37.25 Z-4.4
G1 X46.1
G1 X46.3636 Y90.3636
G0 Z3.0
G0 Y54.3636
G0 Z-2.3
G1 F300.0 Z-4.4
G1 F800.0 X46.1 Y54.1
G1 Y45.25
G1 Y44.75 Z-4.1
G1 Y42.75
G1 Y42.25 Z-4.4
G1 Y25.9
G1 X46.3636 Y25.6364
G1 X46.1 Y25.9
G1 X44.75
G1 X44.25 Z-4.1
G1 X42.25
G1 X41.75 Z-4.4
G1 X32.9
G1 X32.6364 Y25.6364
G1 X32.9 Y25.9
G1 Y34.75
G1 Y35.25 Z-4.1
G1 Y37.25
G1 Y37.75 Z-4.4
G1 Y54.1
G1 X32.6364 Y54.3636
G1 X32.9 Y54.1
G1 X34.25
G1 X34.75 Z-4.1
G1 X36.75
G1 X37.25 Z-4.4
G1 X46.1
G1 X46.3636 Y54.3636
G0 Z3.0
G0 X53.6364
G0 Z-2.3
G1 F300.0 Z-4.4
G1 F800.0 X53.9 Y54.1
G1 X55.25
G1 X55.75 Z-4.1
G1 X57.75
G1 X58.25 Z-4.4
G1 X67.1
G1 X67.3636 Y54.3636
G1 X67.1 Y54.1
G1 Y45.25
G1 Y44.75 Z-4.1
G1 Y42.75
G1 Y42.25 Z-4.4
G1 Y25.9
G1 X67.3636 Y25.6364
G1 X67.1 Y25.9
G1 X65.75
G1 X65.25 Z-4.1
G1 X63.25
G1 X62.75 Z-4.4
G1 X53.9
G1 X53.6364 Y25.6364
G1 X53.9 Y25.9
G1 Y34.75
G1 Y35.25 Z-4.1
G1 Y37.25
G1 Y37.75 Z-4.4
G1 Y54.1
G1 X53.6364 Y54.3636
G0 Z3.0
G0 X74.6364
G0 Z-2.3
G1 F300.0 Z-4.4
G1 F800.0 X74.9 Y54.1
G1 X76.25
G1 X76.75 Z-4.1
G1 X78.75
G1 X79.25 Z-4.4
G1 X88.1
G1 X88.3636 Y54.3636
G1 X88.1 Y54.1
G1 Y45.25
G1 Y44.75 Z-4.1
G1 Y42.75
G1 Y42.25 Z-4.4
G1 Y25.9
G1 X88.3636 Y25.6364
G1 X88.1 Y25.9
G1 X86.75
G1 X86.25 Z-4.1
G1 X84.25
G1 X83.75 Z-4.4
G1 X74.9
G1 X74.6364 Y25.6364
G1 X74.9 Y25.9
G1 Y34.75
G1 Y35.25 Z-4.1
G1 Y37.25
G1 Y37.75 Z-4.4
G1 Y54.1
G1 X74.6364 Y54.3636
G0 Z3.0
G0 X95.6364
G0 Z-2.3
G1 F300.0 Z-4.4
G1 F800.0 X95.9 Y54.1
G1 X97.25
G1 X97.75 Z-4.1
G1 X99.75
G1 X100.25 Z-4.4
G1 X109.1
G1 X109.3636 Y54.3636
G1 X109.1 Y54.1
G1 Y45.25
G1 Y44.75 Z-4.1
G1 Y42.75
G1 Y42.25 Z-4.4
G1 Y25.9
G1 X109.3636 Y25.6364
G1 X109.1 Y25.9
G1 X107.75
G1 X107.25 Z-4.1
G1 X105.25
G1 X104.75 Z-4.4
G1 X95.9
G1 X95.6364 Y25.6364
G1 X95.9 Y25.9
G1 Y34.75
G1 Y35.25 Z-4.1
G1 Y37.25
G1 Y37.75 Z-4.4
G1 Y54.1
G1 X95.6364 Y54.3636
G0 Z3.0
G0 X116.6364
G0 Z-2.3
G1 F300.0 Z-4.4
G1 F800.0 X116.9 Y54.1
G1 X118.25
G1 X118.75 Z-4.1
G1 X120.75
G1 X121.25 Z-4.4
G1 X130.1
G1 X130.3636 Y54.3636
G1 X130.1 Y54.1
G1 Y45.25
G1 Y44.75 Z-4.1
G1 Y42.75
G1 Y42.25 Z-4.4
G1 Y25.9
G1 X130.3636 Y25.6364
G1 X130.1 Y25.9
G1 X128.75
G1 X128.25 Z-4.1
G1 X126.25
G1 X125.75 Z-4.4
G1 X116.9
G1 X116.6364 Y25.6364
G1 X116.9 Y25.9
G1 Y34.75
G1 Y35.25 Z-4.1
G1 Y37.25
G1 Y37.75 Z-4.4
G1 Y54.1
G1 X116.6364 Y54.3636
G0 Z3.0
G0 X137.6364
G0 Z-2.3
G1 F300.0 Z-4.4
G1 F800.0 X137.9 Y54.1
G1 X139.25
G1 X139.75 Z-4.1
G1 X141.75
G1 X142.25 Z-4.4
G1 X151.1
G1 X151.3636 Y54.3636
G1 X151.1 Y54.1
G1 Y45.25
G1 Y44.75 Z-4.1
G1 Y42.75
G1 Y42.25 Z-4.4
G1 Y25.9
G1 X151.3636 Y25.6364
G1 X151.1 Y25.9
G1 X149.75
G1 X149.25 Z-4.1
G1 X147.25
G1 X146.75 Z-4.4
G1 X137.9
G1 X137.6364 Y25.6364
G1 X137.9 Y25.9
G1 Y34.75
G1 Y35.25 Z-4.1
G1 Y37.25
G1 Y37.75 Z-4.4
G1 Y54.1
G1 X137.6364 Y54.3636
G0 Z3.0
G0 X158.6364
G0 Z-2.3
G1 F300.0 Z-4.4
G1 F800.0 X158.9 Y54.1
G1 X160.25
G1 X160.75 Z-4.1
G1 X162.75
G1 X163.25 Z-4.4
G1 X172.1
G1 X172.3636 Y54.3636
G1 X172.1 Y54.1
G1 Y45.25
G1 Y44.75 Z-4.1
G1 Y42.75
G1 Y42.25 Z-4.4
G1 Y25.9
G1 X172.3636 Y25.6364
G1 X172.1 Y25.9
G1 X170.75
G1 X170.25 Z-4.1
G1 X168.25
G1 X167.75 Z-4.4
G1 X158.9
G1 X158.6364 Y25.6364
G1 X158.9 Y25.9
G1 Y34.75
G1 Y35.25 Z-4.1
G1 Y37.25
G1 Y37.75 Z-4.4
G1 Y54.1
G1 X158.6364 Y54.3636
G0 Z3.0
G0 X179.6364
G0 Z-2.3
G1 F300.0 Z-4.4
G1 F800.0 X179.9 Y54.1
G1 X181.25
G1 X181.75 Z-4.1
G1 X183.75
G1 X184.25 Z-4.4
G1 X193.1
G1 X193.3636 Y54.3636
G1 X193.1 Y54.1
G1 Y45.25
G1 Y44.75 Z-4.1
G1 Y42.75
G1 Y42.25 Z-4.4
G1 Y25.9
G1 X193.3636 Y25.6364
G1 X193.1 Y25.9
G1 X191.75
G1 X191.25 Z-4.1
G1 X189.25
G1 X188.75 Z-4.4
G1 X179.9
G1 X179.6364 Y25.6364
G1 X179.9 Y25.9
G1 Y34.75
G1 Y35.25 Z-4.1
G1 Y37.25
G1 Y37.75 Z-4.4
G1 Y54.1
G1 X179.6364 Y54.3636
G0 Z3.0
G0 X200.6364
G0 Z-2.3
G1 F300.0 Z-4.4
G1 F800.0 X200.9 Y54.1
G1 X202.25
G1 X202.75 Z-4.1
G1 X204.75
G1 X205.25 Z-4.4
G1 X214.1
G1 X214.3636 Y54.3636
G1 X214.1 Y54.1
G1 Y45.25
G1 Y44.75 Z-4.1
G1 Y42.75
G1 Y42.25 Z-4.4
G1 Y25.9
G1 X214.3636 Y25.6364
G1 X214.1 Y25.9
G1 X212.75
G1 X212.25 Z-4.1
G1 X210.25
G1 X209.75 Z-4.4
G1 X200.9
G1 X200.6364 Y25.6364
G1 X200.9 Y25.9
G1 Y34.75
G1 Y35.25 Z-4.1
G1 Y37.25
G1 Y37.75 Z-4.4
G1 Y54.1
G1 X200.6364 Y54.3636
G0 Z3.0
G0 X221.6364
G0 Z-2.3
G1 F300.0 Z-4.4
G1 F800.0 X221.9 Y54.1
G1 X223.25
G1 X223.75 Z-4.1
G1 X225.75
G1 X226.25 Z-4.4
G1 X235.1
G1 X235.3636 Y54.3636
G1 X235.1 Y54.1
G1 Y45.25
G1 Y44.75 Z-4.1
G1 Y42.75
G1 Y42.25 Z-4.4
G1 Y25.9
G1 X235.3636 Y25.6364
G1 X235.1 Y25.9
G1 X233.75
G1 X233.25 Z-4.1
G1 X231.25
G1 X230.75 Z-4.4
G1 X221.9
G1 X221.6364 Y25.6364
G1 X221.9 Y25.9
G1 Y34.75
G1 Y35.25 Z-4.1
G1 Y37.25
G1 Y37.75 Z-4.4
G1 Y54.1
G1 X221.6364 Y54.3636
G0 Z3.0
G0 X242.6364
G0 Z-2.3
G1 F300.0 Z-4.4
G1 F800.0 X242.9 Y54.1
G1 X244.25
G1 X244.75 Z-4.1
G1 X246.75
G1 X247.25 Z-4.4
G1 X256.1
G1 X256.3636 Y54.3636
G1 X256.1 Y54.1
G1 Y45.25
G1 Y44.75 Z-4.1
G1 Y42.75
G1 Y42.25 Z-4.4
G1 Y25.9
G1 X256.3636 Y25.6364
G1 X256.1 Y25.9
G1 X254.75
G1 X254.25 Z-4.1
G1 X252.25
G1 X251.75 Z-4.4
G1 X242.9
G1 X242.6364 Y25.6364
G1 X242.9 Y25.9
G1 Y34.75
G1 Y35.25 Z-4.1
G1 Y37.25
G1 Y37.75 Z-4.4
G1 Y54.1
G1 X242.6364 Y54.3636
G1 F300.0 Z-5.1
G1 F800.0 X242.9 Y54.1
G1 X244.25
G1 X244.75 Z-4.1
G1 X246.75
G1 X247.25 Z-5.1
G1 X256.1
G1 X256.3636 Y54.3636
G1 X256.1 Y54.1
G1 Y45.25
G1 Y44.75 Z-4.1
G1 Y42.75
G1 Y42.25 Z-5.1
G1 Y25.9
G1 X256.3636 Y25.6364
G1 X256.1 Y25.9
G1 X254.75
G1 X254.25 Z-4.1
G1 X252.25
G1 X251.75 Z-5.1
G1 X242.9
G1 X242.6364 Y25.6364
G1 X242.9 Y25.9
G1 Y34.75
G1 Y35.25 Z-4.1
G1 Y37.25
G1 Y37.75 Z-5.1
G1 Y54.1
G1 X242.6364 Y54.3636
G0 Z3.0
G0 Y61.6364
G0 Z-3.4
G1 F300.0 Z-5.1
G1 F800.0 X242.9 Y61.9
G1 Y70.75
G1 Y71.25 Z-4.1
G1 Y73.25
G1 Y73.75 Z-5.1
G1 Y90.1
G1 X242.6364 Y90.3636
G1 X242.9 Y90.1
G1 X244.25
G1 X244.75 Z-4.1
G1 X246.75
G1 X247.25 Z-5.1
G1 X256.1
G1 X256.3636 Y90.3636
G1 X256.1 Y90.1
G1 Y81.25
G1 Y80.75 Z-4.1
G1 Y78.75
G1 Y78.25 Z-5.1
G1 Y61.9
G1 X256.3636 Y61.6364
G1 X256.1 Y61.9
G1 X254.75
G1 X254.25 Z-4.1
G1 X252.25
G1 X251.75 Z-5.1
G1 X242.9
G1 X242.6364 Y61.6364
G0 Z3.0
G0 X235.3636
G0 Z-3.4
G1 F300.0 Z-5.1
G1 F800.0 X235.1 Y61.9
G1 X233.75
G1 X233.25 Z-4.1
G1 X231.25
G1 X230.75 Z-5.1
G1 X221.9
G1 X221.6364 Y61.6364
G1 X221.9 Y61.9
G1 Y70.75
G1 Y71.25 Z-4.1
G1 Y73.25
G1 Y73.75 Z-5.1
G1 Y90.1
G1 X221.6364 Y90.3636
G1 X221.9 Y90.1
G1 X223.25
G1 X223.75 Z-4.1
G1 X225.75
G1 X226.25 Z-5.1
G1 X235.1
G1 X235.3636 Y90.3636
G1 X235.1 Y90.1
G1 Y81.25
G1 Y80.75 Z-4.1
G1 Y78.75
G1 Y78.25 Z-5.1
G1 Y61.9
G1 X235.3636 Y61.6364
G0 Z3.0
G0 Y54.3636
G0 Z-3.4
G1 F300.0 Z-5.1
G1 F800.0 X235.1 Y54.1
G1 Y45.25
G1 Y44.75 Z-4.1
G1 Y42.75
G1 Y42.25 Z-5.1
G1 Y25.9
G1 X235.3636 Y25.6364
G1 X235.1 Y25.9
G1 X233.75
G1 X233.25 Z-4.1
G1 X231.25
G1 X230.75 Z-5.1
G1 X221.9
G1 X221.6364 Y25.6364
G1 X221.9 Y25.9
G1 Y34.75
G1 Y35.25 Z-4.1
G1 Y37.25
G1 Y37.75 Z-5.1
G1 Y54.1
G1 X221.6364 Y54.3636
G1 X221.9 Y54.1
G1 X223.25
G1 X223.75 Z-4.1
G1 X225.75
G1 X226.25 Z-5.1
G1 X235.1
G1 X235.3636 Y54.3636
G0 Z3.0
G0 X214.3636
G0 Z-3.4
G1 F300.0 Z-5.1
G1 F800.0 X214.1 Y54.1
G1 Y45.25
G1 Y44.75 Z-4.1
G1 Y42.75
G1 Y42.25 Z-5.1
G1 Y25.9
G1 X214.3636 Y25.6364
G1 X214.1 Y25.9
G1 X212.75
G1 X212.25 Z-4.1
G1 X210.25
G1 X209.75 Z-5.1
G1 X200.9
G1 X200.6364 Y25.6364
G1 X200.9 Y25.9
G1 Y34.75
G1 Y35.25 Z-4.1
G1 Y37.25
G1 Y37.75 Z-5.1
G1 Y54.1
G1 X200.6364 Y54.3636
G1 X200.9 Y54.1
G1 X202.25
G1 X202.75 Z-4.1
G1 X204.75
G1 X205.25 Z-5.1
G1 X214.1
G1 X214.3636 Y54.3636
G0 Z3.0
G0 Y61.6364
G0 Z-3.4
G1 F300.0 Z-5.1
G1 F800.0 X214.1 Y61.9
G1 X212.75
G1 X212.25 Z-4.1
G1 X210.25
G1 X209.75 Z-5.1
G1 X200.9
G1 X200.6364 Y61.6364
G1 X200.9 Y61.9
G1 Y70.75
G1 Y71.25 Z-4.1
G1 Y73.25
G1 Y73.75 Z-5.1
G1 Y90.1
G1 X200.6364 Y90.3636
G1 X200.9 Y90.1
G1 X202.25
G1 X202.75 Z-4.1
G1 X204.75
G1 X205.25 Z-5.1
G1 X214.1
G1 X214.3636 Y90.3636
G1 X214.1 Y90.1
G1 Y81.25
G1 Y80.75 Z-4.1
G1 Y78.75
G1 Y78.25 Z-5.1
G1 Y61.9
G1 X214.3636 Y61.6364
G0 Z3.0
G0 X193.3636
G0 Z-3.4
G1 F300.0 Z-5.1
G1 F800.0 X193.1 Y61.9
G1 X191.75
G1 X191.25 Z-4.1
G1 X189.25
G1 X188.75 Z-5.1
G1 X179.9
G1 X179.6364 Y61.6364
G1 X179.9 Y61.9
G1 Y70.75
G1 Y71.25 Z-4.1
G1 Y73.25
G1 Y73.75 Z-5.1
G1 Y90.1
G1 X179.6364 Y90.3636
G1 X179.9 Y90.1
G1 X181.25
G1 X181.75 Z-4.1
G1 X183.75
G1 X184.25 Z-5.1
G1 X193.1
G1 X193.3636 Y90.3636
G1 X193.1 Y90.1
G1 Y81.25
G1 Y80.75 Z-4.1
G1 Y78.75
G1 Y78.25 Z-5.1
G1 Y61.9
G1 X193.3636 Y61.6364
G0 Z3.0
G0 Y54.3636
G0 Z-3.4
G1 F300.0 Z-5.1
G1 F800.0 X193.1 Y54.1
G1 Y45.25
G1 Y44.75 Z-4.1
G1 Y42.75
G1 Y42.25 Z-5.1
G1 Y25.9
G1 X193.3636 Y25.6364
G1 X193.1 Y25.9
G1 X191.75
G1 X191.25 Z-4.1
G1 X189.25
G1 X188.75 Z-5.1
G1 X179.9
G1 X179.6364 Y25.6364
G1 X179.9 Y25.9
G1 Y34.75
G1 Y35.25 Z-4.1
G1 Y37.25
G1 Y37.75 Z-5.1
G1 Y54.1
G1 X179.6364 Y54.3636
G1 X179.9 Y54.1
G1 X181.25
G1 X181.75 Z-4.1
G1 X183.75
G1 X184.25 Z-5.1
G1 X193.1
G1 X193.3636 Y54.3636
G0 Z3.0
G0 X172.3636
G0 Z-3.4
G1 F300.0 Z-5.1
G1 F800.0 X172.1 Y54.1
G1 Y45.25
G1 Y44.75 Z-4.1
G1 Y42.75
G1 Y42.25 Z-5.1
G1 Y25.9
G1 X172.3636 Y25.6364
G1 X172.1 Y25.9
G1 X170.75
G1 X170.25 Z-4.1
G1 X168.25
G1 X167.75 Z-5.1
G1 X158.9
G1 X158.6364 Y25.6364
G1 X158.9 Y25.9
G1 Y34.75
G1 Y35.25 Z-4.1
G1 Y37.25
G1 Y37.75 Z-5.1
G1 Y54.1
G1 X158.6364 Y54.3636
G1 X158.9 Y54.1
G1 X160.25
G1 X160.75 Z-4.1
G1 X162.75
G1 X163.25 Z-5.1
G1 X172.1
G1 X172.3636 Y54.3636
G0 Z3.0
G0 Y61.6364
G0 Z-3.4
G1 F300.0 Z-5.1
G1 F800.0 X172.1 Y61.9
G1 X170.75
G1 X170.25 Z-4.1
G1 X168.25
G1 X167.75 Z-5.1
G1 X158.9
G1 X158.6364 Y61.6364
G1 X158.9 Y61.9
G1 Y70.75
G1 Y71.25 Z-4.1
G1 Y73.25
G1 Y73.75 Z-5.1
G1 Y90.1
G1 X158.6364 Y90.3636
G1 X158.9 Y90.1
G1 X160.25
G1 X160.75 Z-4.1
G1 X162.75
G1 X163.25 Z-5.1
G1 X172.1
G1 X172.3636 Y90.3636
G1 X172.1 Y90.1
G1 Y81.25
G1 Y80.75 Z-4.1
G1 Y78.75
G1 Y78.25 Z-5.1
G1 Y61.9
G1 X172.3636 Y61.6364
G0 Z3.0
G0 X151.3636
G0 Z-3.4
G1 F300.0 Z-5.1
G1 F800.0 X151.1 Y61.9
G1 X149.75
G1 X149.25 Z-4.1
G1 X147.25
G1 X146.75 Z-5.1
G1 X137.9
G1 X137.6364 Y61.6364
G1 X137.9 Y61.9
G1 Y70.75
G1 Y71.25 Z-4.1
G1 Y73.25
G1 Y73.75 Z-5.1
G1 Y90.1
G1 X137.6364 Y90.3636
G1 X137.9 Y90.1
G1 X139.25
G1 X139.75 Z-4.1
G1 X141.75
G1 X142.25 Z-5.1
G1 X151.1
G1 X151.3636 Y90.3636
G1 X151.1 Y90.1
G1 Y81.25
G1 Y80.75 Z-4.1
G1 Y78.75
G1 Y78.25 Z-5.1
G1 Y61.9
G1 X151.3636 Y61.6364
G0 Z3.0
G0 Y54.3636
G0 Z-3.4
G1 F300.0 Z-5.1
G1 F800.0 X151.1 Y54.1
G1 Y45.25
G1 Y44.75 Z-4.1
G1 Y42.75
G1 Y42.25 Z-5.1
G1 Y25.9
G1 X151.3636 Y25.6364
G1 X151.1 Y25.9
G1 X149.75
G1 X149.25 Z-4.1
G1 X147.25
G1 X146.75 Z-5.1
G1 X137.9
G1 X137.6364 Y25.6364
G1 X137.9 Y25.9
G1 Y34.75
G1 Y35.25 Z-4.1
G1 Y37.25
G1 Y37.75 Z-5.1
G1 Y54.1
G1 X137.6364 Y54.3636
G1 X137.9 Y54.1
G1 X139.25
G1 X139.75 Z-4.1
G1 X141.75
G1 X142.25 Z-5.1
G1 X151.1
G1 X151.3636 Y54.3636
G0 Z3.0
G0 X130.3636
G0 Z-3.4
G1 F300.0 Z-5.1
G1 F800.0 X130.1 Y54.1
G1 Y45.25
G1 Y44.75 Z-4.1
G1 Y42.75
G1 Y42.25 Z-5.1
G1 Y25.9
G1 X130.3636 Y25.6364
G1 X130.1 Y25.9
G1 X128.75
G1 X128.25 Z-4.1
G1 X126.25
G1 X125.75 Z-5.1
G1 X116.9
G1 X116.6364 Y25.6364
G1 X116.9 Y25.9
G1 Y34.75
G1 Y35.25 Z-4.1
G1 Y37.25
G1 Y37.75 Z-5.1
G1 Y54.1
G1 X116.6364 Y54.3636
G1 X116.9 Y54.1
G1 X118.25
G1 X118.75 Z-4.1
G1 X120.75
G1 X121.25 Z-5.1
G1 X130.1
G1 X130.3636 Y54.3636
G0 Z3.0
G0 Y61.6364
G0 Z-3.4
G1 F300.0 Z-5.1
G1 F800.0 X130.1 Y61.9
G1 X128.75
G1 X128.25 Z-4.1
G1 X126.25
G1 X125.75 Z-5.1
G1 X116.9
G1 X116.6364 Y61.6364
G1 X116.9 Y61.9
G1 Y70.75
G1 Y71.25 Z-4.1
G1 Y73.25
G1 Y73.75 Z-5.1
G1 Y90.1
G1 X116.6364 Y90.3636
G1 X116.9 Y90.1
G1 X118.25
G1 X118.75 Z-4.1
G1 X120.75
G1 X121.25 Z-5.1
G1 X130.1
G1 X130.3636 Y90.3636
G1 X130.1 Y90.1
G1 Y81.25
G1 Y80.75 Z-4.1
G1 Y78.75
G1 Y78.25 Z-5.1
G1 Y61.9
G1 X130.3636 Y61.6364
G0 Z3.0
G0 X109.3636
G0 Z-3.4
G1 F300.0 Z-5.1
G1 F800.0 X109.1 Y61.9
G1 X107.75
G1 X107.25 Z-4.1
G1 X105.25
G1 X104.75 Z-5.1
G1 X95.9
G1 X95.6364 Y61.6364
G1 X95.9 Y61.9
G1 Y70.75
G1 Y71.25 Z-4.1
G1 Y73.25
G1 Y73.75 Z-5.1
G1 Y90.1
G1 X95.6364 Y90.3636
G1 X95.9 Y90.1
G1 X97.25
G1 X97.75 Z-4.1
G1 X99.75
G1 X100.25 Z-5.1
G1 X109.1
G1 X109.3636 Y90.3636
G1 X109.1 Y90.1
G1 Y81.25
G1 Y80.75 Z-4.1
G1 Y78.75
G1 Y78.25 Z-5.1
G1 Y61.9
G1 X109.3636 Y61.6364
G0 Z3.0
G0 Y54.3636
G0 Z-3.4
G1 F300.0 Z-5.1
G1 F800.0 X109.1 Y54.1
G1 Y45.25
G1 Y44.75 Z-4.1
G1 Y42.75
G1 Y42.25 Z-5.1
G1 Y25.9
G1 X109.3636 Y25.6364
G1 X109.1 Y25.9
G1 X107.75
G1 X107.25 Z-4.1
G1 X105.25
G1 X104.75 Z-5.1
G1 X95.9
G1 X95.6364 Y25.6364
G1 X95.9 Y25.9
G1 Y34.75
G1 Y35.25 Z-4.1
G1 Y37.25
G1 Y37.75 Z-5.1
G1 Y54.1
G1 X95.6364 Y54.3636
G1 X95.9 Y54.1
G1 X97.25
G1 X97.75 Z-4.1
G1 X99.75
G1 X100.25 Z-5.1
G1 X109.1
G1 X109.3636 Y54.3636
G0 Z3.0
G0 X88.3636
G0 Z-3.4
G1 F300.0 Z-5.1
G1 F800.0 X88.1 Y54.1
G1 Y45.25
G1 Y44.75 Z-4.1
G1 Y42.75
G1 Y42.25 Z-5.1
G1 Y25.9
G1 X88.3636 Y25.6364
G1 X88.1 Y25.9
G1 X86.75
G1 X86.25 Z-4.1
G1 X84.25
G1 X83.75 Z-5.1
G1 X74.9
G1 X74.6364 Y25.6364
G1 X74.9 Y25.9
G1 Y34.75
G1 Y35.25 Z-4.1
G1 Y37.25
G1 Y37.75 Z-5.1
G1 Y54.1
G1 X74.6364 Y54.3636
G1 X74.9 Y54.1
G1 X76.25
G1 X76.75 Z-4.1
G1 X78.75
G1 X79.25 Z-5.1
G1 X88.1
G1 X88.3636 Y54.3636
G0 Z3.0
G0 Y61.6364
G0 Z-3.4
G1 F300.0 Z-5.1
G1 F800.0 X88.1 Y61.9
G1 X86.75
G1 X86.25 Z-4.1
G1 X84.25
G1 X83.75 Z-5.1
G1 X74.9
G1 X74.6364 Y61.6364
G1 X74.9 Y61.9
G1 Y70.75
G1 Y71.25 Z-4.1
G1 Y73.25
G1 Y73.75 Z-5.1
G1 Y90.1
G1 X74.6364 Y90.3636
G1 X74.9 Y90.1
G1 X76.25
G1 X76.75 Z-4.1
G1 X78.75
G1 X79.25 Z-5.1
G1 X88.1
G1 X88.3636 Y90.3636
G1 X88.1 Y90.1
G1 Y81.25
G1 Y80.75 Z-4.1
G1 Y78.75
G1 Y78.25 Z-5.1
G1 Y61.9
G1 X88.3636 Y61.6364
G0 Z3.0
G0 X67.3636
G0 Z-3.4
G1 F300.0 Z-5.1
G1 F800.0 X67.1 Y61.9
G1 X65.75
G1 X65.25 Z-4.1
G1 X63.25
G1 X62.75 Z-5.1
G1 X53.9
G1 X53.6364 Y61.6364
G1 X53.9 Y61.9
G1 Y70.75
G1 Y71.25 Z-4.1
G1 Y73.25
G1 Y73.75 Z-5.1
G1 Y90.1
G1 X53.6364 Y90.3636
G1 X53.9 Y90.1
G1 X55.25
G1 X55.75 Z-4.1
G1 X57.75
G1 X58.25 Z-5.1
G1 X67.1
G1 X67.3636 Y90.3636
G1 X67.1 Y90.1
G1 Y81.25
G1 Y80.75 Z-4.1
G1 Y78.75
G1 Y78.25 Z-5.1
G1 Y61.9
G1 X67.3636 Y61.6364
G0 Z3.0
G0 Y54.3636
G0 Z-3.4
G1 F300.0 Z-5.1
G1 F800.0 X67.1 Y54.1
G1 Y45.25
G1 Y44.75 Z-4.1
G1 Y42.75
G1 Y42.25 Z-5.1
G1 Y25.9
G1 X67.3636 Y25.6364
G1 X67.1 Y25.9
G1 X65.75
G1 X65.25 Z-4.1
G1 X63.25
G1 X62.75 Z-5.1
G1 X53.9
G1 X53.6364 Y25.6364
G1 X53.9 Y25.9
G1 Y34.75
G1 Y35.25 Z-4.1
G1 Y37.25
G1 Y37.75 Z-5.1
G1 Y54.1
G1 X53.6364 Y54.3636
G1 X53.9 Y54.1
G1 X55.25
G1 X55.75 Z-4.1
G1 X57.75
G1 X58.25 Z-5.1
G1 X67.1
G1 X67.3636 Y54.3636
G0 Z3.0
G0 X46.3636
G0 Z-3.4
G1 F300.0 Z-5.1
G1 F800.0 X46.1 Y54.1
G1 Y45.25
G1 Y44.75 Z-4.1
G1 Y42.75
G1 Y42.25 Z-5.1
G1 Y25.9
G1 X46.3636 Y25.6364
G1 X46.1 Y25.9
G1 X44.75
G1 X44.25 Z-4.1
G1 X42.25
G1 X41.75 Z-5.1
G1 X32.9
G1 X32.6364 Y25.6364
G1 X32.9 Y25.9
G1 Y34.75
G1 Y35.25 Z-4.1
G1 Y37.25
G1 Y37.75 Z-5.1
G1 Y54.1
G1 X32.6364 Y54.3636
G1 X32.9 Y54.1
G1 X34.25
G1 X34.75 Z-4.1
G1 X36.75
G1 X37.25 Z-5.1
G1 X46.1
G1 X46.3636 Y54.3636
G0 Z3.0
G0 Y61.6364
G0 Z-3.4
G1 F300.0 Z-5.1
G1 F800.0 X46.1 Y61.9
G1 X44.75
G1 X44.25 Z-4.1
G1 X42.25
G1 X41.75 Z-5.1
G1 X32.9
G1 X32.6364 Y61.6364
G1 X32.9 Y61.9
G1 Y70.75
G1 Y71.25 Z-4.1
G1 Y73.25
G1 Y73.75 Z-5.1
G1 Y90.1
G1 X32.6364 Y90.3636
G1 X32.9 Y90.1
G1 X34.25
G1 X34.75 Z-4.1
G1 X36.75
G1 X37.25 Z-5.1
G1 X46.1
G1 X46.3636 Y90.3636
G1 X46.1 Y90.1
G1 Y81.25
G1 Y80.75 Z-4.1
G1 Y78.75
G1 Y78.25 Z-5.1
G1 Y61.9
G1 X46.3636 Y61.6364
G0 Z3.0
G0 Y97.6364
G0 Z-3.4
G1 F300.0 Z-5.1
G1 F800.0 X46.1 Y97.9
G1 X44.75
G1 X44.25 Z-4.1
G1 X42.25
G1 X41.75 Z-5.1
G1 X32.9
G1 X32.6364 Y97.6364
G1 X32.9 Y97.9
G1 Y106.75
G1 Y107.25 Z-4.1
G1 Y109.25
G1 Y109.75 Z-5.1
G1 Y126.1
G1 X32.6364 Y126.3636
G1 X32.9 Y126.1
G1 X34.25
G1 X34.75 Z-4.1
G1 X36.75
G1 X37.25 Z-5.1
G1 X46.1
G1 X46.3636 Y126.3636
G1 X46.1 Y126.1
G1 Y117.25
G1 Y116.75 Z-4.1
G1 Y114.75
G1 Y114.25 Z-5.1
G1 Y97.9
G1 X46.3636 Y97.6364
G0 Z3.0
G0 X53.6364
G0 Z-3.4
G1 F300.0 Z-5.1
G1 F800.0 X53.9 Y97.9
G1 Y106.75
G1 Y107.25 Z-4.1
G1 Y109.25
G1 Y109.75 Z-5.1
G1 Y126.1
G1 X53.6364 Y126.3636
G1 X53.9 Y126.1
G1 X55.25
G1 X55.75 Z-4.1
G1 X57.75
G1 X58.25 Z-5.1
G1 X67.1
G1 X67.3636 Y126.3636
G1 X67.1 Y126.1
G1 Y117.25
G1 Y116.75 Z-4.1
G1 Y114.75
G1 Y114.25 Z-5.1
G1 Y97.9
G1 X67.3636 Y97.6364
G1 X67.1 Y97.9
G1 X65.75
G1 X65.25 Z-4.1
G1 X63.25
G1 X62.75 Z-5.1
G1 X53.9
G1 X53.6364 Y97.6364
G0 Z3.0
G0 X74.6364
G0 Z-3.4
G1 F300.0 Z-5.1
G1 F800.0 X74.9 Y97.9
G1 Y106.75
G1 Y107.25 Z-4.1
G1 Y109.25
G1 Y109.75 Z-5.1
G1 Y126.1
G1 X74.6364 Y126.3636
G1 X74.9 Y126.1
G1 X76.25
G1 X76.75 Z-4.1
G1 X78.75
G1 X79.25 Z-5.1
G1 X88.1
G1 X88.3636 Y126.3636
G1 X88.1 Y126.1
G1 Y117.25
G1 Y116.75 Z-4.1
G1 Y114.75
G1 Y114.25 Z-5.1
G1 Y97.9
G1 X88.3636 Y97.6364
G1 X88.1 Y97.9
G1 X86.75
G1 X86.25 Z-4.1
G1 X84.25
G1 X83.75 Z-5.1
G1 X74.9
G1 X74.6364 Y97.6364
G0 Z3.0
G0 X95.6364
G0 Z-3.4
G1 F300.0 Z-5.1
G1 F800.0 X95.9 Y97.9
G1 Y106.75
G1 Y107.25 Z-4.1
G1 Y109.25
G1 Y109.75 Z-5.1
G1 Y126.1
G1 X95.6364 Y126.3636
G1 X95.9 Y126.1
G1 X97.25
G1 X97.75 Z-4.1
G1 X99.75
G1 X100.25 Z-5.1
G1 X109.1
G1 X109.3636 Y126.3636
G1 X109.1 Y126.1
G1 Y117.25
G1 Y116.75 Z-4.1
G1 Y114.75
G1 Y114.25 Z-5.1
G1 Y97.9
G1 X109.3636 Y97.6364
G1 X109.1 Y97.9
G1 X107.75
G1 X107.25 Z-4.1
G1 X105.25
G1 X104.75 Z-5.1
G1 X95.9
G1 X95.6364 Y97.6364
G0 Z3.0
G0 X116.6364
G0 Z-3.4
G1 F300.0 Z-5.1
G1 F800.0 X116.9 Y97.9
G1 Y106.75
G1 Y107.25 Z-4.1
G1 Y109.25
G1 Y109.75 Z-5.1
G1 Y126.1
G1 X116.6364 Y126.3636
G1 X116.9 Y126.1
G1 X118.25
G1 X118.75 Z-4.1
G1 X120.75
G1 X121.25 Z-5.1
G1 X130.1
G1 X130.3636 Y126.3636
G1 X130.1 Y126.1
G1 Y117.25
G1 Y116.75 Z-4.1
G1 Y114.75
G1 Y114.25 Z-5.1
G1 Y97.9
G1 X130.3636 Y97.6364
G1 X130.1 Y97.9
G1 X128.75
G1 X128.25 Z-4.1
G1 X126.25
G1 X125.75 Z-5.1
G1 X116.9
G1 X116.6364 Y97.6364
G0 Z3.0
G0 X137.6364
G0 Z-3.4
G1 F300.0 Z-5.1
G1 F800.0 X137.9 Y97.9
G1 Y106.75
G1 Y107.25 Z-4.1
G1 Y109.25
G1 Y109.75 Z-5.1
G1 Y126.1
G1 X137.6364 Y126.3636
G1 X137.9 Y126.1
G1 X139.25
G1 X139.75 Z-4.1
G1 X141.75
G1 X142.25 Z-5.1
G1 X151.1
G1 X151.3636 Y126.3636
G1 X151.1 Y126.1
G1 Y117.25
G1 Y116.75 Z-4.1
G1 Y114.75
G1 Y114.25 Z-5.1
G1 Y97.9
G1 X151.3636 Y97.6364
G1 X151.1 Y97.9
G1 X149.75
G1 X149.25 Z-4.1
G1 X147.25
G1 X146.75 Z-5.1
G1 X137.9
G1 X137.6364 Y97.6364
G0 Z3.0
G0 X158.6364
G0 Z-3.4
G1 F300.0 Z-5.1
G1 F800.0 X158.9 Y97.9
G1 Y106.75
G1 Y107.25 Z-4.1
G1 Y109.25
G1 Y109.75 Z-5.1
G1 Y126.1
G1 X158.6364 Y126.3636
G1 X158.9 Y126.1
G1 X160.25
G1 X160.75 Z-4.1
G1 X162.75
G1 X163.25 Z-5.1
G1 X172.1
G1 X172.3636 Y126.3636
G1 X172.1 Y126.1
G1 Y117.25
G1 Y116.75 Z-4.1
G1 Y114.75
G1 Y114.25 Z-5.1
G1 Y97.9
G1 X172.3636 Y97.6364
G1 X172.1 Y97.9
G1 X170.75
G1 X170.25 Z-4.1
G1 X168.25
G1 X167.75 Z-5.1
G1 X158.9
G1 X158.6364 Y97.6364
G0 Z3.0
G0 X179.6364
G0 Z-3.4
G1 F300.0 Z-5.1
G1 F800.0 X179.9 Y97.9
G1 Y106.75
G1 Y107.25 Z-4.1
G1 Y109.25
G1 Y109.75 Z-5.1
G1 Y126.1
G1 X179.6364 Y126.3636
G1 X179.9 Y126.1
G1 X181.25
G1 X181.75 Z-4.1
G1 X183.75
G1 X184.25 Z-5.1
G1 X193.1
G1 X193.3636 Y126.3636
G1 X193.1 Y126.1
G1 Y117.25
G1 Y116.75 Z-4.1
G1 Y114.75
G1 Y114.25 Z-5.1
G1 Y97.9
G1 X193.3636 Y97.6364
G1 X193.1 Y97.9
G1 X191.75
G1 X191.25 Z-4.1
G1 X189.25
G1 X188.75 Z-5.1
G1 X179.9
G1 X179.6364 Y97.6364
G0 Z3.0
G0 X200.6364
G0 Z-3.4
G1 F300.0 Z-5.1
G1 F800.0 X200.9 Y97.9
G1 Y106.75
G1 Y107.25 Z-4.1
G1 Y109.25
G1 Y109.75 Z-5.1
G1 Y126.1
G1 X200.6364 Y126.3636
G1 X200.9 Y126.1
G1 X202.25
G1 X202.75 Z-4.1
G1 X204.75
G1 X205.25 Z-5.1
G1 X214.1
G1 X214.3636 Y126.3636
G1 X214.1 Y126.1
G1 Y117.25
G1 Y116.75 Z-4.1
G1 Y114.75
G1 Y114.25 Z-5.1
G1 Y97.9
G1 X214.3636 Y97.6364
G1 X214.1 Y97.9
G1 X212.75
G1 X212.25 Z-4.1
G1 X210.25
G1 X209.75 Z-5.1
G1 X200.9
G1 X200.6364 Y97.6364
G0 Z3.0
G0 X221.6364
G0 Z-3.4
G1 F300.0 Z-5.1
G1 F800.0 X221.9 Y97.9
G1 Y106.75
G1 Y107.25 Z-4.1
G1 Y109.25
G1 Y109.75 Z-5.1
G1 Y126.1
G1 X221.6364 Y126.3636
G1 X221.9 Y126.1
G1 X223.25
G1 X223.75 Z-4.1
G1 X225.75
G1 X226.25 Z-5.1
G1 X235.1
G1 X235.3636 Y126.3636
G1 X235.1 Y126.1
G1 Y117.25
G1 Y116.75 Z-4.1
G1 Y114.75
G1 Y114.25 Z-5.1
G1 Y97.9
G1 X235.3636 Y97.6364
G1 X235.1 Y97.9
G1 X233.75
G1 X233.25 Z-4.1
G1 X231.25
G1 X230.75 Z-5.1
G1 X221.9
G1 X221.6364 Y97.6364
G0 Z3.0
G0 X242.6364
G0 Z-3.4
G1 F300.0 Z-5.1
G1 F800.0 X242.9 Y97.9
G1 Y106.75
G1 Y107.25 Z-4.1
G1 Y109.25
G1 Y109.75 Z-5.1
G1 Y126.1
G1 X242.6364 Y126.3636
G1 X242.9 Y126.1
G1 X244.25
G1 X244.75 Z-4.1
G1 X246.75
G1 X247.25 Z-5.1
G1 X256.1
G1 X256.3636 Y126.3636
G1 X256.1 Y126.1
G1 Y117.25
G1 Y116.75 Z-4.1
G1 Y114.75
G1 Y114.25 Z-5.1
G1 Y97.9
G1 X256.3636 Y97.6364
G1 X256.1 Y97.9
G1 X254.75
G1 X254.25 Z-4.1
G1 X252.25
G1 X251.75 Z-5.1
G1 X242.9
G1 X242.6364 Y97.6364
G0 Z3.0
G0 Y133.6364
G0 Z-3.4
G1 F300.0 Z-5.1
G1 F800.0 X242.9 Y133.9
G1 Y142.75
G1 Y143.25 Z-4.1
G1 Y145.25
G1 Y145.75 Z-5.1
G1 Y162.1
G1 X242.6364 Y162.3636
G1 X242.9 Y162.1
G1 X244.25
G1 X244.75 Z-4.1
G1 X246.75
G1 X247.25 Z-5.1
G1 X256.1
G1 X256.3636 Y162.3636
G1 X256.1 Y162.1
G1 Y153.25
G1 Y152.75 Z-4.1
G1 Y150.75
G1 Y150.25 Z-5.1
G1 Y133.9
G1 X256.3636 Y133.6364
G1 X256.1 Y133.9
G1 X254.75
G1 X254.25 Z-4.1
G1 X252.25
G1 X251.75 Z-5.1
G1 X242.9
G1 X242.6364 Y133.6364
G0 Z3.0
G0 X235.3636
G0 Z-3.4
G1 F300.0 Z-5.1
G1 F800.0 X235.1 Y133.9
G1 X233.75
G1 X233.25 Z-4.1
G1 X231.25
G1 X230.75 Z-5.1
G1 X221.9
G1 X221.6364 Y133.6364
G1 X221.9 Y133.9
G1 Y142.75
G1 Y143.25 Z-4.1
G1 Y145.25
G1 Y145.75 Z-5.1
G1 Y162.1
G1 X221.6364 Y162.3636
G1 X221.9 Y162.1
G1 X223.25
G1 X223.75 Z-4.1
G1 X225.75
G1 X226.25 Z-5.1
G1 X235.1
G1 X235.3636 Y162.3636
G1 X235.1 Y162.1
G1 Y153.25
G1 Y152.75 Z-4.1
G1 Y150.75
G1 Y150.25 Z-5.1
G1 Y133.9
G1 X235.3636 Y133.6364
G0 Z3.0
G0 X214.3636
G0 Z-3.4
G1 F300.0 Z-5.1
G1 F800.0 X214.1 Y133.9
G1 X212.75
G1 X212.25 Z-4.1
G1 X210.25
G1 X209.75 Z-5.1
G1 X200.9
G1 X200.6364 Y133.6364
G1 X200.9 Y133.9
G1 Y142.75
G1 Y143.25 Z-4.1
G1 Y145.25
G1 Y145.75 Z-5.1
G1 Y162.1
G1 X200.6364 Y162.3636
G1 X200.9 Y162.1
G1 X202.25
G1 X202.75 Z-4.1
G1 X204.75
G1 X205.25 Z-5.1
G1 X214.1
G1 X214.3636 Y162.3636
G1 X214.1 Y162.1
G1 Y153.25
G1 Y152.75 Z-4.1
G1 Y150.75
G1 Y150.25 Z-5.1
G1 Y133.9
G1 X214.3636 Y133.6364
G0 Z3.0
G0 X193.3636
G0 Z-3.4
G1 F300.0 Z-5.1
G1 F800.0 X193.1 Y133.9
G1 X191.75
G1 X191.25 Z-4.1
G1 X189.25
G1 X188.75 Z-5.1
G1 X179.9
G1 X179.6364 Y133.6364
G1 X179.9 Y133.9
G1 Y142.75
G1 Y143.25 Z-4.1
G1 Y145.25
G1 Y145.75 Z-5.1
G1 Y162.1
G1 X179.6364 Y162.3636
G1 X179.9 Y162.1
G1 X181.25
G1 X181.75 Z-4.1
G1 X183.75
G1 X184.25 Z-5.1
G1 X193.1
G1 X193.3636 Y162.3636
G1 X193.1 Y162.1
G1 Y153.25
G1 Y152.75 Z-4.1
G1 Y150.75
G1 Y150.25 Z-5.1
G1 Y133.9
G1 X193.3636 Y133.6364
G0 Z3.0
G0 X172.3636
G0 Z-3.4
G1 F300.0 Z-5.1
G1 F800.0 X172.1 Y133.9
G1 X170.75
G1 X170.25 Z-4.1
G1 X168.25
G1 X167.75 Z-5.1
G1 X158.9
G1 X158.6364 Y133.6364
G1 X158.9 Y133.9
G1 Y142.75
G1 Y143.25 Z-4.1
G1 Y145.25
G1 Y145.75 Z-5.1
G1 Y162.1
G1 X158.6364 Y162.3636
G1 X158.9 Y162.1
G1 X160.25
G1 X160.75 Z-4.1
G1 X162.75
G1 X163.25 Z-5.1
G1 X172.1
G1 X172.3636 Y162.3636
G1 X172.1 Y162.1
G1 Y153.25
G1 Y152.75 Z-4.1
G1 Y150.75
G1 Y150.25 Z-5.1
G1 Y133.9
G1 X172.3636 Y133.6364
G0 Z3.0
G0 X151.3636
G0 Z-3.4
G1 F300.0 Z-5.1
G1 F800.0 X151.1 Y133.9
G1 X149.75
G1 X149.25 Z-4.1
G1 X147.25
G1 X146.75 Z-5.1
G1 X137.9
G1 X137.6364 Y133.6364
G1 X137.9 Y133.9
G1 Y142.75
G1 Y143.25 Z-4.1
G1 Y145.25
G1 Y145.75 Z-5.1
G1 Y162.1
G1 X137.6364 Y162.3636
G1 X137.9 Y162.1
G1 X139.25
G1 X139.75 Z-4.1
G1 X141.75
G1 X142.25 Z-5.1
G1 X151.1
G1 X151.3636 Y162.3636
G1 X151.1 Y162.1
G1 Y153.25
G1 Y152.75 Z-4.1
G1 Y150.75
G1 Y150.25 Z-5.1
G1 Y133.9
G1 X151.3636 Y133.6364
G0 Z3.0
G0 X130.3636
G0 Z-3.4
G1 F300.0 Z-5.1
G1 F800.0 X130.1 Y133.9
G1 X128.75
G1 X128.25 Z-4.1
G1 X126.25
G1 X125.75 Z-5.1
G1 X116.9
G1 X116.6364 Y133.6364
G1 X116.9 Y133.9
G1 Y142.75
G1 Y143.25 Z-4.1
G1 Y145.25
G1 Y145.75 Z-5.1
G1 Y162.1
G1 X116.6364 Y162.3636
G1 X116.9 Y162.1
G1 X118.25
G1 X118.75 Z-4.1
G1 X120.75
G1 X121.25 Z-5.1
G1 X130.1
G1 X130.3636 Y162.3636
G1 X130.1 Y162.1
G1 Y153.25
G1 Y152.75 Z-4.1
G1 Y150.75
G1 Y150.25 Z-5.1
G1 Y133.9
G1 X130.3636 Y133.6364
G0 Z3.0
G0 X109.3636
G0 Z-3.4
G1 F300.0 Z-5.1
G1 F800.0 X109.1 Y133.9
G1 X107.75
G1 X107.25 Z-4.1
G1 X105.25
G1 X104.75 Z-5.1
G1 X95.9
G1 X95.6364 Y133.6364
G1 X95.9 Y133.9
G1 Y142.75
G1 Y143.25 Z-4.1
G1 Y145.25
G1 Y145.75 Z-5.1
G1 Y162.1
G1 X95.6364 Y162.3636
G1 X95.9 Y162.1
G1 X97.25
G1 X97.75 Z-4.1
G1 X99.75
G1 X100.25 Z-5.1
G1 X109.1
G1 X109.3636 Y162.3636
G1 X109.1 Y162.1
G1 Y153.25
G1 Y152.75 Z-4.1
G1 Y150.75
G1 Y150.25 Z-5.1
G1 Y133.9
G1 X109.3636 Y133.6364
G0 Z3.0
G0 X88.3636
G0 Z-3.4
G1 F300.0 Z-5.1
G1 F800.0 X88.1 Y133.9
G1 X86.75
G1 X86.25 Z-4.1
G1 X84.25
G1 X83.75 Z-5.1
G1 X74.9
G1 X74.6364 Y133.6364
G1 X74.9 Y133.9
G1 Y142.75
G1 Y143.25 Z-4.1
G1 Y145.25
G1 Y145.75 Z-5.1
G1 Y162.1
G1 X74.6364 Y162.3636
G1 X74.9 Y162.1
G1 X76.25
G1 X76.75 Z-4.1
G1 X78.75
G1 X79.25 Z-5.1
G1 X88.1
G1 X88.3636 Y162.3636
G1 X88.1 Y162.1
G1 Y153.25
G1 Y152.75 Z-4.1
G1 Y150.75
G1 Y150.25 Z-5.1
G1 Y133.9
G1 X88.3636 Y133.6364
G0 Z3.0
G0 X67.3636
G0 Z-3.4
G1 F300.0 Z-5.1
G1 F800.0 X67.1 Y133.9
G1 X65.75
G1 X65.25 Z-4.1
G1 X63.25
G1 X62.75 Z-5.1
G1 X53.9
G1 X53.6364 Y133.6364
G1 X53.9 Y133.9
G1 Y142.75
G1 Y143.25 Z-4.1
G1 Y145.25
G1 Y145.75 Z-5.1
G1 Y162.1
G1 X53.6364 Y162.3636
G1 X53.9 Y162.1
G1 X55.25
G1 X55.75 Z-4.1
G1 X57.75
G1 X58.25 Z-5.1
G1 X67.1
G1 X67.3636 Y162.3636
G1 X67.1 Y162.1
G1 Y153.25
G1 Y152.75 Z-4.1
G1 Y150.75
G1 Y150.25 Z-5.1
G1 Y133.9
G1 X67.3636 Y133.6364
G0 Z3.0
G0 X46.3636
G0 Z-3.4
G1 F300.0 Z-5.1
G1 F800.0 X46.1 Y133.9
G1 X44.75
G1 X44.25 Z-4.1
G1 X42.25
G1 X41.75 Z-5.1
G1 X32.9
G1 X32.6364 Y133.6364
G1 X32.9 Y133.9
G1 Y142.75
G1 Y143.25 Z-4.1
G1 Y145.25
G1 Y145.75 Z-5.1
G1 Y162.1
G1 X32.6364 Y162.3636
G1 X32.9 Y162.1
G1 X34.25
G1 X34.75 Z-4.1
G1 X36.75
G1 X37.25 Z-5.1
G1 X46.1
G1 X46.3636 Y162.3636
G1 X46.1 Y162.1
G1 Y153.25
G1 Y152.75 Z-4.1
G1 Y150.75
G1 Y150.25 Z-5.1
G1 Y133.9
G1 X46.3636 Y133.6364
G0 Z3.0
G0 Y169.6364
G0 Z-3.4
G1 F300.0 Z-5.1
G1 F800.0 X46.1 Y169.9
G1 X44.75
G1 X44.25 Z-4.1
G1 X42.25
G1 X41.75 Z-5.1
G1 X32.9
G1 X32.6364 Y169.6364
G1 X32.9 Y169.9
G1 Y178.75
G1 Y179.25 Z-4.1
G1 Y181.25
G1 Y181.75 Z-5.1
G1 Y198.1
G1 X32.6364 Y198.3636
G1 X32.9 Y198.1
G1 X34.25
G1 X34.75 Z-4.1
G1 X36.75
G1 X37.25 Z-5.1
G1 X46.1
G1 X46.3636 Y198.3636
G1 X46.1 Y198.1
G1 Y190.5
G1 Y190.0 Z-4.1
G1 Y188.0
G1 Y187.5 Z-5.1
G1 Y169.9
G1 X46.3636 Y169.6364
G0 Z3.0
G0 X53.6364
G0 Z-3.4
G1 F300.0 Z-5.1
G1 F800.0 X53.9 Y169.9
G1 Y177.5
G1 Y178.0 Z-4.1
G1 Y180.0
G1 Y180.5 Z-5.1
G1 Y198.1
G1 X53.6364 Y198.3636
G1 X53.9 Y198.1
G1 X55.25
G1 X55.75 Z-4.1
G1 X57.75
G1 X58.25 Z-5.1
G1 X67.1
G1 X67.3636 Y198.3636
G1 X67.1 Y198.1
G1 Y191.5
G1 Y191.0 Z-4.1
G1 Y189.0
G1 Y188.5 Z-5.1
G1 Y169.9
G1 X67.3636 Y169.6364
G1 X67.1 Y169.9
G1 X65.75
G1 X65.25 Z-4.1
G1 X63.25
G1 X62.75 Z-5.1
G1 X53.9
G1 X53.6364 Y169.6364
G0 Z3.0
G0 X74.6364
G0 Z-3.4
G1 F300.0 Z-5.1
G1 F800.0 X74.9 Y169.9
G1 Y177.5
G1 Y178.0 Z-4.1
G1 Y180.0
G1 Y180.5 Z-5.1
G1 Y198.1
G1 X74.6364 Y198.3636
G1 X74.9 Y198.1
G1 X76.25
G1 X76.75 Z-4.1
G1 X78.75
G1 X79.25 Z-5.1
G1 X88.1
G1 X88.3636 Y198.3636
G1 X88.1 Y198.1
G1 Y189.5
G1 Y189.0 Z-4.1
G1 Y187.0
G1 Y186.5 Z-5.1
G1 Y169.9
G1 X88.3636 Y169.6364
G1 X88.1 Y169.9
G1 X86.75
G1 X86.25 Z-4.1
G1 X84.25
G1 X83.75 Z-5.1
G1 X74.9
G1 X74.6364 Y169.6364
G0 Z3.0
G0 X95.6364
G0 Z-3.4
G1 F300.0 Z-5.1
G1 F800.0 X95.9 Y169.9
G1 Y177.5
G1 Y178.0 Z-4.1
G1 Y180.0
G1 Y180.5 Z-5.1
G1 Y198.1
G1 X95.6364 Y198.3636
G1 X95.9 Y198.1
G1 X97.25
G1 X97.75 Z-4.1
G1 X99.75
G1 X100.25 Z-5.1
G1 X109.1
G1 X109.3636 Y198.3636
G1 X109.1 Y198.1
G1 Y190.5
G1 Y190.0 Z-4.1
G1 Y188.0
G1 Y187.5 Z-5.1
G1 Y169.9
G1 X109.3636 Y169.6364
G1 X109.1 Y169.9
G1 X107.75
G1 X107.25 Z-4.1
G1 X105.25
G1 X104.75 Z-5.1
G1 X95.9
G1 X95.6364 Y169.6364
G0 Z3.0
G0 X116.6364
G0 Z-3.4
G1 F300.0 Z-5.1
G1 F800.0 X116.9 Y169.9
G1 Y178.75
G1 Y179.25 Z-4.1
G1 Y181.25
G1 Y181.75 Z-5.1
G1 Y198.1
G1 X116.6364 Y198.3636
G1 X116.9 Y198.1
G1 X118.25
G1 X118.75 Z-4.1
G1 X120.75
G1 X121.25 Z-5.1
G1 X130.1
G1 X130.3636 Y198.3636
G1 X130.1 Y198.1
G1 Y189.25
G1 Y188.75 Z-4.1
G1 Y186.75
G1 Y186.25 Z-5.1
G1 Y169.9
G1 X130.3636 Y169.6364
G1 X130.1 Y169.9
G1 X128.75
G1 X128.25 Z-4.1
G1 X126.25
G1 X125.75 Z-5.1
G1 X116.9
G1 X116.6364 Y169.6364
G0 Z3.0
G0 X137.6364
G0 Z-3.4
G1 F300.0 Z-5.1
G1 F800.0 X137.9 Y169.9
G1 Y178.75
G1 Y179.25 Z-4.1
G1 Y181.25
G1 Y181.75 Z-5.1
G1 Y198.1
G1 X137.6364 Y198.3636
G1 X137.9 Y198.1
G1 X139.25
G1 X139.75 Z-4.1
G1 X141.75
G1 X142.25 Z-5.1
G1 X151.1
G1 X151.3636 Y198.3636
G1 X151.1 Y198.1
G1 Y189.25
G1 Y188.75 Z-4.1
G1 Y186.75
G1 Y186.25 Z-5.1
G1 Y169.9
G1 X151.3636 Y169.6364
G1 X151.1 Y169.9
G1 X149.75
G1 X149.25 Z-4.1
G1 X147.25
G1 X146.75 Z-5.1
G1 X137.9
G1 X137.6364 Y169.6364
G0 Z3.0
G0 X158.6364
G0 Z-3.4
G1 F300.0 Z-5.1
G1 F800.0 X158.9 Y169.9
G1 Y178.75
G1 Y179.25 Z-4.1
G1 Y181.25
G1 Y181.75 Z-5.1
G1 Y198.1
G1 X158.6364 Y198.3636
G1 X158.9 Y198.1
G1 X160.25
G1 X160.75 Z-4.1
G1 X162.75
G1 X163.25 Z-5.1
G1 X172.1
G1 X172.3636 Y198.3636
G1 X172.1 Y198.1
G1 Y189.25
G1 Y188.75 Z-4.1
G1 Y186.75
G1 Y186.25 Z-5.1
G1 Y169.9
G1 X172.3636 Y169.6364
G1 X172.1 Y169.9
G1 X170.75
G1 X170.25 Z-4.1
G1 X168.25
G1 X167.75 Z-5.1
G1 X158.9
G1 X158.6364 Y169.6364
G0 Z3.0
G0 X179.6364
G0 Z-3.4
G1 F300.0 Z-5.1
G1 F800.0 X179.9 Y169.9
G1 Y178.75
G1 Y179.25 Z-4.1
G1 Y181.25
G1 Y181.75 Z-5.1
G1 Y198.1
G1 X179.6364 Y198.3636
G1 X179.9 Y198.1
G1 X181.25
G1 X181.75 Z-4.1
G1 X183.75
G1 X184.25 Z-5.1
G1 X193.1
G1 X193.3636 Y198.3636
G1 X193.1 Y198.1
G1 Y189.25
G1 Y188.75 Z-4.1
G1 Y186.75
G1 Y186.25 Z-5.1
G1 Y169.9
G1 X193.3636 Y169.6364
G1 X193.1 Y169.9
G1 X191.75
G1 X191.25 Z-4.1
G1 X189.25
G1 X188.75 Z-5.1
G1 X179.9
G1 X179.6364 Y169.6364
G0 Z3.0
G0 X200.6364
G0 Z-3.4
G1 F300.0 Z-5.1
G1 F800.0 X200.9 Y169.9
G1 Y178.75
G1 Y179.25 Z-4.1
G1 Y181.25
G1 Y181.75 Z-5.1
G1 Y198.1
G1 X200.6364 Y198.3636
G1 X200.9 Y198.1
G1 X202.25
G1 X202.75 Z-4.1
G1 X204.75
G1 X205.25 Z-5.1
G1 X214.1
G1 X214.3636 Y198.3636
G1 X214.1 Y198.1
G1 Y189.25
G1 Y188.75 Z-4.1
G1 Y186.75
G1 Y186.25 Z-5.1
G1 Y169.9
G1 X214.3636 Y169.6364
G1 X214.1 Y169.9
G1 X212.75
G1 X212.25 Z-4.1
G1 X210.25
G1 X209.75 Z-5.1
G1 X200.9
G1 X200.6364 Y169.6364
G0 Z3.0
G0 X221.6364
G0 Z-3.4
G1 F300.0 Z-5.1
G1 F800.0 X221.9 Y169.9
G1 Y178.75
G1 Y179.25 Z-4.1
G1 Y181.25
G1 Y181.75 Z-5.1
G1 Y198.1
G1 X221.6364 Y198.3636
G1 X221.9 Y198.1
G1 X223.25
G1 X223.75 Z-4.1
G1 X225.75
G1 X226.25 Z-5.1
G1 X235.1
G1 X235.3636 Y198.3636
G1 X235.1 Y198.1
G1 Y189.25
G1 Y188.75 Z-4.1
G1 Y186.75
G1 Y186.25 Z-5.1
G1 Y169.9
G1 X235.3636 Y169.6364
G1 X235.1 Y169.9
G1 X233.75
G1 X233.25 Z-4.1
G1 X231.25
G1 X230.75 Z-5.1
G1 X221.9
G1 X221.6364 Y169.6364
G0 Z3.0
G0 X242.6364
G0 Z-3.4
G1 F300.0 Z-5.1
G1 F800.0 X242.9 Y169.9
G1 Y178.75
G1 Y179.25 Z-4.1
G1 Y181.25
G1 Y181.75 Z-5.1
G1 Y198.1
G1 X242.6364 Y198.3636
G1 X242.9 Y198.1
G1 X244.25
G1 X244.75 Z-4.1
G1 X246.75
G1 X247.25 Z-5.1
G1 X256.1
G1 X256.3636 Y198.3636
G1 X256.1 Y198.1
G1 Y189.25
G1 Y188.75 Z-4.1
G1 Y186.75
G1 Y186.25 Z-5.1
G1 Y169.9
G1 X256.3636 Y169.6364
G1 X256.1 Y169.9
G1 X254.75
G1 X254.25 Z-4.1
G1 X252.25
G1 X251.75 Z-5.1
G1 X242.9
G1 X242.6364 Y169.6364
G0 Z3.0
M5
M30
